( pcb2gcode 1.3.2 )
( Software-independent Gcode )

G94 ( Millimeters per minute feed rate. )
G21 ( Units == Millimeters. )

G90 ( Absolute coordinates. )
S10000 ( RPM spindle speed. )
G64 P0.01000 ( set maximum deviation from commanded toolpath )
F100.00000 ( Feedrate. )

F100.00000 ( Feedrate. )
M3 ( Spindle on clockwise. )
G04 P1.00000
G04 P0 ( dwell for no time -- G64 should not smooth over this point )
G00 Z5.00000 ( retract )

G00 X74.58421 Y37.23817 ( rapid move to begin. )
F50.00000
G01 Z-0.05000
G04 P0 ( dwell for no time -- G64 should not smooth over this point )
F100.00000
G01 X74.58421 Y37.23817
X74.58348 Y38.01699
X74.28475 Y38.73642
X73.73349 Y39.28673
X73.01350 Y39.58424
X72.23466 Y39.58351
X71.51523 Y39.28478
X70.96494 Y38.73352
X70.66741 Y38.01351
X70.66814 Y37.23469
X70.96687 Y36.51526
X71.51813 Y35.96497
X72.23814 Y35.66744
X73.01696 Y35.66817
X73.73639 Y35.96690
X74.28668 Y36.51816
X74.58421 Y37.23817
G04 P0 ( dwell for no time -- G64 should not smooth over this point )
G00 Z5.00000 ( retract )

G00 X58.90728 Y19.89876 ( rapid move to begin. )
F50.00000
G01 Z-0.05000
G04 P0 ( dwell for no time -- G64 should not smooth over this point )
F100.00000
G01 X58.90728 Y19.89876
X58.89336 Y19.79008
X58.86126 Y19.70184
X58.75839 Y19.56437
X58.66827 Y19.50196
X58.58122 Y19.46678
X58.40030 Y19.45292
X57.45796 Y18.51055
X57.41013 Y18.47243
X57.31722 Y18.43529
X52.26475 Y18.43003
X52.21027 Y18.37057
X52.12015 Y18.30816
X51.97176 Y18.25993
X51.87783 Y18.25663
X51.75553 Y18.28266
X51.60811 Y18.37057
X51.50524 Y18.50804
X51.46661 Y18.62688
X51.45919 Y18.70496
X51.47313 Y18.81367
X51.54514 Y18.96943
X51.67108 Y19.08611
X51.75553 Y19.12729
X51.86213 Y19.15248
X51.95624 Y19.15248
X52.06284 Y19.12729
X52.19805 Y19.04926
X52.26472 Y18.97994
X57.14963 Y18.97994
X58.01239 Y19.84273
X58.01473 Y19.97687
X58.05336 Y20.09571
X58.14510 Y20.22205
X58.24635 Y20.29559
X58.39473 Y20.34382
X58.48864 Y20.34710
X58.58122 Y20.33077
X58.69542 Y20.27991
X58.76951 Y20.22205
X58.86126 Y20.09571
X58.89336 Y20.00747
X58.90728 Y19.89876
G04 P0 ( dwell for no time -- G64 should not smooth over this point )
G00 Z5.00000 ( retract )

G00 X59.11549 Y19.76856 ( rapid move to begin. )
F50.00000
G01 Z-0.05000
G04 P0 ( dwell for no time -- G64 should not smooth over this point )
F100.00000
G01 X59.11549 Y19.76856
X59.11523 Y20.03026
X59.01485 Y20.27204
X58.82958 Y20.45695
X58.58757 Y20.55695
X58.32588 Y20.55670
X58.08409 Y20.45632
X57.89916 Y20.27105
X57.79761 Y20.02523
X57.77520 Y19.92594
X57.71808 Y19.84263
X57.14460 Y19.26915
X57.09644 Y19.23077
X57.00279 Y19.19335
X52.47140 Y19.18802
X52.37229 Y19.20641
X52.28522 Y19.26160
X52.03945 Y19.36315
X51.77776 Y19.36290
X51.53597 Y19.26252
X51.35106 Y19.07725
X51.25106 Y18.83524
X51.25131 Y18.57354
X51.35170 Y18.33176
X51.53696 Y18.14685
X51.77897 Y18.04685
X52.04067 Y18.04710
X52.28634 Y18.14911
X52.37245 Y18.20352
X52.47166 Y18.22196
X57.23622 Y18.22196
X57.44627 Y18.26376
X57.62440 Y18.38276
X58.42410 Y19.17842
X58.48440 Y19.21677
X58.58506 Y19.23933
X58.83057 Y19.34128
X59.01549 Y19.52655
X59.11549 Y19.76856
G04 P0 ( dwell for no time -- G64 should not smooth over this point )
G00 Z5.00000 ( retract )

G00 X55.90493 Y21.88184 ( rapid move to begin. )
F50.00000
G01 Z-0.05000
G04 P0 ( dwell for no time -- G64 should not smooth over this point )
F100.00000
G01 X55.90493 Y21.88184
X55.90467 Y22.14354
X55.80429 Y22.38532
X55.61902 Y22.57023
X55.37701 Y22.67023
X55.11532 Y22.66998
X54.87117 Y22.56861
X54.76330 Y22.49327
X54.66401 Y22.47475
X53.45174 Y22.47475
X53.35273 Y22.49317
X53.26566 Y22.54836
X53.01989 Y22.64991
X52.75820 Y22.64966
X52.51641 Y22.54928
X52.33150 Y22.36401
X52.23150 Y22.12200
X52.23175 Y21.86030
X52.33214 Y21.61852
X52.51740 Y21.43361
X52.75941 Y21.33361
X53.02111 Y21.33386
X53.26678 Y21.43587
X53.35289 Y21.49028
X53.45210 Y21.50872
X54.70498 Y21.50872
X54.80927 Y21.48837
X55.11653 Y21.35390
X55.37823 Y21.35418
X55.62001 Y21.45456
X55.80493 Y21.63983
X55.90493 Y21.88184
G04 P0 ( dwell for no time -- G64 should not smooth over this point )
G00 Z5.00000 ( retract )

G00 X55.69672 Y22.01204 ( rapid move to begin. )
F50.00000
G01 Z-0.05000
G04 P0 ( dwell for no time -- G64 should not smooth over this point )
F100.00000
G01 X55.69672 Y22.01204
X55.66342 Y21.84372
X55.60091 Y21.73539
X55.48486 Y21.63092
X55.30932 Y21.56701
X55.19969 Y21.56455
X55.09309 Y21.58974
X55.00864 Y21.63092
X54.90935 Y21.71674
X53.24516 Y21.71674
X53.19071 Y21.65733
X53.10059 Y21.59492
X52.92096 Y21.54339
X52.84257 Y21.54423
X52.73597 Y21.56942
X52.58855 Y21.65733
X52.48568 Y21.79480
X52.45357 Y21.88304
X52.43963 Y21.99172
X52.47295 Y22.16007
X52.53546 Y22.26840
X52.65152 Y22.37287
X52.82705 Y22.43678
X52.93668 Y22.43924
X53.04328 Y22.41405
X53.17849 Y22.33602
X53.24516 Y22.26670
X54.87633 Y22.26670
X54.94567 Y22.34646
X55.03579 Y22.40887
X55.21539 Y22.46038
X55.29380 Y22.45956
X55.40040 Y22.43437
X55.54783 Y22.34646
X55.65070 Y22.20899
X55.68280 Y22.12075
X55.69672 Y22.01204
G04 P0 ( dwell for no time -- G64 should not smooth over this point )
G00 Z5.00000 ( retract )

G00 X56.05232 Y26.29956 ( rapid move to begin. )
F50.00000
G01 Z-0.05000
G04 P0 ( dwell for no time -- G64 should not smooth over this point )
F100.00000
G01 X56.05232 Y26.29956
X56.03840 Y26.19088
X56.00630 Y26.10264
X55.90343 Y25.96517
X55.81331 Y25.90276
X55.72626 Y25.86758
X55.54536 Y25.85372
X54.95860 Y25.26695
X54.91077 Y25.22883
X54.81793 Y25.19172
X53.21479 Y25.18651
X53.14801 Y25.11709
X53.01280 Y25.03906
X52.90620 Y25.01387
X52.81209 Y25.01387
X52.64819 Y25.06456
X52.55807 Y25.12697
X52.48654 Y25.21011
X52.42309 Y25.35268
X52.40915 Y25.46136
X52.41657 Y25.53947
X52.44247 Y25.62971
X52.49510 Y25.72583
X52.62104 Y25.84251
X52.79657 Y25.90642
X52.90620 Y25.90888
X53.01280 Y25.88369
X53.14801 Y25.80566
X53.21468 Y25.73634
X54.65027 Y25.73634
X55.15743 Y26.24353
X55.16629 Y26.40827
X55.24818 Y26.57624
X55.36424 Y26.68071
X55.47843 Y26.73157
X55.55529 Y26.74708
X55.66492 Y26.74462
X55.81331 Y26.69639
X55.89121 Y26.64386
X55.96639 Y26.56403
X56.00630 Y26.49651
X56.03840 Y26.40827
X56.05232 Y26.29956
G04 P0 ( dwell for no time -- G64 should not smooth over this point )
G00 Z5.00000 ( retract )

G00 X52.35743 Y29.95843 ( rapid move to begin. )
F50.00000
G01 Z-0.05000
G04 P0 ( dwell for no time -- G64 should not smooth over this point )
F100.00000
G01 X52.35743 Y29.95843
X52.35741 Y24.54750
X52.32264 Y24.41638
X52.18187 Y24.25806
X59.40002 Y24.25806
X59.48719 Y24.36830
X59.57731 Y24.43071
X59.72569 Y24.47894
X59.83532 Y24.48140
X59.94192 Y24.45621
X60.02638 Y24.41503
X60.10047 Y24.35717
X60.19222 Y24.23083
X60.23085 Y24.11199
X60.23743 Y24.01816
X60.20494 Y23.86556
X60.15231 Y23.76944
X60.08935 Y23.69949
X59.99923 Y23.63708
X59.81960 Y23.58555
X59.74121 Y23.58639
X59.63461 Y23.61158
X59.47858 Y23.70810
X43.90820 Y23.70810
X43.85059 Y23.59672
X43.77541 Y23.51689
X43.64020 Y23.43886
X43.51788 Y23.41283
X43.42397 Y23.41613
X43.27559 Y23.46436
X43.18547 Y23.52677
X43.12250 Y23.59672
X43.06987 Y23.69284
X43.03739 Y23.84544
X43.04397 Y23.93927
X43.08260 Y24.05811
X43.17434 Y24.18445
X43.24844 Y24.24231
X43.33289 Y24.28349
X43.43949 Y24.30868
X43.54912 Y24.30622
X43.69735 Y24.25806
X51.40415 Y24.25806
X51.80745 Y24.66139
X51.80745 Y29.95841
X51.81994 Y30.00837
X51.78850 Y29.90232
X51.73983 Y29.86981
X51.68243 Y29.85838
X51.42505 Y29.86981
X51.37638 Y29.90232
X51.33534 Y29.97911
X51.30745 Y32.55332
X51.15675 Y32.57882
X51.00900 Y32.57882
X50.83983 Y32.54961
X50.65779 Y32.57882
X50.50900 Y32.57882
X50.33984 Y32.54961
X50.15779 Y32.57882
X50.00898 Y32.57882
X49.83981 Y32.54961
X49.65777 Y32.57882
X49.50898 Y32.57882
X49.33981 Y32.54961
X49.15777 Y32.57882
X49.00898 Y32.57882
X48.83981 Y32.54961
X48.65777 Y32.57882
X48.50898 Y32.57882
X48.33981 Y32.54961
X48.15777 Y32.57882
X48.00898 Y32.57882
X47.83982 Y32.54961
X47.65777 Y32.57882
X47.50898 Y32.57882
X47.33982 Y32.54961
X47.15777 Y32.57882
X47.01015 Y32.57882
X46.85089 Y32.55157
X46.71460 Y32.46188
X46.64853 Y32.43536
X46.57324 Y32.42818
X46.46001 Y32.45838
X46.30754 Y32.55332
X46.15674 Y32.57882
X46.00898 Y32.57882
X45.83982 Y32.54961
X45.65778 Y32.57882
X45.50898 Y32.57882
X45.33982 Y32.54961
X45.15778 Y32.57882
X45.00899 Y32.57882
X44.83982 Y32.54961
X44.65778 Y32.57882
X44.51015 Y32.57882
X44.35745 Y32.55180
X44.35742 Y32.26244
X44.34495 Y32.20836
X44.37640 Y32.31443
X44.42506 Y32.34695
X44.48244 Y32.35835
X44.73985 Y32.34695
X44.78851 Y32.31443
X44.82956 Y32.23765
X44.83246 Y30.00837
X44.84389 Y29.95099
X44.87640 Y29.90232
X44.92506 Y29.86981
X44.98244 Y29.85838
X45.23985 Y29.86981
X45.30716 Y29.92506
X45.33245 Y30.00837
X45.34388 Y29.95099
X45.37640 Y29.90232
X45.42506 Y29.86981
X45.48244 Y29.85838
X45.73985 Y29.86981
X45.80716 Y29.92506
X45.83245 Y30.00837
X45.84388 Y29.95099
X45.87640 Y29.90232
X45.95318 Y29.86128
X46.21173 Y29.86128
X46.29821 Y29.91413
X46.31996 Y30.00837
X46.33535 Y32.23765
X46.37639 Y32.31443
X46.45318 Y32.35548
X46.71173 Y32.35548
X46.78851 Y32.31443
X46.82102 Y32.26577
X46.83245 Y32.20836
X46.83245 Y29.22132
X46.85894 Y29.06156
X48.11005 Y27.80505
X48.11381 Y27.68452
X48.13971 Y27.59428
X48.19234 Y27.49816
X48.24418 Y27.43934
X48.40273 Y27.34030
X48.50933 Y27.31511
X48.59996 Y27.31493
X50.09269 Y25.82225
X50.09501 Y25.68808
X50.12091 Y25.59784
X50.17354 Y25.50172
X50.22538 Y25.44290
X50.32663 Y25.36936
X50.47501 Y25.32113
X50.60016 Y25.32113
X50.74855 Y25.36936
X50.83867 Y25.43177
X50.91019 Y25.51491
X50.97364 Y25.65748
X50.98756 Y25.76616
X50.97364 Y25.87487
X50.90163 Y26.03063
X50.82645 Y26.11046
X50.69124 Y26.18849
X50.58464 Y26.21368
X50.48063 Y26.21203
X48.99983 Y27.69280
X48.99897 Y27.84071
X48.97306 Y27.93095
X48.92043 Y28.02707
X48.85747 Y28.09702
X48.76735 Y28.15943
X48.68030 Y28.19461
X48.60344 Y28.21012
X48.48655 Y28.20611
X47.35742 Y29.33522
X47.35742 Y29.95846
X47.34495 Y30.00837
X47.37639 Y29.90232
X47.42506 Y29.86981
X47.48244 Y29.85838
X47.73984 Y29.86981
X47.80715 Y29.92506
X47.83245 Y30.00837
X47.84388 Y29.95099
X47.87639 Y29.90232
X47.92506 Y29.86981
X47.98244 Y29.85838
X48.23984 Y29.86981
X48.30715 Y29.92506
X48.33245 Y30.00837
X48.34388 Y29.95099
X48.37639 Y29.90232
X48.42506 Y29.86981
X48.48244 Y29.85838
X48.73984 Y29.86981
X48.80715 Y29.92506
X48.83245 Y30.00837
X48.84388 Y29.95099
X48.87639 Y29.90232
X48.92506 Y29.86981
X48.98243 Y29.85838
X49.23984 Y29.86981
X49.30715 Y29.92506
X49.33245 Y30.00837
X49.34388 Y29.95099
X49.37639 Y29.90232
X49.42505 Y29.86981
X49.48243 Y29.85838
X49.73984 Y29.86981
X49.80715 Y29.92506
X49.83245 Y30.00837
X49.84388 Y29.95099
X49.87639 Y29.90232
X49.95317 Y29.86128
X50.23984 Y29.86981
X50.30715 Y29.92506
X50.33244 Y30.00837
X50.35774 Y29.92506
X50.42505 Y29.86981
X50.71172 Y29.86128
X50.78850 Y29.90232
X50.82101 Y29.95099
X50.83244 Y30.00837
X50.85774 Y29.92506
X50.92505 Y29.86981
X51.18243 Y29.85838
X51.23983 Y29.86981
X51.28850 Y29.90232
X51.32101 Y29.95099
X51.33244 Y30.00837
G04 P0 ( dwell for no time -- G64 should not smooth over this point )
G00 Z5.00000 ( retract )

G00 X52.81994 Y30.00837 ( rapid move to begin. )
F50.00000
G01 Z-0.05000
G04 P0 ( dwell for no time -- G64 should not smooth over this point )
F100.00000
G01 X52.81994 Y30.00837
X52.81994 Y31.10837
G04 P0 ( dwell for no time -- G64 should not smooth over this point )
G00 Z5.00000 ( retract )

G00 X53.83246 Y30.00837 ( rapid move to begin. )
F50.00000
G01 Z-0.05000
G04 P0 ( dwell for no time -- G64 should not smooth over this point )
F100.00000
G01 X53.83246 Y30.00837
X53.84389 Y29.95099
X53.87640 Y29.90232
X53.92507 Y29.86981
X53.98245 Y29.85838
X54.23985 Y29.86981
X54.28852 Y29.90232
X54.32957 Y29.97911
X54.33246 Y32.20836
X54.32103 Y32.26577
X54.28852 Y32.31443
X54.21174 Y32.35548
X53.92507 Y32.34695
X53.87640 Y32.31443
X53.83536 Y32.23765
X53.83246 Y30.00837
X53.82101 Y29.95099
X53.78850 Y29.90232
X53.71171 Y29.86128
X53.48243 Y29.85838
X53.39911 Y29.88368
X53.36929 Y29.91096
X53.35743 Y29.95843
X53.35741 Y27.91508
X53.42479 Y27.83608
X53.48824 Y27.69351
X53.50216 Y27.58480
X53.48824 Y27.47612
X53.41623 Y27.32036
X53.29030 Y27.20368
X53.17610 Y27.15282
X53.00513 Y27.13731
X52.84123 Y27.18800
X52.73998 Y27.26154
X52.68814 Y27.32036
X52.63551 Y27.41648
X52.60219 Y27.58480
X52.61613 Y27.69351
X52.64824 Y27.78175
X52.69802 Y27.86148
X52.80747 Y27.96118
X52.80747 Y29.95846
X52.81994 Y30.00837
X52.83244 Y32.20836
X52.84387 Y32.26577
X52.87638 Y32.31443
X52.95317 Y32.35548
X53.23983 Y32.34695
X53.28850 Y32.31443
X53.32954 Y32.23765
X53.34494 Y30.00837
X53.35743 Y29.95843
G04 P0 ( dwell for no time -- G64 should not smooth over this point )
G00 Z5.00000 ( retract )

G00 X54.83246 Y30.00837 ( rapid move to begin. )
F50.00000
G01 Z-0.05000
G04 P0 ( dwell for no time -- G64 should not smooth over this point )
F100.00000
G01 X54.83246 Y30.00837
X54.82103 Y29.95099
X54.78852 Y29.90232
X54.73985 Y29.86981
X54.68245 Y29.85838
X54.42507 Y29.86981
X54.35776 Y29.92506
X54.33246 Y30.00837
X54.33536 Y32.23765
X54.37640 Y32.31443
X54.42507 Y32.34695
X54.68245 Y32.35835
X54.73985 Y32.34695
X54.78852 Y32.31443
X54.82103 Y32.26577
X54.83246 Y32.20836
G04 P0 ( dwell for no time -- G64 should not smooth over this point )
G00 Z5.00000 ( retract )

G00 X55.33246 Y30.00837 ( rapid move to begin. )
F50.00000
G01 Z-0.05000
G04 P0 ( dwell for no time -- G64 should not smooth over this point )
F100.00000
G01 X55.33246 Y30.00837
X55.32103 Y29.95099
X55.28852 Y29.90232
X55.23985 Y29.86981
X55.18245 Y29.85838
X54.92507 Y29.86981
X54.85776 Y29.92506
X54.83246 Y30.00837
X54.83536 Y32.23765
X54.87640 Y32.31443
X54.92507 Y32.34695
X54.98245 Y32.35835
X55.21173 Y32.35548
X55.28852 Y32.31443
X55.30747 Y32.26236
G04 P0 ( dwell for no time -- G64 should not smooth over this point )
G00 Z5.00000 ( retract )

G00 X55.83254 Y30.99424 ( rapid move to begin. )
F50.00000
G01 Z-0.05000
G04 P0 ( dwell for no time -- G64 should not smooth over this point )
F100.00000
G01 X55.83254 Y30.99424
X55.83246 Y30.00837
X55.82103 Y29.95099
X55.78852 Y29.90232
X55.71173 Y29.86128
X55.42507 Y29.86981
X55.35776 Y29.92506
X55.33246 Y30.00837
X55.30747 Y32.55332
X55.15674 Y32.57882
X55.00899 Y32.57882
X54.83983 Y32.54961
X54.65779 Y32.57882
X54.50899 Y32.57882
X54.33983 Y32.54961
X54.15779 Y32.57882
X54.00899 Y32.57882
X53.83983 Y32.54961
X53.65779 Y32.57882
X53.50899 Y32.57882
X53.33983 Y32.54961
X53.15779 Y32.57882
X53.00899 Y32.57882
X52.83983 Y32.54961
X52.65779 Y32.57882
X52.50900 Y32.57882
X52.33983 Y32.54961
X52.15779 Y32.57882
X52.01014 Y32.57882
X51.85744 Y32.55180
X51.84494 Y31.22002
X51.81994 Y30.99671
X51.81994 Y30.00837
X51.82378 Y31.01622
G04 P0 ( dwell for no time -- G64 should not smooth over this point )
G00 Z5.00000 ( retract )

G00 X53.83246 Y32.20836 ( rapid move to begin. )
F50.00000
G01 Z-0.05000
G04 P0 ( dwell for no time -- G64 should not smooth over this point )
F100.00000
G01 X53.83246 Y32.20836
X53.82101 Y32.26577
X53.78850 Y32.31443
X53.71171 Y32.35548
X53.45316 Y32.35548
X53.37638 Y32.31443
X53.34387 Y32.26577
X53.33244 Y32.20836
X53.33594 Y31.20453
G04 P0 ( dwell for no time -- G64 should not smooth over this point )
G00 Z5.00000 ( retract )

G00 X52.83244 Y32.20836 ( rapid move to begin. )
F50.00000
G01 Z-0.05000
G04 P0 ( dwell for no time -- G64 should not smooth over this point )
F100.00000
G01 X52.83244 Y32.20836
X52.82101 Y32.26577
X52.78850 Y32.31443
X52.73983 Y32.34695
X52.68243 Y32.35835
X52.42505 Y32.34695
X52.35774 Y32.29170
X52.33244 Y32.20836
X52.34494 Y30.00837
X52.36930 Y29.91096
X52.45317 Y29.86128
X52.71171 Y29.86128
X52.78850 Y29.90232
X52.80747 Y29.95846
G04 P0 ( dwell for no time -- G64 should not smooth over this point )
G00 Z5.00000 ( retract )

G00 X52.33595 Y31.20453 ( rapid move to begin. )
F50.00000
G01 Z-0.05000
G04 P0 ( dwell for no time -- G64 should not smooth over this point )
F100.00000
G01 X52.33595 Y31.20453
X52.33244 Y32.20836
X52.32101 Y32.26577
X52.28850 Y32.31443
X52.21171 Y32.35548
X51.95317 Y32.35548
X51.86668 Y32.30262
X51.84494 Y32.20836
G04 P0 ( dwell for no time -- G64 should not smooth over this point )
G00 Z5.00000 ( retract )

G00 X51.30745 Y32.26236 ( rapid move to begin. )
F50.00000
G01 Z-0.05000
G04 P0 ( dwell for no time -- G64 should not smooth over this point )
F100.00000
G01 X51.30745 Y32.26236
X51.28850 Y32.31443
X51.21172 Y32.35548
X50.98243 Y32.35835
X50.92505 Y32.34695
X50.87639 Y32.31443
X50.83534 Y32.23765
X50.83244 Y30.00837
X50.82955 Y32.23765
X50.78850 Y32.31443
X50.73984 Y32.34695
X50.68243 Y32.35835
X50.45317 Y32.35548
X50.37639 Y32.31443
X50.34387 Y32.26577
X50.33244 Y32.20836
X50.33244 Y30.00837
G04 P0 ( dwell for no time -- G64 should not smooth over this point )
G00 Z5.00000 ( retract )

G00 X50.33244 Y32.20836 ( rapid move to begin. )
F50.00000
G01 Z-0.05000
G04 P0 ( dwell for no time -- G64 should not smooth over this point )
F100.00000
G01 X50.33244 Y32.20836
X50.32101 Y32.26577
X50.28850 Y32.31443
X50.23984 Y32.34695
X50.18243 Y32.35835
X49.92505 Y32.34695
X49.87639 Y32.31443
X49.83534 Y32.23765
X49.83245 Y30.00837
G04 P0 ( dwell for no time -- G64 should not smooth over this point )
G00 Z5.00000 ( retract )

G00 X49.83245 Y32.20836 ( rapid move to begin. )
F50.00000
G01 Z-0.05000
G04 P0 ( dwell for no time -- G64 should not smooth over this point )
F100.00000
G01 X49.83245 Y32.20836
X49.82102 Y32.26577
X49.78850 Y32.31443
X49.73984 Y32.34695
X49.68243 Y32.35835
X49.42505 Y32.34695
X49.37639 Y32.31443
X49.33534 Y32.23765
X49.33245 Y30.00837
X49.32955 Y32.23765
X49.28850 Y32.31443
X49.23984 Y32.34695
X49.18243 Y32.35835
X48.95317 Y32.35548
X48.87639 Y32.31443
X48.84388 Y32.26577
X48.83245 Y32.20836
X48.83245 Y30.00837
X48.82955 Y32.23765
X48.78851 Y32.31443
X48.71172 Y32.35548
X48.45317 Y32.35548
X48.39912 Y32.33308
X48.35775 Y32.29170
X48.33245 Y32.20836
X48.33245 Y30.00837
X48.32955 Y32.23765
X48.28851 Y32.31443
X48.21172 Y32.35548
X47.95318 Y32.35548
X47.87639 Y32.31443
X47.84388 Y32.26577
X47.83245 Y32.20836
X47.83245 Y30.00837
G04 P0 ( dwell for no time -- G64 should not smooth over this point )
G00 Z5.00000 ( retract )

G00 X47.83245 Y32.20836 ( rapid move to begin. )
F50.00000
G01 Z-0.05000
G04 P0 ( dwell for no time -- G64 should not smooth over this point )
F100.00000
G01 X47.83245 Y32.20836
X47.82102 Y32.26577
X47.78851 Y32.31443
X47.73984 Y32.34695
X47.68244 Y32.35835
X47.42506 Y32.34695
X47.37639 Y32.31443
X47.33535 Y32.23765
X47.34495 Y30.00837
G04 P0 ( dwell for no time -- G64 should not smooth over this point )
G00 Z5.00000 ( retract )

G00 X47.33596 Y31.20453 ( rapid move to begin. )
F50.00000
G01 Z-0.05000
G04 P0 ( dwell for no time -- G64 should not smooth over this point )
F100.00000
G01 X47.33596 Y31.20453
X47.32955 Y32.23765
X47.28851 Y32.31443
X47.23984 Y32.34695
X47.18244 Y32.35835
X46.95318 Y32.35548
X46.87639 Y32.31443
X46.84388 Y32.26577
X46.83245 Y32.20836
X46.83245 Y31.22267
G04 P0 ( dwell for no time -- G64 should not smooth over this point )
G00 Z5.00000 ( retract )

G00 X46.33245 Y32.20836 ( rapid move to begin. )
F50.00000
G01 Z-0.05000
G04 P0 ( dwell for no time -- G64 should not smooth over this point )
F100.00000
G01 X46.33245 Y32.20836
X46.32102 Y32.26577
X46.28851 Y32.31443
X46.23984 Y32.34695
X46.18244 Y32.35835
X45.92506 Y32.34695
X45.87640 Y32.31443
X45.83535 Y32.23765
X45.83245 Y30.00837
X45.83245 Y32.20836
X45.82102 Y32.26577
X45.78851 Y32.31443
X45.71173 Y32.35548
X45.48244 Y32.35835
X45.42506 Y32.34695
X45.37640 Y32.31443
X45.33535 Y32.23765
X45.33245 Y30.00837
X45.32956 Y32.23765
X45.28851 Y32.31443
X45.23985 Y32.34695
X44.98244 Y32.35835
X44.92506 Y32.34695
X44.87640 Y32.31443
X44.84389 Y32.26577
X44.83246 Y32.20836
G04 P0 ( dwell for no time -- G64 should not smooth over this point )
G00 Z5.00000 ( retract )

G00 X46.32034 Y31.12284 ( rapid move to begin. )
F50.00000
G01 Z-0.05000
G04 P0 ( dwell for no time -- G64 should not smooth over this point )
F100.00000
G01 X46.32034 Y31.12284
X46.31996 Y31.10837
G04 P0 ( dwell for no time -- G64 should not smooth over this point )
G00 Z5.00000 ( retract )

G00 X46.31996 Y30.00837 ( rapid move to begin. )
F50.00000
G01 Z-0.05000
G04 P0 ( dwell for no time -- G64 should not smooth over this point )
F100.00000
G01 X46.31996 Y30.00837
X46.30746 Y29.95427
X46.30748 Y29.66313
X46.15460 Y29.63791
X46.00733 Y29.63791
X45.82514 Y29.66717
X45.65577 Y29.63791
X45.50733 Y29.63791
X45.32514 Y29.66717
X45.15577 Y29.63791
X45.00733 Y29.63791
X44.82511 Y29.66717
X44.65575 Y29.63791
X44.50838 Y29.63791
X44.35742 Y29.66346
X44.35745 Y29.95439
X44.37640 Y29.90232
X44.45318 Y29.86128
X44.71173 Y29.86128
X44.78851 Y29.90232
X44.82103 Y29.95099
X44.83246 Y30.00837
G04 P0 ( dwell for no time -- G64 should not smooth over this point )
G00 Z5.00000 ( retract )

G00 X46.85153 Y29.08394 ( rapid move to begin. )
F50.00000
G01 Z-0.05000
G04 P0 ( dwell for no time -- G64 should not smooth over this point )
F100.00000
G01 X46.85153 Y29.08394
X46.85742 Y28.86715
X46.84193 Y28.77878
X47.81741 Y27.80332
X47.87441 Y27.72034
X47.99892 Y27.38940
X48.18416 Y27.20449
X48.51413 Y27.08049
X48.59737 Y27.02336
X49.79859 Y25.82214
X49.85558 Y25.73919
X49.87814 Y25.63848
X49.98010 Y25.39296
X50.16536 Y25.20805
X50.40737 Y25.10805
X50.66907 Y25.10830
X50.91134 Y25.20891
X51.19434 Y25.47305
X51.29752 Y25.50350
X51.40453 Y25.49215
X51.52335 Y25.41955
X51.57539 Y25.34168
X51.59538 Y25.27571
X51.59698 Y24.83754
X51.56450 Y24.73038
X51.37641 Y24.52862
X51.30928 Y24.48722
X51.20323 Y24.46611
X43.80058 Y24.46611
X43.61684 Y24.51938
X43.35512 Y24.51910
X43.11333 Y24.41872
X42.92842 Y24.23345
X42.82842 Y23.99144
X42.82867 Y23.72974
X42.92906 Y23.48796
X43.11432 Y23.30305
X43.35633 Y23.20305
X43.61803 Y23.20330
X43.86060 Y23.30404
X44.02933 Y23.46091
X44.17071 Y23.50008
X59.30212 Y23.50008
X59.40794 Y23.47912
X59.65805 Y23.37574
X59.91975 Y23.37602
X60.16153 Y23.47640
X60.34645 Y23.66165
X60.41421 Y23.77048
X60.50410 Y23.83066
X60.61017 Y23.85176
X60.71619 Y23.83073
X60.78335 Y23.78933
X61.22859 Y23.34818
X61.28558 Y23.26523
X61.30814 Y23.16452
X61.41010 Y22.91900
X61.59536 Y22.73409
X61.83737 Y22.63409
X62.10197 Y22.63434
X62.22953 Y22.65885
X62.36884 Y22.61296
X62.58535 Y22.35984
X62.61878 Y22.23998
X62.72076 Y21.99444
X62.90600 Y21.80953
X63.14801 Y21.70953
X63.40971 Y21.70978
X63.65149 Y21.81016
X63.83641 Y21.99543
X63.93641 Y22.23744
X63.93615 Y22.49914
X63.83577 Y22.74092
X63.65050 Y22.92586
X63.46005 Y23.00452
X63.37006 Y23.06459
X63.30996 Y23.15443
X63.28881 Y23.26050
X63.28881 Y36.86421
X63.24705 Y37.07414
X63.12805 Y37.25227
X59.66032 Y40.71998
X59.60027 Y40.80982
X59.58206 Y40.88653
X59.59174 Y40.99372
X59.61830 Y41.05711
X59.66565 Y41.11678
X59.72422 Y41.15788
X59.85615 Y41.19280
X75.91578 Y41.19280
X76.02180 Y41.17174
X76.11167 Y41.11170
X76.17171 Y41.02183
X76.19277 Y40.91581
X76.19277 Y2.33581
X76.17171 Y2.22984
X76.11167 Y2.13997
X76.02183 Y2.07993
X75.91578 Y2.05882
X2.33579 Y2.05882
X2.19454 Y2.09796
X2.09795 Y2.19456
X2.05880 Y2.33581
X2.05880 Y40.91581
X2.07991 Y41.02186
X2.12131 Y41.08899
X2.19454 Y41.15371
X2.25799 Y41.18028
X2.33579 Y41.19280
X15.97651 Y41.19280
X16.09586 Y41.16545
X16.20683 Y41.06974
X16.24818 Y40.96989
X16.25108 Y40.89118
X16.19807 Y40.75016
X14.42675 Y38.97434
X14.30775 Y38.79624
X14.26597 Y38.58620
X14.26597 Y16.29392
X14.30778 Y16.08386
X14.42678 Y15.90573
X21.17507 Y9.15746
X21.35318 Y9.03846
X21.56319 Y8.99668
X56.96698 Y8.99668
X57.17703 Y9.03848
X57.35516 Y9.15748
X62.44228 Y14.24462
X62.56127 Y14.42273
X62.60303 Y14.63271
X62.60710 Y16.77215
X62.66539 Y16.89831
X62.81533 Y17.05257
X62.91533 Y17.29460
X62.91507 Y17.55630
X62.81469 Y17.79808
X62.62942 Y17.98299
X62.38741 Y18.08299
X62.12572 Y18.08274
X61.88393 Y17.98236
X61.69841 Y17.79648
X61.60027 Y17.58142
X61.49155 Y17.49412
X61.35399 Y17.47238
X61.23110 Y17.50895
X60.96748 Y17.50870
X60.72569 Y17.40832
X60.54078 Y17.22305
X60.44078 Y16.98106
X60.41988 Y16.82521
X60.35991 Y16.73524
X60.27685 Y16.67812
X60.13928 Y16.65638
X59.90931 Y16.73679
X59.64668 Y16.73654
X59.40489 Y16.63616
X59.21996 Y16.45089
X59.11968 Y16.20817
X59.11134 Y15.96522
X59.03918 Y15.83751
X58.93553 Y15.77243
X58.71290 Y15.75648
X58.47017 Y15.65572
X58.28524 Y15.47045
X58.18369 Y15.22463
X58.16128 Y15.12534
X58.10416 Y15.04203
X55.81872 Y12.75659
X55.72888 Y12.69654
X55.65212 Y12.67833
X23.43118 Y12.67792
X23.32401 Y12.71041
X23.26011 Y12.75659
X18.66596 Y17.35074
X18.60591 Y17.44058
X18.58481 Y17.54657
X18.58770 Y37.94699
X18.60591 Y38.02375
X18.64732 Y38.09088
X18.77447 Y38.22209
X18.86433 Y38.28214
X18.94109 Y38.30033
X21.19567 Y38.30320
X21.29481 Y38.28481
X21.35445 Y38.25316
X21.50990 Y38.08603
X21.54482 Y37.95405
X21.55739 Y35.24895
X21.59181 Y35.07915
X21.67350 Y34.95954
X21.79694 Y34.88011
X21.95379 Y34.85060
X22.10111 Y34.85060
X22.27052 Y34.87989
X22.45274 Y34.85060
X22.60001 Y34.85060
X22.75285 Y34.87768
X22.76534 Y36.20940
X22.79028 Y36.43274
X22.78985 Y37.42108
X22.80179 Y37.46896
X22.79879 Y39.03456
X22.77891 Y39.10007
X22.72229 Y39.18252
X22.01988 Y39.88490
X21.93743 Y39.94152
X21.87190 Y39.96141
X18.16908 Y39.96255
X18.09311 Y39.94452
X18.00388 Y39.88490
X16.84564 Y38.72666
X16.78603 Y38.63749
X16.76510 Y38.53220
X16.76911 Y16.89074
X16.78903 Y16.82516
X16.84564 Y16.74271
X22.45904 Y11.12931
X22.52229 Y11.08359
X22.65348 Y11.04877
X56.41803 Y11.05405
X56.51097 Y11.09119
X56.55885 Y11.12936
X59.84421 Y14.42222
X59.88366 Y14.51417
X59.89052 Y14.57492
X59.89054 Y15.64419
X60.01622 Y15.69748
X60.14215 Y15.81416
X60.21416 Y15.96992
X60.22808 Y16.07860
X60.21416 Y16.18731
X60.14215 Y16.34307
X60.06697 Y16.42290
X59.93176 Y16.50093
X59.80944 Y16.52694
X59.65419 Y16.51061
X59.54000 Y16.45975
X59.42394 Y16.35528
X59.36143 Y16.24695
X59.32811 Y16.07860
X59.34469 Y15.96174
X59.34058 Y14.68882
X56.25044 Y11.59870
X22.76737 Y11.59870
X17.31504 Y17.05104
X17.31504 Y38.41833
X18.31219 Y39.41546
X21.71157 Y39.41549
X22.25285 Y38.87419
X22.25287 Y38.42275
X22.27665 Y38.29344
X22.27784 Y35.22106
X22.30314 Y35.13775
X22.37045 Y35.08250
X22.65711 Y35.07397
X22.74360 Y35.12682
X22.76534 Y35.22106
X22.76918 Y36.22890
G04 P0 ( dwell for no time -- G64 should not smooth over this point )
G00 Z5.00000 ( retract )

G00 X44.35745 Y29.95450 ( rapid move to begin. )
F50.00000
G01 Z-0.05000
G04 P0 ( dwell for no time -- G64 should not smooth over this point )
F100.00000
G01 X44.35745 Y29.95450
X44.34495 Y30.00837
X44.34495 Y32.20836
G04 P0 ( dwell for no time -- G64 should not smooth over this point )
G00 Z5.00000 ( retract )

G00 X43.81996 Y30.00837 ( rapid move to begin. )
F50.00000
G01 Z-0.05000
G04 P0 ( dwell for no time -- G64 should not smooth over this point )
F100.00000
G01 X43.81996 Y30.00837
X43.81996 Y32.20836
X43.80749 Y32.26234
X43.80746 Y32.55332
X43.65674 Y32.57882
X43.50899 Y32.57882
X43.33982 Y32.54961
X43.15778 Y32.57882
X43.00899 Y32.57882
X42.83983 Y32.54961
X42.65778 Y32.57882
X42.50899 Y32.57882
X42.33983 Y32.54961
X42.15778 Y32.57882
X42.01016 Y32.57882
X41.84051 Y32.54446
X41.72090 Y32.46277
X41.64148 Y32.33930
X41.61201 Y32.18258
X41.61199 Y30.03621
X41.64641 Y29.86646
X41.72812 Y29.74685
X41.85154 Y29.66740
X42.00833 Y29.63791
X42.15575 Y29.63791
X42.32512 Y29.66717
X42.50734 Y29.63791
X42.65575 Y29.63791
X42.82512 Y29.66717
X43.00734 Y29.63791
X43.15575 Y29.63791
X43.32512 Y29.66717
X43.50734 Y29.63791
X43.65461 Y29.63791
X43.80749 Y29.66499
X43.80749 Y29.95419
X43.81996 Y30.00837
X43.78852 Y29.90232
X43.73985 Y29.86981
X43.68245 Y29.85838
X43.42507 Y29.86981
X43.35776 Y29.92506
X43.33246 Y30.00837
X43.33535 Y32.23765
X43.37640 Y32.31443
X43.42507 Y32.34695
X43.48245 Y32.35835
X43.71173 Y32.35548
X43.78852 Y32.31443
X43.80749 Y32.26234
G04 P0 ( dwell for no time -- G64 should not smooth over this point )
G00 Z5.00000 ( retract )

G00 X42.83246 Y30.00837 ( rapid move to begin. )
F50.00000
G01 Z-0.05000
G04 P0 ( dwell for no time -- G64 should not smooth over this point )
F100.00000
G01 X42.83246 Y30.00837
X42.84389 Y29.95099
X42.87640 Y29.90232
X42.92507 Y29.86981
X42.98245 Y29.85838
X43.23985 Y29.86981
X43.28852 Y29.90232
X43.32956 Y29.97911
X43.33246 Y32.20836
X43.32103 Y32.26577
X43.28852 Y32.31443
X43.21173 Y32.35548
X42.98245 Y32.35835
X42.92507 Y32.34695
X42.87640 Y32.31443
X42.83536 Y32.23765
X42.83246 Y30.00837
X42.82103 Y29.95099
X42.78852 Y29.90232
X42.73985 Y29.86981
X42.68245 Y29.85838
X42.42507 Y29.86981
X42.37640 Y29.90232
X42.33536 Y29.97911
X42.33246 Y32.20836
X42.32103 Y32.26577
X42.28852 Y32.31443
X42.21173 Y32.35548
X41.95319 Y32.35548
X41.87640 Y32.31443
X41.84389 Y32.26577
X41.83246 Y32.20836
X41.83246 Y30.00837
X41.84389 Y29.95099
X41.87640 Y29.90232
X41.92507 Y29.86981
X41.98245 Y29.85838
X42.23985 Y29.86981
X42.28852 Y29.90232
X42.32956 Y29.97911
X42.33246 Y32.20836
X42.34389 Y32.26577
X42.37640 Y32.31443
X42.45319 Y32.35548
X42.71173 Y32.35548
X42.78852 Y32.31443
X42.82103 Y32.26577
X42.83246 Y32.20836
G04 P0 ( dwell for no time -- G64 should not smooth over this point )
G00 Z5.00000 ( retract )

G00 X42.83246 Y35.20836 ( rapid move to begin. )
F50.00000
G01 Z-0.05000
G04 P0 ( dwell for no time -- G64 should not smooth over this point )
F100.00000
G01 X42.83246 Y35.20836
X42.84389 Y35.15098
X42.87640 Y35.10231
X42.92507 Y35.06980
X42.98245 Y35.05837
X43.23985 Y35.06980
X43.28852 Y35.10231
X43.32956 Y35.17910
X43.33246 Y37.40835
X43.32103 Y37.46576
X43.28852 Y37.51442
X43.21173 Y37.55547
X42.98245 Y37.55834
X42.92507 Y37.54694
X42.87640 Y37.51442
X42.83536 Y37.43764
X42.83246 Y35.20836
X42.82103 Y35.15098
X42.78852 Y35.10231
X42.73985 Y35.06980
X42.68245 Y35.05837
X42.42507 Y35.06980
X42.37640 Y35.10231
X42.33536 Y35.17910
X42.33246 Y37.40835
X42.32103 Y37.46576
X42.28852 Y37.51442
X42.21173 Y37.55547
X41.95319 Y37.55547
X41.87640 Y37.51442
X41.84389 Y37.46576
X41.83246 Y37.40835
X41.83246 Y35.20836
X41.84389 Y35.15098
X41.87640 Y35.10231
X41.92507 Y35.06980
X41.98245 Y35.05837
X42.23985 Y35.06980
X42.28852 Y35.10231
X42.32956 Y35.17910
X42.33246 Y37.40835
X42.34389 Y37.46576
X42.37640 Y37.51442
X42.45319 Y37.55547
X42.71173 Y37.55547
X42.78852 Y37.51442
X42.82103 Y37.46576
X42.83246 Y37.40835
G04 P0 ( dwell for no time -- G64 should not smooth over this point )
G00 Z5.00000 ( retract )

G00 X44.33596 Y36.40452 ( rapid move to begin. )
F50.00000
G01 Z-0.05000
G04 P0 ( dwell for no time -- G64 should not smooth over this point )
F100.00000
G01 X44.33596 Y36.40452
X44.33246 Y37.40835
X44.32103 Y37.46576
X44.28851 Y37.51442
X44.21173 Y37.55547
X43.92507 Y37.54694
X43.85776 Y37.49169
X43.83246 Y37.40835
X43.80749 Y34.86498
X43.65461 Y34.83790
X43.50736 Y34.83790
X43.32512 Y34.86719
X43.15570 Y34.83790
X43.00736 Y34.83790
X42.82512 Y34.86719
X42.65570 Y34.83790
X42.50736 Y34.83790
X42.32512 Y34.86719
X42.15570 Y34.83790
X42.00838 Y34.83790
X41.85154 Y34.86741
X41.72809 Y34.94684
X41.64641 Y35.06645
X41.61199 Y35.23620
X41.61201 Y37.38255
X41.64148 Y37.53932
X41.72090 Y37.66273
X41.84051 Y37.74445
X42.01016 Y37.77881
X42.15778 Y37.77881
X42.33983 Y37.74960
X42.50899 Y37.77881
X42.65778 Y37.77881
X42.83983 Y37.74960
X43.00899 Y37.77881
X43.15778 Y37.77881
X43.33982 Y37.74960
X43.50899 Y37.77881
X43.65674 Y37.77881
X43.80754 Y37.75331
X43.96002 Y37.65837
X44.02684 Y37.63365
X44.10233 Y37.62857
X44.21460 Y37.66187
X44.35090 Y37.75156
X44.51015 Y37.77881
X44.65793 Y37.77881
X44.82621 Y37.75252
X44.90236 Y37.76566
X44.99669 Y37.81585
X45.06492 Y37.89829
X45.09943 Y38.02946
X45.09943 Y39.67883
X45.08097 Y39.77817
X44.99748 Y39.89430
X44.89623 Y40.13817
X44.89598 Y40.39984
X44.99641 Y40.64292
X45.12237 Y40.78808
X45.14980 Y40.86199
X45.15262 Y40.94078
X45.10835 Y41.06981
X45.03789 Y41.14198
X44.95590 Y41.18028
X44.87807 Y41.19280
X26.32990 Y41.19280
X26.19790 Y41.15785
X26.09564 Y41.06344
X26.05538 Y40.94045
X26.07712 Y40.80289
X26.14514 Y40.70995
X26.29627 Y40.63065
X26.48253 Y40.44472
X26.58291 Y40.20294
X26.58317 Y39.94124
X26.48317 Y39.69923
X26.29825 Y39.51396
X26.18164 Y39.46555
X26.09724 Y39.41059
X26.05358 Y39.35735
X26.01621 Y39.26390
X26.01088 Y38.04244
X26.04573 Y37.91036
X26.08680 Y37.85171
X26.14781 Y37.80365
X26.29035 Y37.76385
X26.45429 Y37.79151
X26.60318 Y37.79151
X26.78522 Y37.76230
X26.95441 Y37.79151
X27.10214 Y37.79151
X27.25294 Y37.76601
X27.40541 Y37.67107
X27.51865 Y37.64087
X27.59393 Y37.64805
X27.66000 Y37.67457
X27.79629 Y37.76426
X27.95555 Y37.79151
X28.10318 Y37.79151
X28.28522 Y37.76230
X28.45441 Y37.79151
X28.60213 Y37.79151
X28.75296 Y37.76601
X28.90541 Y37.67107
X29.01864 Y37.64087
X29.09393 Y37.64805
X29.16000 Y37.67457
X29.29629 Y37.76426
X29.45555 Y37.79151
X29.60317 Y37.79151
X29.78522 Y37.76230
X29.95441 Y37.79151
X30.10213 Y37.79151
X30.25296 Y37.76601
X30.40541 Y37.67107
X30.51864 Y37.64087
X30.59393 Y37.64805
X30.65999 Y37.67457
X30.79629 Y37.76426
X30.95555 Y37.79151
X31.10317 Y37.79151
X31.28521 Y37.76230
X31.45440 Y37.79151
X31.60213 Y37.79151
X31.75295 Y37.76601
X31.90540 Y37.67107
X32.01864 Y37.64087
X32.09392 Y37.64805
X32.15999 Y37.67457
X32.29631 Y37.76426
X32.45554 Y37.79151
X32.60319 Y37.79151
X32.78524 Y37.76230
X32.95440 Y37.79151
X33.10215 Y37.79151
X33.25293 Y37.76601
X33.40540 Y37.67107
X33.51864 Y37.64087
X33.59392 Y37.64805
X33.65999 Y37.67457
X33.79631 Y37.76426
X33.95554 Y37.79151
X34.10319 Y37.79151
X34.28523 Y37.76230
X34.45440 Y37.79151
X34.60215 Y37.79151
X34.75295 Y37.76601
X34.90542 Y37.67107
X35.01866 Y37.64087
X35.09394 Y37.64805
X35.16001 Y37.67457
X35.29630 Y37.76426
X35.45554 Y37.79151
X35.60319 Y37.79151
X35.78523 Y37.76230
X35.95439 Y37.79151
X36.10319 Y37.79151
X36.28523 Y37.76230
X36.45439 Y37.79151
X36.60217 Y37.79151
X36.75879 Y37.76207
X36.88220 Y37.68265
X36.96392 Y37.56304
X36.99828 Y37.39334
X36.99831 Y35.24684
X36.96884 Y35.09017
X36.88942 Y34.96675
X36.76978 Y34.88502
X36.60001 Y34.85060
X36.45277 Y34.85060
X36.27052 Y34.87989
X36.10110 Y34.85060
X35.95274 Y34.85060
X35.77052 Y34.87989
X35.60110 Y34.85060
X35.45376 Y34.85060
X35.30281 Y34.87615
X35.30281 Y35.16718
X35.31218 Y35.12672
X35.34451 Y35.09637
X35.42783 Y35.07107
X35.68523 Y35.08250
X35.75254 Y35.13775
X35.77784 Y35.22106
X35.78927 Y35.16368
X35.82178 Y35.11501
X35.87045 Y35.08250
X35.92783 Y35.07107
X36.18523 Y35.08250
X36.25254 Y35.13775
X36.27786 Y35.22106
X36.28929 Y35.16368
X36.32180 Y35.11501
X36.39859 Y35.07397
X36.65714 Y35.07397
X36.73392 Y35.11501
X36.76643 Y35.16368
X36.77784 Y35.22106
X36.77784 Y37.42105
X36.76643 Y37.47846
X36.73392 Y37.52712
X36.65714 Y37.56817
X36.37047 Y37.55964
X36.32180 Y37.52712
X36.28076 Y37.45034
X36.27786 Y35.22106
X36.27494 Y37.45034
X36.23390 Y37.52712
X36.18523 Y37.55964
X36.12782 Y37.57104
X35.89856 Y37.56817
X35.82178 Y37.52712
X35.78927 Y37.47846
X35.77784 Y37.42105
X35.77784 Y35.22106
G04 P0 ( dwell for no time -- G64 should not smooth over this point )
G00 Z5.00000 ( retract )

G00 X43.83246 Y37.40835 ( rapid move to begin. )
F50.00000
G01 Z-0.05000
G04 P0 ( dwell for no time -- G64 should not smooth over this point )
F100.00000
G01 X43.83246 Y37.40835
X43.82103 Y37.46576
X43.78852 Y37.51442
X43.73985 Y37.54694
X43.68245 Y37.55834
X43.42507 Y37.54694
X43.35776 Y37.49169
X43.33246 Y37.40835
X43.33535 Y35.17910
X43.37640 Y35.10231
X43.42507 Y35.06980
X43.68245 Y35.05837
X43.73985 Y35.06980
X43.78852 Y35.10231
X43.81996 Y35.20836
G04 P0 ( dwell for no time -- G64 should not smooth over this point )
G00 Z5.00000 ( retract )

G00 X45.31996 Y37.40835 ( rapid move to begin. )
F50.00000
G01 Z-0.05000
G04 P0 ( dwell for no time -- G64 should not smooth over this point )
F100.00000
G01 X45.31996 Y37.40835
X45.28851 Y37.51442
X45.23985 Y37.54694
X45.18244 Y37.55834
X44.92506 Y37.54694
X44.87640 Y37.51442
X44.83535 Y37.43764
X44.83246 Y35.20836
X44.82956 Y37.43764
X44.78851 Y37.51442
X44.73985 Y37.54694
X44.68244 Y37.55834
X44.45318 Y37.55547
X44.37640 Y37.51442
X44.34389 Y37.46576
X44.33246 Y37.40835
X44.33248 Y36.42286
X44.34495 Y36.30836
X44.34495 Y35.20836
X44.35742 Y35.15448
G04 P0 ( dwell for no time -- G64 should not smooth over this point )
G00 Z5.00000 ( retract )

G00 X46.34495 Y36.42001 ( rapid move to begin. )
F50.00000
G01 Z-0.05000
G04 P0 ( dwell for no time -- G64 should not smooth over this point )
F100.00000
G01 X46.34495 Y36.42001
X46.34495 Y37.40835
G04 P0 ( dwell for no time -- G64 should not smooth over this point )
G00 Z5.00000 ( retract )

G00 X46.83248 Y36.34818 ( rapid move to begin. )
F50.00000
G01 Z-0.05000
G04 P0 ( dwell for no time -- G64 should not smooth over this point )
F100.00000
G01 X46.83248 Y36.34818
X46.83245 Y36.34773
G04 P0 ( dwell for no time -- G64 should not smooth over this point )
G00 Z5.00000 ( retract )

G00 X46.83304 Y36.41694 ( rapid move to begin. )
F50.00000
G01 Z-0.05000
G04 P0 ( dwell for no time -- G64 should not smooth over this point )
F100.00000
G01 X46.83304 Y36.41694
X46.83243 Y36.40335
X46.83243 Y36.37589
G04 P0 ( dwell for no time -- G64 should not smooth over this point )
G00 Z5.00000 ( retract )

G00 X46.83316 Y36.41971 ( rapid move to begin. )
F50.00000
G01 Z-0.05000
G04 P0 ( dwell for no time -- G64 should not smooth over this point )
F100.00000
G01 X46.83316 Y36.41971
X46.83245 Y37.40835
X46.82102 Y37.46576
X46.78851 Y37.51442
X46.71173 Y37.55547
X46.48244 Y37.55834
X46.39913 Y37.53307
X46.36931 Y37.50579
X46.35745 Y37.45832
X46.35745 Y39.30281
X46.47802 Y39.35504
X46.60743 Y39.47787
G04 P0 ( dwell for no time -- G64 should not smooth over this point )
G00 Z5.00000 ( retract )

G00 X47.35638 Y36.22116 ( rapid move to begin. )
F50.00000
G01 Z-0.05000
G04 P0 ( dwell for no time -- G64 should not smooth over this point )
F100.00000
G01 X47.35638 Y36.22116
X47.33245 Y36.11984
X47.33245 Y35.20836
X47.33276 Y36.12060
G04 P0 ( dwell for no time -- G64 should not smooth over this point )
G00 Z5.00000 ( retract )

G00 X47.35643 Y36.19949 ( rapid move to begin. )
F50.00000
G01 Z-0.05000
G04 P0 ( dwell for no time -- G64 should not smooth over this point )
F100.00000
G01 X47.35643 Y36.19949
X47.35648 Y38.54838
X47.30746 Y38.74257
X47.30746 Y39.27777
X47.22206 Y39.36504
X47.15498 Y39.50563
X47.15496 Y38.89507
X47.30746 Y38.74257
G04 P0 ( dwell for no time -- G64 should not smooth over this point )
G00 Z5.00000 ( retract )

G00 X47.84495 Y36.30836 ( rapid move to begin. )
F50.00000
G01 Z-0.05000
G04 P0 ( dwell for no time -- G64 should not smooth over this point )
F100.00000
G01 X47.84495 Y36.30836
X47.84495 Y37.40835
X47.85744 Y37.45832
X47.84495 Y37.40835
X47.83245 Y35.20836
X47.83253 Y36.19421
G04 P0 ( dwell for no time -- G64 should not smooth over this point )
G00 Z5.00000 ( retract )

G00 X48.33245 Y37.40835 ( rapid move to begin. )
F50.00000
G01 Z-0.05000
G04 P0 ( dwell for no time -- G64 should not smooth over this point )
F100.00000
G01 X48.33245 Y37.40835
X48.32102 Y37.46576
X48.28851 Y37.51442
X48.21172 Y37.55547
X47.95318 Y37.55547
X47.87639 Y37.51442
X47.85744 Y37.45832
X47.85744 Y39.27246
X47.95015 Y39.36504
X48.02216 Y39.52080
X48.03527 Y39.64523
X47.99006 Y39.82643
X47.89831 Y39.95277
X47.79707 Y40.02631
X47.64868 Y40.07454
X47.53905 Y40.07700
X47.37515 Y40.02631
X47.28503 Y39.96390
X47.21350 Y39.88076
X47.15498 Y39.75336
X47.15498 Y39.91693
X47.47139 Y40.23334
X47.78521 Y40.23575
X47.94764 Y40.21747
X48.04022 Y40.23382
X48.12727 Y40.26900
X48.21739 Y40.33141
X48.32026 Y40.46888
X48.35889 Y40.58772
X48.36547 Y40.68155
X48.33298 Y40.83415
X48.28035 Y40.93027
X48.21739 Y41.00022
X48.12727 Y41.06263
X47.97888 Y41.11086
X47.86925 Y41.11332
X47.70535 Y41.06263
X47.61523 Y41.00022
X47.54370 Y40.91708
X47.48310 Y40.78330
X47.29674 Y40.77644
X47.18239 Y40.71869
X46.67573 Y40.21442
X46.61030 Y40.08450
X46.60741 Y39.99453
X46.64256 Y39.83403
X46.64835 Y39.72473
X46.60743 Y39.47787
X46.60903 Y38.73474
X46.66695 Y38.60942
X46.85745 Y38.41483
X46.85747 Y37.49116
X46.83245 Y37.40835
X46.83243 Y36.40335
X46.84495 Y36.20003
X46.84495 Y35.20836
X46.85742 Y35.15448
G04 P0 ( dwell for no time -- G64 should not smooth over this point )
G00 Z5.00000 ( retract )

G00 X49.31995 Y37.40835 ( rapid move to begin. )
F50.00000
G01 Z-0.05000
G04 P0 ( dwell for no time -- G64 should not smooth over this point )
F100.00000
G01 X49.31995 Y37.40835
X49.28850 Y37.51442
X49.23984 Y37.54694
X49.18243 Y37.55834
X48.92506 Y37.54694
X48.87639 Y37.51442
X48.83534 Y37.43764
X48.83245 Y35.20836
X48.82955 Y37.43764
X48.78851 Y37.51442
X48.73984 Y37.54694
X48.68244 Y37.55834
X48.45317 Y37.55547
X48.37639 Y37.51442
X48.34388 Y37.46576
X48.33245 Y37.40835
X48.33245 Y35.20836
G04 P0 ( dwell for no time -- G64 should not smooth over this point )
G00 Z5.00000 ( retract )

G00 X49.33245 Y36.19395 ( rapid move to begin. )
F50.00000
G01 Z-0.05000
G04 P0 ( dwell for no time -- G64 should not smooth over this point )
F100.00000
G01 X49.33245 Y36.19395
X49.32894 Y36.21224
G04 P0 ( dwell for no time -- G64 should not smooth over this point )
G00 Z5.00000 ( retract )

G00 X50.84494 Y36.30836 ( rapid move to begin. )
F50.00000
G01 Z-0.05000
G04 P0 ( dwell for no time -- G64 should not smooth over this point )
F100.00000
G01 X50.84494 Y36.30836
X50.84494 Y37.40835
G04 P0 ( dwell for no time -- G64 should not smooth over this point )
G00 Z5.00000 ( retract )

G00 X51.33247 Y36.42266 ( rapid move to begin. )
F50.00000
G01 Z-0.05000
G04 P0 ( dwell for no time -- G64 should not smooth over this point )
F100.00000
G01 X51.33247 Y36.42266
X51.31995 Y36.30836
X51.30747 Y34.86498
X51.15459 Y34.83790
X51.00735 Y34.83790
X50.82513 Y34.86719
X50.65571 Y34.83790
X50.50735 Y34.83790
X50.32513 Y34.86719
X50.15571 Y34.83790
X50.00735 Y34.83790
X49.82513 Y34.86719
X49.65571 Y34.83790
X49.50735 Y34.83790
X49.32513 Y34.86719
X49.15571 Y34.83790
X49.00735 Y34.83790
X48.82513 Y34.86719
X48.65571 Y34.83790
X48.50735 Y34.83790
X48.32513 Y34.86719
X48.15572 Y34.83790
X48.00735 Y34.83790
X47.82513 Y34.86719
X47.65572 Y34.83790
X47.50735 Y34.83790
X47.32514 Y34.86719
X47.15572 Y34.83790
X47.00837 Y34.83790
X46.85742 Y34.86345
X46.85742 Y35.15448
X46.87639 Y35.10231
X46.95318 Y35.06127
X47.21172 Y35.06127
X47.28851 Y35.10231
X47.32102 Y35.15098
X47.33245 Y35.20836
X47.35775 Y35.12505
X47.42506 Y35.06980
X47.68244 Y35.05837
X47.73984 Y35.06980
X47.78851 Y35.10231
X47.82102 Y35.15098
X47.83245 Y35.20836
X47.85775 Y35.12505
X47.92506 Y35.06980
X48.18244 Y35.05837
X48.23984 Y35.06980
X48.28851 Y35.10231
X48.32102 Y35.15098
X48.33245 Y35.20836
X48.35775 Y35.12505
X48.42506 Y35.06980
X48.68244 Y35.05837
X48.73984 Y35.06980
X48.78851 Y35.10231
X48.82102 Y35.15098
X48.83245 Y35.20836
X48.85775 Y35.12505
X48.92506 Y35.06980
X49.18243 Y35.05837
X49.23984 Y35.06980
X49.28850 Y35.10231
X49.32102 Y35.15098
X49.33245 Y35.20836
G04 P0 ( dwell for no time -- G64 should not smooth over this point )
G00 Z5.00000 ( retract )

G00 X51.82048 Y37.40835 ( rapid move to begin. )
F50.00000
G01 Z-0.05000
G04 P0 ( dwell for no time -- G64 should not smooth over this point )
F100.00000
G01 X51.82048 Y37.40835
X51.79642 Y37.50477
X51.71172 Y37.55547
X51.45317 Y37.55547
X51.37638 Y37.51442
X51.34387 Y37.46576
X51.33244 Y37.40835
X51.33247 Y36.42266
X51.33244 Y37.40835
X51.32101 Y37.46576
X51.28850 Y37.51442
X51.21172 Y37.55547
X50.98243 Y37.55834
X50.89912 Y37.53307
X50.86930 Y37.50579
X50.85744 Y37.45832
X50.85744 Y38.78831
X50.92256 Y38.85344
X51.04212 Y38.85425
X51.19051 Y38.90248
X51.28063 Y38.96489
X51.34359 Y39.03484
X51.39622 Y39.13096
X51.42213 Y39.22120
X51.42871 Y39.31503
X51.39622 Y39.46763
X51.34359 Y39.56375
X51.29175 Y39.62257
X51.19051 Y39.69611
X51.02660 Y39.74680
X50.93249 Y39.74680
X50.82589 Y39.72161
X50.69069 Y39.64358
X50.61550 Y39.56375
X50.54349 Y39.40799
X50.53463 Y39.24325
X50.37819 Y39.08580
X50.34834 Y39.02560
X50.35741 Y39.33479
X51.16201 Y40.13936
X52.43495 Y40.13936
X52.54354 Y40.16222
X59.14609 Y40.16225
X62.53079 Y36.77749
X62.53079 Y22.84008
X62.55177 Y22.73482
X62.59275 Y22.66838
X62.83333 Y22.42373
X62.83565 Y22.28956
X62.86155 Y22.19932
X62.91418 Y22.10320
X62.98937 Y22.02337
X63.12457 Y21.94534
X63.24687 Y21.91931
X63.40214 Y21.93566
X63.56709 Y22.02337
X63.65083 Y22.11639
X63.72081 Y22.28956
X63.72081 Y22.44575
X63.68218 Y22.56459
X63.59043 Y22.69093
X63.51634 Y22.74879
X63.40214 Y22.79965
X63.22129 Y22.81351
X63.08076 Y22.95403
X63.08076 Y36.89136
X63.06694 Y36.97323
X63.01583 Y37.06683
X59.45445 Y40.63161
X59.37195 Y40.68828
X59.28442 Y40.70980
X52.45789 Y40.71218
X52.34926 Y40.68932
X51.03348 Y40.68861
X50.96635 Y40.67553
X50.87283 Y40.62453
X49.86851 Y39.62049
X49.86765 Y39.76855
X49.82902 Y39.88739
X49.73727 Y40.01373
X49.66318 Y40.07159
X49.54898 Y40.12245
X49.45640 Y40.13878
X49.30115 Y40.12245
X49.18696 Y40.07159
X49.11286 Y40.01373
X49.02112 Y39.88739
X48.98901 Y39.79915
X48.97507 Y39.69044
X49.00839 Y39.52212
X49.06102 Y39.42600
X49.18696 Y39.30932
X49.30745 Y39.25712
X49.30745 Y37.45829
X49.31995 Y37.40835
X49.33245 Y35.20836
X49.34388 Y35.15098
X49.39912 Y35.08367
X49.48243 Y35.05837
X49.71172 Y35.06127
X49.78850 Y35.10231
X49.82102 Y35.15098
X49.83245 Y35.20836
X49.84388 Y35.15098
X49.87639 Y35.10231
X49.92505 Y35.06980
X49.98243 Y35.05837
X50.23984 Y35.06980
X50.30715 Y35.12505
X50.33244 Y35.20836
X50.34387 Y35.15098
X50.37639 Y35.10231
X50.45317 Y35.06127
X50.71172 Y35.06127
X50.76577 Y35.08367
X50.80715 Y35.12505
X50.83244 Y35.20836
X50.84494 Y37.40835
X50.85744 Y37.45832
G04 P0 ( dwell for no time -- G64 should not smooth over this point )
G00 Z5.00000 ( retract )

G00 X52.83244 Y37.40835 ( rapid move to begin. )
F50.00000
G01 Z-0.05000
G04 P0 ( dwell for no time -- G64 should not smooth over this point )
F100.00000
G01 X52.83244 Y37.40835
X52.82101 Y37.46576
X52.78850 Y37.51442
X52.73983 Y37.54694
X52.68243 Y37.55834
X52.42505 Y37.54694
X52.36930 Y37.50579
X52.34494 Y37.40835
X52.35741 Y37.45829
X52.35741 Y38.63731
X53.13559 Y39.41546
X59.01909 Y39.41549
X60.44291 Y37.99164
X60.44581 Y24.51260
X60.46389 Y24.43662
X60.52348 Y24.34747
X61.52269 Y23.34829
X61.52501 Y23.21412
X61.55091 Y23.12388
X61.60354 Y23.02776
X61.66651 Y22.95781
X61.81393 Y22.86990
X61.93623 Y22.84387
X62.01464 Y22.84471
X62.12124 Y22.86990
X62.26867 Y22.95781
X62.37154 Y23.09528
X62.41675 Y23.27648
X62.40364 Y23.40091
X62.33163 Y23.55667
X62.25645 Y23.63650
X62.12124 Y23.71453
X62.01464 Y23.73972
X61.91063 Y23.73807
X60.99288 Y24.65580
X60.99288 Y38.10548
X60.97197 Y38.21074
X60.91236 Y38.29994
X59.32740 Y39.88490
X59.24495 Y39.94152
X59.17939 Y39.96141
X53.02177 Y39.96542
X52.91651 Y39.94452
X52.82728 Y39.88490
X51.88802 Y38.94564
X51.84989 Y38.89781
X51.81278 Y38.80495
X51.82000 Y36.42009
X51.84494 Y36.19675
X51.84494 Y35.20836
X51.85741 Y35.15448
G04 P0 ( dwell for no time -- G64 should not smooth over this point )
G00 Z5.00000 ( retract )

G00 X53.80747 Y37.45829 ( rapid move to begin. )
F50.00000
G01 Z-0.05000
G04 P0 ( dwell for no time -- G64 should not smooth over this point )
F100.00000
G01 X53.80747 Y37.45829
X53.79561 Y37.50576
X53.73983 Y37.54694
X53.48243 Y37.55834
X53.42505 Y37.54694
X53.37638 Y37.51442
X53.33533 Y37.43764
X53.33244 Y35.20836
X53.32954 Y37.43764
X53.28850 Y37.51442
X53.23983 Y37.54694
X53.18243 Y37.55834
X52.95317 Y37.55547
X52.87638 Y37.51442
X52.84387 Y37.46576
X52.83244 Y37.40835
X52.83244 Y35.20836
G04 P0 ( dwell for no time -- G64 should not smooth over this point )
G00 Z5.00000 ( retract )

G00 X54.34496 Y37.40835 ( rapid move to begin. )
F50.00000
G01 Z-0.05000
G04 P0 ( dwell for no time -- G64 should not smooth over this point )
F100.00000
G01 X54.34496 Y37.40835
X54.35746 Y37.45832
X54.34496 Y37.40835
X54.33246 Y35.20836
X54.33254 Y36.19421
G04 P0 ( dwell for no time -- G64 should not smooth over this point )
G00 Z5.00000 ( retract )

G00 X55.33246 Y37.40835 ( rapid move to begin. )
F50.00000
G01 Z-0.05000
G04 P0 ( dwell for no time -- G64 should not smooth over this point )
F100.00000
G01 X55.33246 Y37.40835
X55.32103 Y37.46576
X55.28852 Y37.51442
X55.23985 Y37.54694
X55.18245 Y37.55834
X54.92507 Y37.54694
X54.87640 Y37.51442
X54.83536 Y37.43764
X54.83246 Y35.20836
X54.82957 Y37.43764
X54.78852 Y37.51442
X54.73985 Y37.54694
X54.68245 Y37.55834
X54.42507 Y37.54694
X54.36932 Y37.50579
X54.35746 Y37.45832
X54.35746 Y38.55425
X54.44079 Y38.64671
X54.50424 Y38.78928
X54.51816 Y38.89796
X54.50424 Y39.00667
X54.44079 Y39.14924
X54.38039 Y39.22125
X54.30630 Y39.27911
X54.19210 Y39.32997
X54.09952 Y39.34630
X53.94427 Y39.32997
X53.85723 Y39.29479
X53.76711 Y39.23238
X53.66424 Y39.09491
X53.63213 Y39.00667
X53.61819 Y38.89796
X53.63213 Y38.78928
X53.66424 Y38.70104
X53.71402 Y38.62131
X53.80747 Y38.53322
X53.83246 Y35.20836
G04 P0 ( dwell for no time -- G64 should not smooth over this point )
G00 Z5.00000 ( retract )

G00 X55.83596 Y36.40452 ( rapid move to begin. )
F50.00000
G01 Z-0.05000
G04 P0 ( dwell for no time -- G64 should not smooth over this point )
F100.00000
G01 X55.83596 Y36.40452
X55.84496 Y35.20836
X55.86680 Y35.11402
X55.95319 Y35.06127
X56.21173 Y35.06127
X56.28852 Y35.10231
X56.32103 Y35.15098
X56.33246 Y35.20836
X56.34389 Y35.15098
X56.37640 Y35.10231
X56.45318 Y35.06127
X56.68244 Y35.05837
X56.76578 Y35.08367
X56.82103 Y35.15098
X56.83243 Y35.20836
X56.83243 Y37.40835
X56.82103 Y37.46576
X56.78851 Y37.51442
X56.71173 Y37.55547
X56.48244 Y37.55834
X56.42507 Y37.54694
X56.37640 Y37.51442
X56.33535 Y37.43764
X56.33246 Y35.20836
X56.33246 Y37.40835
X56.32103 Y37.46576
X56.26578 Y37.53307
X56.18245 Y37.55834
X55.95319 Y37.55547
X55.87640 Y37.51442
X55.84389 Y37.46576
X55.83246 Y37.40835
X55.83596 Y36.40452
X55.83246 Y37.40835
X55.82103 Y37.46576
X55.78852 Y37.51442
X55.71173 Y37.55547
X55.48245 Y37.55834
X55.42507 Y37.54694
X55.37640 Y37.51442
X55.34389 Y37.46576
X55.33246 Y37.40835
X55.31996 Y35.20836
X55.30749 Y35.15418
X55.30749 Y34.88227
X55.28852 Y34.86330
X55.15461 Y34.83790
X55.00737 Y34.83790
X54.82512 Y34.86719
X54.65570 Y34.83790
X54.50737 Y34.83790
X54.32512 Y34.86719
X54.15570 Y34.83790
X54.00737 Y34.83790
X53.82512 Y34.86719
X53.65570 Y34.83790
X53.50734 Y34.83790
X53.32512 Y34.86719
X53.15571 Y34.83790
X53.00734 Y34.83790
X52.82512 Y34.86719
X52.65571 Y34.83790
X52.50734 Y34.83790
X52.32513 Y34.86719
X52.15571 Y34.83790
X52.00836 Y34.83790
X51.85741 Y34.86345
X51.85741 Y35.15448
X51.87638 Y35.10231
X51.95317 Y35.06127
X52.21171 Y35.06127
X52.28850 Y35.10231
X52.32101 Y35.15098
X52.33244 Y35.20836
X52.34387 Y35.15098
X52.37638 Y35.10231
X52.42505 Y35.06980
X52.48243 Y35.05837
X52.73983 Y35.06980
X52.80714 Y35.12505
X52.83244 Y35.20836
X52.84387 Y35.15098
X52.87638 Y35.10231
X52.92505 Y35.06980
X52.98243 Y35.05837
X53.23983 Y35.06980
X53.30714 Y35.12505
X53.33244 Y35.20836
X53.34387 Y35.15098
X53.37638 Y35.10231
X53.42505 Y35.06980
X53.48243 Y35.05837
X53.73983 Y35.06980
X53.80714 Y35.12505
X53.83246 Y35.20836
X53.84389 Y35.15098
X53.87640 Y35.10231
X53.95319 Y35.06127
X54.23985 Y35.06980
X54.30716 Y35.12505
X54.33246 Y35.20836
X54.35776 Y35.12505
X54.42507 Y35.06980
X54.71173 Y35.06127
X54.78852 Y35.10231
X54.82103 Y35.15098
X54.83246 Y35.20836
X54.85776 Y35.12505
X54.92507 Y35.06980
X55.18245 Y35.05837
X55.23985 Y35.06980
X55.28852 Y35.10231
X55.31996 Y35.20836
G04 P0 ( dwell for no time -- G64 should not smooth over this point )
G00 Z5.00000 ( retract )

G00 X55.85743 Y35.15448 ( rapid move to begin. )
F50.00000
G01 Z-0.05000
G04 P0 ( dwell for no time -- G64 should not smooth over this point )
F100.00000
G01 X55.85743 Y35.15448
X55.85743 Y34.86345
X56.00835 Y34.83790
X56.15570 Y34.83790
X56.32512 Y34.86719
X56.50736 Y34.83790
X56.65461 Y34.83790
X56.82441 Y34.87232
X56.94401 Y34.95400
X57.02344 Y35.07747
X57.05290 Y35.23414
X57.05288 Y37.38064
X57.01851 Y37.55034
X56.93680 Y37.66995
X56.81338 Y37.74937
X56.65677 Y37.77881
X56.50899 Y37.77881
X56.33982 Y37.74960
X56.15778 Y37.77881
X56.01016 Y37.77881
X55.85090 Y37.75156
X55.71460 Y37.66187
X55.64854 Y37.63535
X55.57325 Y37.62817
X55.46002 Y37.65837
X55.30754 Y37.75331
X55.15674 Y37.77881
X55.00894 Y37.77881
X54.82865 Y37.75118
X54.68905 Y37.79687
X54.61234 Y37.87333
X54.57082 Y37.97333
X54.57079 Y38.40416
X54.72670 Y38.76852
X54.73035 Y38.97790
X54.75019 Y39.04307
X54.80724 Y39.12626
X54.87115 Y39.17249
X55.00325 Y39.20744
X58.88643 Y39.19857
X59.01404 Y39.12633
X60.15379 Y37.98658
X60.19996 Y37.92268
X60.23489 Y37.79070
X60.23489 Y24.96903
X60.20212 Y24.84117
X60.11792 Y24.74305
X59.98742 Y24.69499
X59.65684 Y24.69182
X59.41355 Y24.59080
X59.29456 Y24.49357
X59.17510 Y24.46611
X54.97389 Y24.46611
X54.86789 Y24.48722
X54.76817 Y24.55819
X54.70386 Y24.68194
X54.70947 Y24.82095
X54.77805 Y24.93899
X54.86586 Y24.99817
X54.94501 Y25.01889
X55.12527 Y25.13934
X55.58859 Y25.59514
X55.97561 Y25.74208
X56.16053 Y25.92735
X56.26053 Y26.16936
X56.26027 Y26.43106
X56.15989 Y26.67284
X55.97462 Y26.85775
X55.73261 Y26.95775
X55.47092 Y26.95750
X55.22913 Y26.85712
X55.04420 Y26.67185
X54.89794 Y26.28595
X54.63439 Y26.01572
X54.50338 Y25.94975
X53.36731 Y25.94973
X52.98941 Y26.11958
X52.84273 Y26.11943
X52.73671 Y26.14041
X52.62802 Y26.22318
X52.58662 Y26.29029
X52.56838 Y26.36702
X52.56546 Y26.65981
X52.58657 Y26.76583
X52.64659 Y26.85567
X52.73643 Y26.91572
X52.81314 Y26.93393
X53.18367 Y26.92694
X53.42545 Y27.02732
X53.61037 Y27.21259
X53.71037 Y27.45460
X53.71011 Y27.71604
X53.58679 Y28.01058
X53.56546 Y28.11708
X53.56619 Y29.40189
X53.61166 Y29.54040
X53.68128 Y29.61243
X53.74151 Y29.64515
X53.83881 Y29.66425
X54.00719 Y29.63791
X54.15575 Y29.63791
X54.32512 Y29.66717
X54.50734 Y29.63791
X54.65575 Y29.63791
X54.82512 Y29.66717
X55.00734 Y29.63791
X55.15461 Y29.63791
X55.31402 Y29.66521
X55.45893 Y29.76044
X55.57719 Y29.78912
X55.69616 Y29.76369
X55.85738 Y29.66346
X56.00835 Y29.63791
X56.15575 Y29.63791
X56.32512 Y29.66717
X56.50734 Y29.63791
X56.65463 Y29.63791
X56.82438 Y29.67230
X56.94401 Y29.75404
X57.02341 Y29.87746
X57.05290 Y30.03412
X57.05288 Y32.18065
X57.01851 Y32.35032
X56.93680 Y32.46993
X56.81338 Y32.54938
X56.65677 Y32.57882
X56.50899 Y32.57882
X56.33982 Y32.54961
X56.15778 Y32.57882
X56.01016 Y32.57882
X55.85745 Y32.55180
X55.84496 Y31.10837
X55.84496 Y32.20836
X55.86670 Y32.30262
X55.95319 Y32.35548
X56.23985 Y32.34695
X56.30716 Y32.29170
X56.33246 Y32.20836
X56.33535 Y29.97911
X56.37640 Y29.90232
X56.45318 Y29.86128
X56.68244 Y29.85838
X56.76578 Y29.88368
X56.82103 Y29.95099
X56.83243 Y30.00837
X56.83243 Y32.20836
X56.82103 Y32.26577
X56.76578 Y32.33308
X56.68244 Y32.35835
X56.45318 Y32.35548
X56.37640 Y32.31443
X56.33535 Y32.23765
X56.33246 Y30.00837
X56.30716 Y29.92506
X56.23985 Y29.86981
X55.95319 Y29.86128
X55.87640 Y29.90232
X55.84389 Y29.95099
X55.83246 Y30.00837
X55.83254 Y30.99424
X55.84496 Y31.10837
G04 P0 ( dwell for no time -- G64 should not smooth over this point )
G00 Z5.00000 ( retract )

G00 X52.34494 Y36.30836 ( rapid move to begin. )
F50.00000
G01 Z-0.05000
G04 P0 ( dwell for no time -- G64 should not smooth over this point )
F100.00000
G01 X52.34494 Y36.30836
X52.34494 Y37.40835
X52.33244 Y35.20836
X52.33252 Y36.19421
G04 P0 ( dwell for no time -- G64 should not smooth over this point )
G00 Z5.00000 ( retract )

G00 X51.31995 Y35.20836 ( rapid move to begin. )
F50.00000
G01 Z-0.05000
G04 P0 ( dwell for no time -- G64 should not smooth over this point )
F100.00000
G01 X51.31995 Y35.20836
X51.29820 Y35.11412
X51.21172 Y35.06127
X50.95317 Y35.06127
X50.87639 Y35.10231
X50.84387 Y35.15098
X50.83244 Y35.20836
X50.83252 Y36.19421
G04 P0 ( dwell for no time -- G64 should not smooth over this point )
G00 Z5.00000 ( retract )

G00 X50.33366 Y38.92672 ( rapid move to begin. )
F50.00000
G01 Z-0.05000
G04 P0 ( dwell for no time -- G64 should not smooth over this point )
F100.00000
G01 X50.33366 Y38.92672
X50.33244 Y36.30836
G04 P0 ( dwell for no time -- G64 should not smooth over this point )
G00 Z5.00000 ( retract )

G00 X50.34834 Y39.02560 ( rapid move to begin. )
F50.00000
G01 Z-0.05000
G04 P0 ( dwell for no time -- G64 should not smooth over this point )
F100.00000
G01 X50.34834 Y39.02560
X50.33366 Y38.92672
X50.33244 Y35.20836
G04 P0 ( dwell for no time -- G64 should not smooth over this point )
G00 Z5.00000 ( retract )

G00 X49.81332 Y39.47320 ( rapid move to begin. )
F50.00000
G01 Z-0.05000
G04 P0 ( dwell for no time -- G64 should not smooth over this point )
F100.00000
G01 X49.81332 Y39.47320
X49.81304 Y39.47215
G04 P0 ( dwell for no time -- G64 should not smooth over this point )
G00 Z5.00000 ( retract )

G00 X49.86851 Y39.62049 ( rapid move to begin. )
F50.00000
G01 Z-0.05000
G04 P0 ( dwell for no time -- G64 should not smooth over this point )
F100.00000
G01 X49.86851 Y39.62049
X49.81304 Y39.47215
X49.83359 Y39.31973
X49.83245 Y35.20836
G04 P0 ( dwell for no time -- G64 should not smooth over this point )
G00 Z5.00000 ( retract )

G00 X47.15498 Y39.50563 ( rapid move to begin. )
F50.00000
G01 Z-0.05000
G04 P0 ( dwell for no time -- G64 should not smooth over this point )
F100.00000
G01 X47.15498 Y39.50563
X47.15498 Y39.75336
G04 P0 ( dwell for no time -- G64 should not smooth over this point )
G00 Z5.00000 ( retract )

G00 X47.14924 Y39.70698 ( rapid move to begin. )
F50.00000
G01 Z-0.05000
G04 P0 ( dwell for no time -- G64 should not smooth over this point )
F100.00000
G01 X47.14924 Y39.70698
X47.14594 Y39.64429
X47.14594 Y39.61470
G04 P0 ( dwell for no time -- G64 should not smooth over this point )
G00 Z5.00000 ( retract )

G00 X46.61015 Y39.98610 ( rapid move to begin. )
F50.00000
G01 Z-0.05000
G04 P0 ( dwell for no time -- G64 should not smooth over this point )
F100.00000
G01 X46.61015 Y39.98610
X46.54099 Y40.07058
X46.47802 Y40.11731
X46.30248 Y40.18122
X46.19285 Y40.18368
X46.11599 Y40.16817
X45.96664 Y40.09181
X46.00408 Y40.26956
X45.99016 Y40.37827
X45.95806 Y40.46651
X45.85519 Y40.60398
X45.76507 Y40.66639
X45.67802 Y40.70157
X45.50705 Y40.71708
X45.40045 Y40.69189
X45.31600 Y40.65071
X45.19006 Y40.53403
X45.11805 Y40.37827
X45.10495 Y40.25384
X45.13743 Y40.10124
X45.19994 Y39.99291
X45.30746 Y39.89461
X45.30746 Y37.45832
X45.31996 Y37.40835
X45.33245 Y35.20836
X45.35775 Y35.12505
X45.42506 Y35.06980
X45.48244 Y35.05837
X45.73985 Y35.06980
X45.80716 Y35.12505
X45.83245 Y35.20836
X45.84388 Y35.15098
X45.87640 Y35.10231
X45.95318 Y35.06127
X46.21173 Y35.06127
X46.29821 Y35.11412
X46.31996 Y35.20836
X46.31996 Y36.19670
X46.34495 Y36.42001
X46.34495 Y37.40835
X46.35745 Y37.45832
G04 P0 ( dwell for no time -- G64 should not smooth over this point )
G00 Z5.00000 ( retract )

G00 X45.96664 Y40.09181 ( rapid move to begin. )
F50.00000
G01 Z-0.05000
G04 P0 ( dwell for no time -- G64 should not smooth over this point )
F100.00000
G01 X45.96664 Y40.09181
X45.84950 Y39.94071
X45.82400 Y39.74841
X45.83245 Y35.20836
G04 P0 ( dwell for no time -- G64 should not smooth over this point )
G00 Z5.00000 ( retract )

G00 X45.82730 Y39.81112 ( rapid move to begin. )
F50.00000
G01 Z-0.05000
G04 P0 ( dwell for no time -- G64 should not smooth over this point )
F100.00000
G01 X45.82730 Y39.81112
X45.82400 Y39.74841
X45.82400 Y39.72394
G04 P0 ( dwell for no time -- G64 should not smooth over this point )
G00 Z5.00000 ( retract )

G00 X45.83342 Y39.60081 ( rapid move to begin. )
F50.00000
G01 Z-0.05000
G04 P0 ( dwell for no time -- G64 should not smooth over this point )
F100.00000
G01 X45.83342 Y39.60081
X45.83245 Y39.57871
X45.83245 Y36.30836
G04 P0 ( dwell for no time -- G64 should not smooth over this point )
G00 Z5.00000 ( retract )

G00 X46.31996 Y35.20836 ( rapid move to begin. )
F50.00000
G01 Z-0.05000
G04 P0 ( dwell for no time -- G64 should not smooth over this point )
F100.00000
G01 X46.31996 Y35.20836
X46.30746 Y35.15426
X46.30748 Y34.86498
X46.15460 Y34.83790
X46.00736 Y34.83790
X45.82514 Y34.86719
X45.65572 Y34.83790
X45.50736 Y34.83790
X45.32514 Y34.86719
X45.15572 Y34.83790
X45.00736 Y34.83790
X44.82511 Y34.86719
X44.65570 Y34.83790
X44.50838 Y34.83790
X44.35742 Y34.86345
X44.35742 Y35.15448
X44.37640 Y35.10231
X44.45318 Y35.06127
X44.71173 Y35.06127
X44.78851 Y35.10231
X44.82103 Y35.15098
X44.83246 Y35.20836
X44.85775 Y35.12505
X44.92506 Y35.06980
X45.18244 Y35.05837
X45.23985 Y35.06980
X45.28851 Y35.10231
X45.32102 Y35.15098
X45.33245 Y35.20836
G04 P0 ( dwell for no time -- G64 should not smooth over this point )
G00 Z5.00000 ( retract )

G00 X35.77784 Y37.42105 ( rapid move to begin. )
F50.00000
G01 Z-0.05000
G04 P0 ( dwell for no time -- G64 should not smooth over this point )
F100.00000
G01 X35.77784 Y37.42105
X35.76641 Y37.47846
X35.73390 Y37.52712
X35.68523 Y37.55964
X35.62783 Y37.57104
X35.37045 Y37.55964
X35.32178 Y37.52712
X35.28073 Y37.45034
X35.27792 Y36.43520
X35.29034 Y36.32106
X35.29034 Y35.22106
X35.30281 Y35.16718
G04 P0 ( dwell for no time -- G64 should not smooth over this point )
G00 Z5.00000 ( retract )

G00 X35.27792 Y36.43520 ( rapid move to begin. )
F50.00000
G01 Z-0.05000
G04 P0 ( dwell for no time -- G64 should not smooth over this point )
F100.00000
G01 X35.27792 Y36.43520
X35.27784 Y37.42105
X35.26641 Y37.47846
X35.23390 Y37.52712
X35.15711 Y37.56817
X34.89857 Y37.56817
X34.82178 Y37.52712
X34.78927 Y37.47846
X34.77784 Y37.42105
X34.76534 Y35.22106
X34.76572 Y36.33553
G04 P0 ( dwell for no time -- G64 should not smooth over this point )
G00 Z5.00000 ( retract )

G00 X34.77784 Y37.42105 ( rapid move to begin. )
F50.00000
G01 Z-0.05000
G04 P0 ( dwell for no time -- G64 should not smooth over this point )
F100.00000
G01 X34.77784 Y37.42105
X34.76641 Y37.47846
X34.73390 Y37.52712
X34.68523 Y37.55964
X34.62783 Y37.57104
X34.37045 Y37.55964
X34.30314 Y37.50439
X34.27784 Y37.42105
X34.28074 Y35.19180
X34.32178 Y35.11501
X34.37045 Y35.08250
X34.62783 Y35.07107
X34.68523 Y35.08250
X34.73390 Y35.11501
X34.76534 Y35.22106
X34.75285 Y35.16696
X34.75287 Y34.87768
X34.59999 Y34.85060
X34.45275 Y34.85060
X34.27053 Y34.87989
X34.10111 Y34.85060
X33.95376 Y34.85060
X33.80281 Y34.87615
X33.80281 Y35.16718
X33.82178 Y35.11501
X33.89857 Y35.07397
X34.12783 Y35.07107
X34.18523 Y35.08250
X34.23390 Y35.11501
X34.27495 Y35.19180
X34.27784 Y37.42105
X34.26641 Y37.47846
X34.23390 Y37.52712
X34.15711 Y37.56817
X33.87045 Y37.55964
X33.82178 Y37.52712
X33.78074 Y37.45034
X33.77792 Y36.43523
X33.79034 Y36.32106
X33.79034 Y35.22106
X33.80281 Y35.16718
G04 P0 ( dwell for no time -- G64 should not smooth over this point )
G00 Z5.00000 ( retract )

G00 X33.77792 Y36.43523 ( rapid move to begin. )
F50.00000
G01 Z-0.05000
G04 P0 ( dwell for no time -- G64 should not smooth over this point )
F100.00000
G01 X33.77792 Y36.43523
X33.77784 Y37.42105
X33.76641 Y37.47846
X33.73390 Y37.52712
X33.65712 Y37.56817
X33.39857 Y37.56817
X33.32179 Y37.52712
X33.28927 Y37.47846
X33.27784 Y37.42105
X33.26535 Y35.22106
X33.25285 Y35.16688
X33.26535 Y35.22106
X33.26573 Y36.33553
G04 P0 ( dwell for no time -- G64 should not smooth over this point )
G00 Z5.00000 ( retract )

G00 X33.27784 Y37.42105 ( rapid move to begin. )
F50.00000
G01 Z-0.05000
G04 P0 ( dwell for no time -- G64 should not smooth over this point )
F100.00000
G01 X33.27784 Y37.42105
X33.26641 Y37.47846
X33.23390 Y37.52712
X33.18523 Y37.55964
X33.12783 Y37.57104
X32.87045 Y37.55964
X32.80314 Y37.50439
X32.77784 Y37.42105
X32.78074 Y35.19180
X32.82179 Y35.11501
X32.87045 Y35.08250
X32.92783 Y35.07107
X33.15712 Y35.07397
X33.23390 Y35.11501
X33.25285 Y35.16688
X33.25285 Y34.87768
X33.10002 Y34.85060
X32.95275 Y34.85060
X32.77053 Y34.87989
X32.60111 Y34.85060
X32.45377 Y34.85060
X32.30281 Y34.87615
X32.30281 Y35.16718
X32.32179 Y35.11501
X32.39857 Y35.07397
X32.62783 Y35.07107
X32.68524 Y35.08250
X32.73390 Y35.11501
X32.77495 Y35.19180
X32.77784 Y37.42105
X32.76641 Y37.47846
X32.73390 Y37.52712
X32.65712 Y37.56817
X32.37045 Y37.55964
X32.32179 Y37.52712
X32.28074 Y37.45034
X32.27785 Y36.43556
X32.29034 Y36.32106
X32.29034 Y35.22106
X32.30281 Y35.16718
G04 P0 ( dwell for no time -- G64 should not smooth over this point )
G00 Z5.00000 ( retract )

G00 X32.27792 Y36.43523 ( rapid move to begin. )
F50.00000
G01 Z-0.05000
G04 P0 ( dwell for no time -- G64 should not smooth over this point )
F100.00000
G01 X32.27792 Y36.43523
X32.27785 Y37.42105
X32.26642 Y37.47846
X32.23390 Y37.52712
X32.15712 Y37.56817
X31.89857 Y37.56817
X31.82179 Y37.52712
X31.78928 Y37.47846
X31.77785 Y37.42105
X31.76535 Y35.22106
X31.76573 Y36.33553
G04 P0 ( dwell for no time -- G64 should not smooth over this point )
G00 Z5.00000 ( retract )

G00 X31.77785 Y37.42105 ( rapid move to begin. )
F50.00000
G01 Z-0.05000
G04 P0 ( dwell for no time -- G64 should not smooth over this point )
F100.00000
G01 X31.77785 Y37.42105
X31.76642 Y37.47846
X31.73390 Y37.52712
X31.68524 Y37.55964
X31.62783 Y37.57104
X31.37046 Y37.55964
X31.30315 Y37.50439
X31.27785 Y37.42105
X31.28074 Y35.19180
X31.32179 Y35.11501
X31.37046 Y35.08250
X31.62783 Y35.07107
X31.68524 Y35.08250
X31.73390 Y35.11501
X31.76535 Y35.22106
X31.75285 Y35.16696
X31.75285 Y34.87768
X31.60002 Y34.85060
X31.45275 Y34.85060
X31.27053 Y34.87989
X31.10111 Y34.85060
X30.95377 Y34.85060
X30.80282 Y34.87615
X30.80282 Y35.16718
X30.82179 Y35.11501
X30.89857 Y35.07397
X31.12783 Y35.07107
X31.18524 Y35.08250
X31.23391 Y35.11501
X31.27495 Y35.19180
X31.27785 Y37.42105
X31.26642 Y37.47846
X31.23391 Y37.52712
X31.15712 Y37.56817
X30.87046 Y37.55964
X30.82179 Y37.52712
X30.78074 Y37.45034
X30.77792 Y36.43523
X30.79034 Y36.32106
X30.79034 Y35.22106
X30.80282 Y35.16718
G04 P0 ( dwell for no time -- G64 should not smooth over this point )
G00 Z5.00000 ( retract )

G00 X30.77792 Y36.43523 ( rapid move to begin. )
F50.00000
G01 Z-0.05000
G04 P0 ( dwell for no time -- G64 should not smooth over this point )
F100.00000
G01 X30.77792 Y36.43523
X30.77785 Y37.42105
X30.76642 Y37.47846
X30.73391 Y37.52712
X30.65712 Y37.56817
X30.39858 Y37.56817
X30.32179 Y37.52712
X30.28928 Y37.47846
X30.27785 Y37.42105
X30.26535 Y35.22106
X30.26573 Y36.33553
G04 P0 ( dwell for no time -- G64 should not smooth over this point )
G00 Z5.00000 ( retract )

G00 X30.27785 Y37.42105 ( rapid move to begin. )
F50.00000
G01 Z-0.05000
G04 P0 ( dwell for no time -- G64 should not smooth over this point )
F100.00000
G01 X30.27785 Y37.42105
X30.26642 Y37.47846
X30.23391 Y37.52712
X30.18524 Y37.55964
X30.12784 Y37.57104
X29.87046 Y37.55964
X29.80315 Y37.50439
X29.77785 Y37.42105
X29.78075 Y35.19180
X29.82179 Y35.11501
X29.87046 Y35.08250
X30.12784 Y35.07107
X30.18524 Y35.08250
X30.23391 Y35.11501
X30.26535 Y35.22106
X30.25286 Y35.16696
X30.25286 Y34.87768
X30.10002 Y34.85060
X29.95275 Y34.85060
X29.77053 Y34.87989
X29.60112 Y34.85060
X29.45377 Y34.85060
X29.30282 Y34.87615
X29.30282 Y35.16718
X29.32179 Y35.11501
X29.39858 Y35.07397
X29.65712 Y35.07397
X29.73391 Y35.11501
X29.76642 Y35.16368
X29.77785 Y35.22106
G04 P0 ( dwell for no time -- G64 should not smooth over this point )
G00 Z5.00000 ( retract )

G00 X29.77785 Y37.42105 ( rapid move to begin. )
F50.00000
G01 Z-0.05000
G04 P0 ( dwell for no time -- G64 should not smooth over this point )
F100.00000
G01 X29.77785 Y37.42105
X29.76642 Y37.47846
X29.73391 Y37.52712
X29.68524 Y37.55964
X29.62784 Y37.57104
X29.37046 Y37.55964
X29.32179 Y37.52712
X29.28075 Y37.45034
X29.27785 Y36.43556
X29.29035 Y36.32106
X29.29035 Y35.22106
X29.30282 Y35.16718
G04 P0 ( dwell for no time -- G64 should not smooth over this point )
G00 Z5.00000 ( retract )

G00 X29.27793 Y36.43523 ( rapid move to begin. )
F50.00000
G01 Z-0.05000
G04 P0 ( dwell for no time -- G64 should not smooth over this point )
F100.00000
G01 X29.27793 Y36.43523
X29.27785 Y37.42105
X29.26642 Y37.47846
X29.23391 Y37.52712
X29.15712 Y37.56817
X28.89858 Y37.56817
X28.82179 Y37.52712
X28.78928 Y37.47846
X28.77785 Y37.42105
X28.77785 Y36.43536
X28.77785 Y37.42105
X28.76642 Y37.47846
X28.73391 Y37.52712
X28.65713 Y37.56817
X28.39858 Y37.56817
X28.32180 Y37.52712
X28.28928 Y37.47846
X28.27785 Y37.42105
X28.28075 Y35.19180
X28.32180 Y35.11501
X28.37046 Y35.08250
X28.42784 Y35.07107
X28.65713 Y35.07397
X28.73391 Y35.11501
X28.75286 Y35.16688
X28.75286 Y34.87768
X28.60003 Y34.85060
X28.45276 Y34.85060
X28.27054 Y34.87989
X28.10112 Y34.85060
X27.95377 Y34.85060
X27.80282 Y34.87615
X27.80282 Y35.16718
X27.82180 Y35.11501
X27.89858 Y35.07397
X28.15713 Y35.07397
X28.23391 Y35.11501
X28.26642 Y35.16368
X28.27785 Y35.22106
G04 P0 ( dwell for no time -- G64 should not smooth over this point )
G00 Z5.00000 ( retract )

G00 X28.77785 Y36.43536 ( rapid move to begin. )
F50.00000
G01 Z-0.05000
G04 P0 ( dwell for no time -- G64 should not smooth over this point )
F100.00000
G01 X28.77785 Y36.43536
X28.76536 Y36.32106
X28.76536 Y35.22106
X28.75286 Y35.16688
X28.76536 Y35.22106
G04 P0 ( dwell for no time -- G64 should not smooth over this point )
G00 Z5.00000 ( retract )

G00 X28.27785 Y37.42105 ( rapid move to begin. )
F50.00000
G01 Z-0.05000
G04 P0 ( dwell for no time -- G64 should not smooth over this point )
F100.00000
G01 X28.27785 Y37.42105
X28.26642 Y37.47846
X28.23391 Y37.52712
X28.18524 Y37.55964
X28.12784 Y37.57104
X27.87046 Y37.55964
X27.82180 Y37.52712
X27.78075 Y37.45034
X27.77785 Y36.43556
X27.79035 Y36.32106
X27.79035 Y35.22106
X27.80282 Y35.16718
G04 P0 ( dwell for no time -- G64 should not smooth over this point )
G00 Z5.00000 ( retract )

G00 X27.77793 Y36.43523 ( rapid move to begin. )
F50.00000
G01 Z-0.05000
G04 P0 ( dwell for no time -- G64 should not smooth over this point )
F100.00000
G01 X27.77793 Y36.43523
X27.77785 Y37.42105
X27.76642 Y37.47846
X27.73391 Y37.52712
X27.65713 Y37.56817
X27.39858 Y37.56817
X27.32180 Y37.52712
X27.28929 Y37.47846
X27.27786 Y37.42105
X27.26536 Y35.22106
X27.25286 Y35.16688
X27.26536 Y35.22106
X27.26574 Y36.33553
G04 P0 ( dwell for no time -- G64 should not smooth over this point )
G00 Z5.00000 ( retract )

G00 X27.27786 Y37.42105 ( rapid move to begin. )
F50.00000
G01 Z-0.05000
G04 P0 ( dwell for no time -- G64 should not smooth over this point )
F100.00000
G01 X27.27786 Y37.42105
X27.26643 Y37.47846
X27.23391 Y37.52712
X27.18525 Y37.55964
X27.12784 Y37.57104
X26.87046 Y37.55964
X26.80315 Y37.50439
X26.77786 Y37.42105
X26.78075 Y35.19180
X26.82180 Y35.11501
X26.87046 Y35.08250
X26.92784 Y35.07107
X27.15713 Y35.07397
X27.23391 Y35.11501
X27.25286 Y35.16688
X27.25286 Y34.87768
X27.10003 Y34.85060
X26.95276 Y34.85060
X26.77052 Y34.87989
X26.60110 Y34.85060
X26.45378 Y34.85060
X26.30283 Y34.87615
X26.30283 Y35.16718
X26.32180 Y35.11501
X26.39858 Y35.07397
X26.62784 Y35.07107
X26.68525 Y35.08250
X26.73391 Y35.11501
X26.77496 Y35.19180
X26.77786 Y37.42105
X26.76643 Y37.47846
X26.73391 Y37.52712
X26.65713 Y37.56817
X26.37047 Y37.55964
X26.32180 Y37.52712
X26.28075 Y37.45034
X26.27793 Y36.43523
X26.29035 Y36.32106
X26.29035 Y35.22106
X26.30283 Y35.16718
G04 P0 ( dwell for no time -- G64 should not smooth over this point )
G00 Z5.00000 ( retract )

G00 X26.27793 Y36.43523 ( rapid move to begin. )
F50.00000
G01 Z-0.05000
G04 P0 ( dwell for no time -- G64 should not smooth over this point )
F100.00000
G01 X26.27793 Y36.43523
X26.27786 Y37.42105
X26.26643 Y37.47846
X26.23392 Y37.52712
X26.15713 Y37.56817
X25.92785 Y37.57104
X25.84453 Y37.54577
X25.81471 Y37.51849
X25.80285 Y37.47102
X25.80285 Y39.56045
X25.86800 Y39.62560
X25.98756 Y39.62641
X26.13595 Y39.67464
X26.22607 Y39.73705
X26.28903 Y39.80700
X26.34166 Y39.90312
X26.36757 Y39.99336
X26.37415 Y40.08719
X26.34166 Y40.23979
X26.28903 Y40.33591
X26.23719 Y40.39473
X26.13595 Y40.46827
X25.97204 Y40.51896
X25.87793 Y40.51896
X25.77133 Y40.49377
X25.63613 Y40.41574
X25.56094 Y40.33591
X25.48893 Y40.18015
X25.48007 Y40.01541
X25.30285 Y39.83032
X25.30283 Y40.54696
X25.28754 Y40.63423
X25.29800 Y40.72676
X25.26470 Y40.89511
X25.21207 Y40.99123
X25.16023 Y41.05005
X25.05899 Y41.12359
X24.89508 Y41.17428
X24.72411 Y41.15877
X24.60992 Y41.10791
X24.48398 Y40.99123
X24.43135 Y40.89511
X24.39803 Y40.72676
X24.43135 Y40.55844
X24.49386 Y40.45011
X24.60992 Y40.34564
X24.75287 Y40.28866
X24.75289 Y37.47099
X24.76536 Y37.42105
X24.76536 Y36.43277
X24.79036 Y36.20945
X24.80283 Y34.87615
X24.95376 Y34.85060
X25.10110 Y34.85060
X25.27052 Y34.87989
X25.45276 Y34.85060
X25.60003 Y34.85060
X25.75286 Y34.87768
X25.76536 Y36.20940
X25.79035 Y36.43271
X25.79035 Y37.42105
X25.80285 Y37.47102
X25.79035 Y37.42105
X25.79035 Y36.43271
G04 P0 ( dwell for no time -- G64 should not smooth over this point )
G00 Z5.00000 ( retract )

G00 X25.76920 Y36.22890 ( rapid move to begin. )
F50.00000
G01 Z-0.05000
G04 P0 ( dwell for no time -- G64 should not smooth over this point )
F100.00000
G01 X25.76920 Y36.22890
X25.76536 Y35.22106
X25.74362 Y35.12682
X25.65713 Y35.07397
X25.37047 Y35.08250
X25.30316 Y35.13775
X25.27786 Y35.22106
X25.27908 Y39.69882
X25.30285 Y39.83032
G04 P0 ( dwell for no time -- G64 should not smooth over this point )
G00 Z5.00000 ( retract )

G00 X25.27786 Y36.30787 ( rapid move to begin. )
F50.00000
G01 Z-0.05000
G04 P0 ( dwell for no time -- G64 should not smooth over this point )
F100.00000
G01 X25.27786 Y36.30787
X25.27786 Y36.32106
G04 P0 ( dwell for no time -- G64 should not smooth over this point )
G00 Z5.00000 ( retract )

G00 X24.26536 Y36.20940 ( rapid move to begin. )
F50.00000
G01 Z-0.05000
G04 P0 ( dwell for no time -- G64 should not smooth over this point )
F100.00000
G01 X24.26536 Y36.20940
X24.25287 Y34.87768
X24.10004 Y34.85060
X23.95277 Y34.85060
X23.77052 Y34.87989
X23.60110 Y34.85060
X23.45376 Y34.85060
X23.30281 Y34.87615
X23.30281 Y35.16718
X23.29033 Y35.22106
X23.32181 Y35.11501
X23.37047 Y35.08250
X23.42785 Y35.07107
X23.68525 Y35.08250
X23.75256 Y35.13775
X23.77786 Y35.22106
G04 P0 ( dwell for no time -- G64 should not smooth over this point )
G00 Z5.00000 ( retract )

G00 X25.27786 Y35.22106 ( rapid move to begin. )
F50.00000
G01 Z-0.05000
G04 P0 ( dwell for no time -- G64 should not smooth over this point )
F100.00000
G01 X25.27786 Y35.22106
X25.26643 Y35.16368
X25.23392 Y35.11501
X25.15713 Y35.07397
X24.89859 Y35.07397
X24.82180 Y35.11501
X24.80283 Y35.16718
G04 P0 ( dwell for no time -- G64 should not smooth over this point )
G00 Z5.00000 ( retract )

G00 X23.26534 Y37.42105 ( rapid move to begin. )
F50.00000
G01 Z-0.05000
G04 P0 ( dwell for no time -- G64 should not smooth over this point )
F100.00000
G01 X23.26534 Y37.42105
X23.24101 Y37.51846
X23.15711 Y37.56817
X22.89856 Y37.56817
X22.81393 Y37.51752
X22.78985 Y37.42108
X22.79028 Y36.43274
G04 P0 ( dwell for no time -- G64 should not smooth over this point )
G00 Z5.00000 ( retract )

G00 X24.75289 Y37.47099 ( rapid move to begin. )
F50.00000
G01 Z-0.05000
G04 P0 ( dwell for no time -- G64 should not smooth over this point )
F100.00000
G01 X24.75289 Y37.47099
X24.73392 Y37.52712
X24.65713 Y37.56817
X24.39859 Y37.56817
X24.31408 Y37.51770
X24.28995 Y37.42108
X24.29031 Y36.43274
X24.30044 Y39.58013
X24.28688 Y39.64701
X24.22231 Y39.75006
X22.80728 Y41.16506
X22.72483 Y41.22168
X22.65927 Y41.24157
X17.10617 Y41.24558
X17.00091 Y41.22468
X16.91168 Y41.16506
X14.55456 Y38.80794
X14.49495 Y38.71877
X14.47689 Y38.64277
X14.48288 Y16.19864
X14.55456 Y16.07215
X21.34144 Y9.28527
X21.40469 Y9.23955
X21.53588 Y9.20473
X57.04795 Y9.21001
X57.14089 Y9.24715
X57.18874 Y9.28530
X62.34865 Y14.45267
X62.38810 Y14.54465
X62.39496 Y14.60540
X62.39498 Y16.99735
X62.49526 Y17.04368
X62.62119 Y17.16036
X62.69320 Y17.31612
X62.70712 Y17.42480
X62.69320 Y17.53351
X62.66110 Y17.62175
X62.55823 Y17.75922
X62.41080 Y17.84713
X62.30420 Y17.87232
X62.22579 Y17.87314
X62.10349 Y17.84713
X61.95607 Y17.75922
X61.85320 Y17.62175
X61.81457 Y17.50291
X61.81457 Y17.34672
X61.84499 Y17.24627
X61.84502 Y14.71932
X56.88036 Y9.75466
X21.64980 Y9.75466
X15.02396 Y16.38051
X15.02396 Y38.49959
X17.22001 Y40.69562
X22.49897 Y40.69565
X23.75287 Y39.44173
X23.75289 Y39.07157
X23.77667 Y38.94221
X23.77786 Y35.22106
X23.78929 Y35.16368
X23.82180 Y35.11501
X23.89859 Y35.07397
X24.15713 Y35.07397
X24.24362 Y35.12682
X24.26536 Y35.22106
X24.26536 Y36.20940
X24.29031 Y36.43274
G04 P0 ( dwell for no time -- G64 should not smooth over this point )
G00 Z5.00000 ( retract )

G00 X23.75289 Y39.07157 ( rapid move to begin. )
F50.00000
G01 Z-0.05000
G04 P0 ( dwell for no time -- G64 should not smooth over this point )
F100.00000
G01 X23.75289 Y39.07157
X22.29420 Y40.54022
X22.16771 Y40.61190
X17.63452 Y40.62074
X17.52923 Y40.59984
X17.44000 Y40.54022
X15.85504 Y38.95526
X15.79543 Y38.86609
X15.77450 Y38.76080
X15.77851 Y16.62150
X15.79843 Y16.55592
X15.85504 Y16.47347
X22.07296 Y10.25555
X22.13621 Y10.20983
X22.26740 Y10.17501
X56.72283 Y10.18029
X56.81577 Y10.21743
X56.86365 Y10.25560
X61.32757 Y14.72702
X61.36702 Y14.81897
X61.37388 Y14.87972
X61.37390 Y16.49638
X61.46295 Y16.58632
X61.51558 Y16.68244
X61.54807 Y16.83504
X61.54149 Y16.92887
X61.47151 Y17.10204
X61.38777 Y17.19506
X61.22282 Y17.28277
X61.05185 Y17.29828
X60.88795 Y17.24759
X60.78670 Y17.17405
X60.69496 Y17.04771
X60.64975 Y16.86651
X60.65633 Y16.77268
X60.69496 Y16.65384
X60.74474 Y16.57411
X60.82391 Y16.49638
X60.82394 Y14.99362
X56.55524 Y10.72494
X22.38129 Y10.72494
X16.32444 Y16.78180
X16.32444 Y38.64693
X17.74831 Y40.07078
X21.98587 Y40.07081
X23.25287 Y38.80380
X23.25287 Y37.47099
X23.26534 Y37.42105
X23.26534 Y36.43277
X23.29033 Y36.20945
X23.29033 Y35.22106
G04 P0 ( dwell for no time -- G64 should not smooth over this point )
G00 Z5.00000 ( retract )

G00 X22.27784 Y35.22106 ( rapid move to begin. )
F50.00000
G01 Z-0.05000
G04 P0 ( dwell for no time -- G64 should not smooth over this point )
F100.00000
G01 X22.27784 Y35.22106
X22.26641 Y35.16368
X22.23390 Y35.11501
X22.18523 Y35.08250
X22.12783 Y35.07107
X21.87045 Y35.08250
X21.82178 Y35.11501
X21.78074 Y35.19180
X21.77784 Y36.20681
X21.75285 Y36.32106
X21.75285 Y38.15499
X21.39661 Y38.51125
X18.76939 Y38.51122
X18.37676 Y38.11861
X18.37676 Y17.34568
X23.25505 Y12.46738
X55.82372 Y12.46738
X58.39847 Y15.04213
X58.40081 Y15.17627
X58.43944 Y15.29511
X58.53118 Y15.42145
X58.60528 Y15.47931
X58.71947 Y15.53017
X58.89044 Y15.54568
X59.05435 Y15.49499
X59.14447 Y15.43258
X59.24734 Y15.29511
X59.28597 Y15.17627
X59.28597 Y15.02008
X59.24734 Y14.90124
X59.15559 Y14.77490
X59.05435 Y14.70136
X58.90596 Y14.65313
X58.78638 Y14.65232
X56.13208 Y11.99799
X56.04290 Y11.93838
X55.93761 Y11.91742
X23.14113 Y11.91742
X23.04274 Y11.93576
X22.98236 Y11.96804
X17.90739 Y17.03733
X17.85075 Y17.11980
X17.82923 Y17.20738
X17.82682 Y38.23248
X17.83922 Y38.30962
X17.89151 Y38.40772
X18.46078 Y38.98036
X18.54358 Y39.03731
X18.63103 Y39.05880
X21.53966 Y39.05831
X21.61571 Y39.04028
X21.70492 Y38.98066
X22.25287 Y38.42275
G04 P0 ( dwell for no time -- G64 should not smooth over this point )
G00 Z5.00000 ( retract )

G00 X23.29033 Y32.22106 ( rapid move to begin. )
F50.00000
G01 Z-0.05000
G04 P0 ( dwell for no time -- G64 should not smooth over this point )
F100.00000
G01 X23.29033 Y32.22106
X23.30283 Y32.27514
X23.29033 Y32.22106
X23.27786 Y30.02107
G04 P0 ( dwell for no time -- G64 should not smooth over this point )
G00 Z5.00000 ( retract )

G00 X23.27794 Y31.00700 ( rapid move to begin. )
F50.00000
G01 Z-0.05000
G04 P0 ( dwell for no time -- G64 should not smooth over this point )
F100.00000
G01 X23.27794 Y31.00700
X23.27786 Y31.00669
G04 P0 ( dwell for no time -- G64 should not smooth over this point )
G00 Z5.00000 ( retract )

G00 X22.77784 Y30.02107 ( rapid move to begin. )
F50.00000
G01 Z-0.05000
G04 P0 ( dwell for no time -- G64 should not smooth over this point )
F100.00000
G01 X22.77784 Y30.02107
X22.76641 Y29.96369
X22.73390 Y29.91502
X22.68523 Y29.88251
X22.62783 Y29.87108
X22.37045 Y29.88251
X22.32178 Y29.91502
X22.28074 Y29.99181
X22.27784 Y32.22106
X22.26641 Y32.27847
X22.23390 Y32.32713
X22.18523 Y32.35965
X22.12783 Y32.37105
X21.87045 Y32.35965
X21.82178 Y32.32713
X21.78074 Y32.25035
X21.77784 Y30.02107
X21.78927 Y29.96369
X21.82178 Y29.91502
X21.89857 Y29.87398
X22.15711 Y29.87398
X22.23390 Y29.91502
X22.26641 Y29.96369
X22.27784 Y30.02107
X22.28074 Y32.25035
X22.32178 Y32.32713
X22.37045 Y32.35965
X22.62783 Y32.37105
X22.68523 Y32.35965
X22.73390 Y32.32713
X22.76534 Y32.22106
G04 P0 ( dwell for no time -- G64 should not smooth over this point )
G00 Z5.00000 ( retract )

G00 X23.77786 Y30.02107 ( rapid move to begin. )
F50.00000
G01 Z-0.05000
G04 P0 ( dwell for no time -- G64 should not smooth over this point )
F100.00000
G01 X23.77786 Y30.02107
X23.78076 Y32.25035
X23.82180 Y32.32713
X23.87047 Y32.35965
X23.92785 Y32.37105
X24.15713 Y32.36818
X24.23392 Y32.32713
X24.25287 Y32.27506
X24.25287 Y32.56602
X24.10214 Y32.59152
X23.95442 Y32.59152
X23.78523 Y32.56231
X23.60319 Y32.59152
X23.45556 Y32.59152
X23.30281 Y32.56450
X23.30283 Y32.27514
X23.32181 Y32.32713
X23.39859 Y32.36818
X23.65714 Y32.36818
X23.73392 Y32.32713
X23.76643 Y32.27847
X23.77786 Y32.22106
G04 P0 ( dwell for no time -- G64 should not smooth over this point )
G00 Z5.00000 ( retract )

G00 X24.27786 Y30.02107 ( rapid move to begin. )
F50.00000
G01 Z-0.05000
G04 P0 ( dwell for no time -- G64 should not smooth over this point )
F100.00000
G01 X24.27786 Y30.02107
X24.26536 Y32.22106
X24.25287 Y32.27506
X24.26536 Y32.22106
G04 P0 ( dwell for no time -- G64 should not smooth over this point )
G00 Z5.00000 ( retract )

G00 X25.27786 Y30.02107 ( rapid move to begin. )
F50.00000
G01 Z-0.05000
G04 P0 ( dwell for no time -- G64 should not smooth over this point )
F100.00000
G01 X25.27786 Y30.02107
X25.27786 Y32.22106
G04 P0 ( dwell for no time -- G64 should not smooth over this point )
G00 Z5.00000 ( retract )

G00 X25.77786 Y30.02107 ( rapid move to begin. )
F50.00000
G01 Z-0.05000
G04 P0 ( dwell for no time -- G64 should not smooth over this point )
F100.00000
G01 X25.77786 Y30.02107
X25.75286 Y32.56602
X25.60214 Y32.59152
X25.45441 Y32.59152
X25.28523 Y32.56231
X25.10318 Y32.59152
X24.95556 Y32.59152
X24.80283 Y32.56450
X24.79036 Y31.12107
X24.79036 Y32.22106
X24.82180 Y32.32713
X24.89859 Y32.36818
X25.15713 Y32.36818
X25.23392 Y32.32713
X25.26643 Y32.27847
X25.27786 Y32.22106
X25.30316 Y32.30440
X25.37047 Y32.35965
X25.62785 Y32.37105
X25.71118 Y32.34578
X25.74352 Y32.31543
X25.75286 Y32.27506
G04 P0 ( dwell for no time -- G64 should not smooth over this point )
G00 Z5.00000 ( retract )

G00 X26.77786 Y30.02107 ( rapid move to begin. )
F50.00000
G01 Z-0.05000
G04 P0 ( dwell for no time -- G64 should not smooth over this point )
F100.00000
G01 X26.77786 Y30.02107
X26.76643 Y29.96369
X26.73391 Y29.91502
X26.65713 Y29.87398
X26.39858 Y29.87398
X26.32180 Y29.91502
X26.28929 Y29.96369
X26.27786 Y30.02107
X26.27793 Y31.00694
G04 P0 ( dwell for no time -- G64 should not smooth over this point )
G00 Z5.00000 ( retract )

G00 X27.27786 Y30.02107 ( rapid move to begin. )
F50.00000
G01 Z-0.05000
G04 P0 ( dwell for no time -- G64 should not smooth over this point )
F100.00000
G01 X27.27786 Y30.02107
X27.26643 Y29.96369
X27.23391 Y29.91502
X27.18525 Y29.88251
X27.12784 Y29.87108
X26.87046 Y29.88251
X26.80315 Y29.93776
X26.77786 Y30.02107
X26.78075 Y32.25035
X26.82180 Y32.32713
X26.87046 Y32.35965
X26.92784 Y32.37105
X27.15713 Y32.36818
X27.23391 Y32.32713
X27.25286 Y32.27506
G04 P0 ( dwell for no time -- G64 should not smooth over this point )
G00 Z5.00000 ( retract )

G00 X28.27785 Y30.02107 ( rapid move to begin. )
F50.00000
G01 Z-0.05000
G04 P0 ( dwell for no time -- G64 should not smooth over this point )
F100.00000
G01 X28.27785 Y30.02107
X28.26642 Y29.96369
X28.23391 Y29.91502
X28.15713 Y29.87398
X27.89858 Y29.87398
X27.82180 Y29.91502
X27.78928 Y29.96369
X27.77785 Y30.02107
X27.77793 Y31.00694
G04 P0 ( dwell for no time -- G64 should not smooth over this point )
G00 Z5.00000 ( retract )

G00 X28.77785 Y30.02107 ( rapid move to begin. )
F50.00000
G01 Z-0.05000
G04 P0 ( dwell for no time -- G64 should not smooth over this point )
F100.00000
G01 X28.77785 Y30.02107
X28.75286 Y32.56602
X28.60213 Y32.59152
X28.45441 Y32.59152
X28.28522 Y32.56231
X28.10318 Y32.59152
X27.95555 Y32.59152
X27.80282 Y32.56450
X27.80282 Y32.27514
X27.79035 Y32.22106
G04 P0 ( dwell for no time -- G64 should not smooth over this point )
G00 Z5.00000 ( retract )

G00 X29.29035 Y31.12107 ( rapid move to begin. )
F50.00000
G01 Z-0.05000
G04 P0 ( dwell for no time -- G64 should not smooth over this point )
F100.00000
G01 X29.29035 Y31.12107
X29.27793 Y31.00694
X29.27785 Y30.02107
X29.27793 Y31.00694
G04 P0 ( dwell for no time -- G64 should not smooth over this point )
G00 Z5.00000 ( retract )

G00 X30.27785 Y30.02107 ( rapid move to begin. )
F50.00000
G01 Z-0.05000
G04 P0 ( dwell for no time -- G64 should not smooth over this point )
F100.00000
G01 X30.27785 Y30.02107
X30.25286 Y32.56602
X30.10213 Y32.59152
X29.95441 Y32.59152
X29.78522 Y32.56231
X29.60317 Y32.59152
X29.45555 Y32.59152
X29.30282 Y32.56450
X29.29035 Y31.12107
X29.29035 Y32.22106
X29.31209 Y32.31532
X29.39858 Y32.36818
X29.68524 Y32.35965
X29.75255 Y32.30440
X29.77785 Y32.22106
X29.77785 Y30.02107
G04 P0 ( dwell for no time -- G64 should not smooth over this point )
G00 Z5.00000 ( retract )

G00 X30.79034 Y31.12107 ( rapid move to begin. )
F50.00000
G01 Z-0.05000
G04 P0 ( dwell for no time -- G64 should not smooth over this point )
F100.00000
G01 X30.79034 Y31.12107
X30.77792 Y31.00694
X30.77785 Y30.02107
X30.77792 Y31.00694
G04 P0 ( dwell for no time -- G64 should not smooth over this point )
G00 Z5.00000 ( retract )

G00 X31.77785 Y30.02107 ( rapid move to begin. )
F50.00000
G01 Z-0.05000
G04 P0 ( dwell for no time -- G64 should not smooth over this point )
F100.00000
G01 X31.77785 Y30.02107
X31.75285 Y32.56602
X31.60213 Y32.59152
X31.45440 Y32.59152
X31.28521 Y32.56231
X31.10317 Y32.59152
X30.95555 Y32.59152
X30.80282 Y32.56450
X30.79034 Y31.12107
X30.79034 Y32.22106
X30.81209 Y32.31532
X30.89857 Y32.36818
X31.15712 Y32.36818
X31.23391 Y32.32713
X31.27495 Y32.25035
X31.27785 Y30.02107
X31.28074 Y32.25035
X31.32179 Y32.32713
X31.37046 Y32.35965
X31.42783 Y32.37105
X31.65712 Y32.36818
X31.73390 Y32.32713
X31.75285 Y32.27506
G04 P0 ( dwell for no time -- G64 should not smooth over this point )
G00 Z5.00000 ( retract )

G00 X32.77784 Y30.02107 ( rapid move to begin. )
F50.00000
G01 Z-0.05000
G04 P0 ( dwell for no time -- G64 should not smooth over this point )
F100.00000
G01 X32.77784 Y30.02107
X32.77784 Y32.22106
G04 P0 ( dwell for no time -- G64 should not smooth over this point )
G00 Z5.00000 ( retract )

G00 X33.27784 Y30.02107 ( rapid move to begin. )
F50.00000
G01 Z-0.05000
G04 P0 ( dwell for no time -- G64 should not smooth over this point )
F100.00000
G01 X33.27784 Y30.02107
X33.25285 Y32.56602
X33.10215 Y32.59152
X32.95440 Y32.59152
X32.78524 Y32.56231
X32.60319 Y32.59152
X32.45554 Y32.59152
X32.30281 Y32.56450
X32.29034 Y31.12107
X32.29034 Y32.22106
X32.32179 Y32.32713
X32.39857 Y32.36818
X32.65712 Y32.36818
X32.73390 Y32.32713
X32.76641 Y32.27847
X32.77784 Y32.22106
X32.80314 Y32.30440
X32.87045 Y32.35965
X33.12783 Y32.37105
X33.21117 Y32.34578
X33.24350 Y32.31543
X33.25285 Y32.27506
G04 P0 ( dwell for no time -- G64 should not smooth over this point )
G00 Z5.00000 ( retract )

G00 X34.27784 Y30.02107 ( rapid move to begin. )
F50.00000
G01 Z-0.05000
G04 P0 ( dwell for no time -- G64 should not smooth over this point )
F100.00000
G01 X34.27784 Y30.02107
X34.27784 Y32.22106
G04 P0 ( dwell for no time -- G64 should not smooth over this point )
G00 Z5.00000 ( retract )

G00 X34.77784 Y30.02107 ( rapid move to begin. )
F50.00000
G01 Z-0.05000
G04 P0 ( dwell for no time -- G64 should not smooth over this point )
F100.00000
G01 X34.77784 Y30.02107
X34.75285 Y32.56602
X34.60215 Y32.59152
X34.45440 Y32.59152
X34.28523 Y32.56231
X34.10319 Y32.59152
X33.95554 Y32.59152
X33.80281 Y32.56450
X33.79034 Y31.12107
X33.79034 Y32.22106
X33.82178 Y32.32713
X33.89857 Y32.36818
X34.15711 Y32.36818
X34.23390 Y32.32713
X34.26641 Y32.27847
X34.27784 Y32.22106
X34.30314 Y32.30440
X34.37045 Y32.35965
X34.62783 Y32.37105
X34.71117 Y32.34578
X34.74350 Y32.31543
X34.75285 Y32.27506
G04 P0 ( dwell for no time -- G64 should not smooth over this point )
G00 Z5.00000 ( retract )

G00 X33.79034 Y31.12107 ( rapid move to begin. )
F50.00000
G01 Z-0.05000
G04 P0 ( dwell for no time -- G64 should not smooth over this point )
F100.00000
G01 X33.79034 Y31.12107
X33.77792 Y31.00694
X33.77784 Y30.02107
X33.77792 Y31.00694
G04 P0 ( dwell for no time -- G64 should not smooth over this point )
G00 Z5.00000 ( retract )

G00 X32.29034 Y31.12107 ( rapid move to begin. )
F50.00000
G01 Z-0.05000
G04 P0 ( dwell for no time -- G64 should not smooth over this point )
F100.00000
G01 X32.29034 Y31.12107
X32.27792 Y31.00694
X32.27785 Y30.02107
X32.27792 Y31.00694
G04 P0 ( dwell for no time -- G64 should not smooth over this point )
G00 Z5.00000 ( retract )

G00 X30.25286 Y32.27506 ( rapid move to begin. )
F50.00000
G01 Z-0.05000
G04 P0 ( dwell for no time -- G64 should not smooth over this point )
F100.00000
G01 X30.25286 Y32.27506
X30.23391 Y32.32713
X30.15712 Y32.36818
X29.89858 Y32.36818
X29.82179 Y32.32713
X29.78928 Y32.27847
X29.77785 Y32.22106
G04 P0 ( dwell for no time -- G64 should not smooth over this point )
G00 Z5.00000 ( retract )

G00 X28.75286 Y32.27506 ( rapid move to begin. )
F50.00000
G01 Z-0.05000
G04 P0 ( dwell for no time -- G64 should not smooth over this point )
F100.00000
G01 X28.75286 Y32.27506
X28.73391 Y32.32713
X28.65713 Y32.36818
X28.39858 Y32.36818
X28.32180 Y32.32713
X28.28928 Y32.27847
X28.27785 Y32.22106
G04 P0 ( dwell for no time -- G64 should not smooth over this point )
G00 Z5.00000 ( retract )

G00 X26.77786 Y32.22106 ( rapid move to begin. )
F50.00000
G01 Z-0.05000
G04 P0 ( dwell for no time -- G64 should not smooth over this point )
F100.00000
G01 X26.77786 Y32.22106
X26.76643 Y32.27847
X26.73391 Y32.32713
X26.68525 Y32.35965
X26.62784 Y32.37105
X26.37047 Y32.35965
X26.31210 Y32.31532
X26.29035 Y32.22106
G04 P0 ( dwell for no time -- G64 should not smooth over this point )
G00 Z5.00000 ( retract )

G00 X24.79036 Y31.12107 ( rapid move to begin. )
F50.00000
G01 Z-0.05000
G04 P0 ( dwell for no time -- G64 should not smooth over this point )
F100.00000
G01 X24.79036 Y31.12107
X24.77794 Y31.00694
X24.77786 Y30.02107
X24.77794 Y31.00694
G04 P0 ( dwell for no time -- G64 should not smooth over this point )
G00 Z5.00000 ( retract )

G00 X35.29034 Y32.22106 ( rapid move to begin. )
F50.00000
G01 Z-0.05000
G04 P0 ( dwell for no time -- G64 should not smooth over this point )
F100.00000
G01 X35.29034 Y32.22106
X35.30281 Y32.27514
X35.30283 Y32.56450
X35.45554 Y32.59152
X35.60319 Y32.59152
X35.78523 Y32.56231
X35.95439 Y32.59152
X36.10319 Y32.59152
X36.28523 Y32.56231
X36.45439 Y32.59152
X36.60217 Y32.59152
X36.75879 Y32.56208
X36.88220 Y32.48263
X36.96392 Y32.36302
X36.99828 Y32.19335
X36.99831 Y30.04682
X36.96884 Y29.89016
X36.88942 Y29.76674
X36.76981 Y29.68503
X36.60001 Y29.65061
X36.45274 Y29.65061
X36.27052 Y29.67987
X36.10115 Y29.65061
X35.95272 Y29.65061
X35.77052 Y29.67987
X35.60116 Y29.65061
X35.45376 Y29.65061
X35.30278 Y29.67616
X35.14157 Y29.77639
X35.02259 Y29.80182
X34.90433 Y29.77314
X34.75943 Y29.67791
X34.59999 Y29.65061
X34.45272 Y29.65061
X34.27053 Y29.67987
X34.10116 Y29.65061
X33.95376 Y29.65061
X33.80278 Y29.67616
X33.64157 Y29.77639
X33.52260 Y29.80182
X33.40434 Y29.77314
X33.25943 Y29.67791
X33.10002 Y29.65061
X32.95272 Y29.65061
X32.77053 Y29.67987
X32.60116 Y29.65061
X32.45377 Y29.65061
X32.30279 Y29.67616
X32.14157 Y29.77639
X32.02260 Y29.80182
X31.90434 Y29.77314
X31.75943 Y29.67791
X31.60002 Y29.65061
X31.45273 Y29.65061
X31.27053 Y29.67987
X31.10116 Y29.65061
X30.95377 Y29.65061
X30.80279 Y29.67616
X30.64158 Y29.77639
X30.52260 Y29.80182
X30.40434 Y29.77314
X30.25943 Y29.67791
X30.10002 Y29.65061
X29.95273 Y29.65061
X29.77053 Y29.67987
X29.60117 Y29.65061
X29.45377 Y29.65061
X29.30277 Y29.67616
X29.14158 Y29.77639
X29.02261 Y29.80182
X28.90434 Y29.77314
X28.75944 Y29.67791
X28.60003 Y29.65061
X28.45273 Y29.65061
X28.27054 Y29.67987
X28.10117 Y29.65061
X27.95377 Y29.65061
X27.80277 Y29.67616
X27.64158 Y29.77639
X27.52261 Y29.80182
X27.40435 Y29.77314
X27.25941 Y29.67791
X27.10003 Y29.65061
X26.95274 Y29.65061
X26.77052 Y29.67987
X26.60117 Y29.65061
X26.45378 Y29.65061
X26.30277 Y29.67616
X26.14159 Y29.77639
X26.02261 Y29.80182
X25.90435 Y29.77314
X25.75942 Y29.67791
X25.60003 Y29.65061
X25.45274 Y29.65061
X25.27052 Y29.67987
X25.10118 Y29.65061
X24.95376 Y29.65061
X24.80278 Y29.67616
X24.64156 Y29.77639
X24.52259 Y29.80182
X24.40433 Y29.77314
X24.25942 Y29.67791
X24.10004 Y29.65061
X23.95274 Y29.65061
X23.77052 Y29.67987
X23.60118 Y29.65061
X23.45376 Y29.65061
X23.30278 Y29.67616
X23.14157 Y29.77639
X23.02259 Y29.80182
X22.90433 Y29.77314
X22.75942 Y29.67791
X22.60001 Y29.65061
X22.45272 Y29.65061
X22.27052 Y29.67987
X22.10116 Y29.65061
X21.95374 Y29.65061
X21.79694 Y29.68010
X21.67352 Y29.75955
X21.59181 Y29.87916
X21.55739 Y30.04896
X21.55739 Y32.19521
X21.58688 Y32.35200
X21.66631 Y32.47545
X21.78594 Y32.55718
X21.95551 Y32.59152
X22.10319 Y32.59152
X22.28523 Y32.56231
X22.45440 Y32.59152
X22.60215 Y32.59152
X22.75285 Y32.56602
X22.77784 Y30.02107
X22.78927 Y29.96369
X22.82178 Y29.91502
X22.89856 Y29.87398
X23.18523 Y29.88251
X23.25254 Y29.93776
X23.27786 Y30.02107
X23.28929 Y29.96369
X23.32181 Y29.91502
X23.37047 Y29.88251
X23.42785 Y29.87108
X23.68525 Y29.88251
X23.75256 Y29.93776
X23.77786 Y30.02107
X23.78929 Y29.96369
X23.82180 Y29.91502
X23.87047 Y29.88251
X23.92785 Y29.87108
X24.18525 Y29.88251
X24.25256 Y29.93776
X24.27786 Y30.02107
X24.28929 Y29.96369
X24.32180 Y29.91502
X24.37047 Y29.88251
X24.42785 Y29.87108
X24.68525 Y29.88251
X24.75256 Y29.93776
X24.77786 Y30.02107
X24.78929 Y29.96369
X24.82180 Y29.91502
X24.87047 Y29.88251
X24.92785 Y29.87108
X25.18525 Y29.88251
X25.25256 Y29.93776
X25.27786 Y30.02107
X25.28929 Y29.96369
X25.32180 Y29.91502
X25.39859 Y29.87398
X25.68525 Y29.88251
X25.75256 Y29.93776
X25.77786 Y30.02107
X25.78929 Y29.96369
X25.82180 Y29.91502
X25.89858 Y29.87398
X26.12784 Y29.87108
X26.21118 Y29.89638
X26.26643 Y29.96369
X26.27786 Y30.02107
X26.30283 Y32.56450
X26.45556 Y32.59152
X26.60318 Y32.59152
X26.78522 Y32.56231
X26.95441 Y32.59152
X27.10214 Y32.59152
X27.25286 Y32.56602
X27.27786 Y30.02107
X27.28929 Y29.96369
X27.32180 Y29.91502
X27.39858 Y29.87398
X27.68525 Y29.88251
X27.73391 Y29.91502
X27.77496 Y29.99181
X27.79035 Y32.22106
X27.81209 Y32.31532
X27.89858 Y32.36818
X28.18524 Y32.35965
X28.23391 Y32.32713
X28.27496 Y32.25035
X28.27785 Y30.02107
X28.28928 Y29.96369
X28.32180 Y29.91502
X28.39858 Y29.87398
X28.68524 Y29.88251
X28.75255 Y29.93776
X28.77785 Y30.02107
X28.78928 Y29.96369
X28.82179 Y29.91502
X28.87046 Y29.88251
X28.92784 Y29.87108
X29.18524 Y29.88251
X29.25255 Y29.93776
X29.27785 Y30.02107
X29.28928 Y29.96369
X29.32179 Y29.91502
X29.37046 Y29.88251
X29.42784 Y29.87108
X29.68524 Y29.88251
X29.75255 Y29.93776
X29.77785 Y30.02107
X29.78928 Y29.96369
X29.82179 Y29.91502
X29.87046 Y29.88251
X29.92784 Y29.87108
X30.18524 Y29.88251
X30.25255 Y29.93776
X30.27785 Y30.02107
X30.28928 Y29.96369
X30.32179 Y29.91502
X30.37046 Y29.88251
X30.42784 Y29.87108
X30.68524 Y29.88251
X30.75255 Y29.93776
X30.77785 Y30.02107
X30.78928 Y29.96369
X30.82179 Y29.91502
X30.87046 Y29.88251
X30.92784 Y29.87108
X31.18524 Y29.88251
X31.25255 Y29.93776
X31.27785 Y30.02107
X31.28928 Y29.96369
X31.32179 Y29.91502
X31.37046 Y29.88251
X31.42783 Y29.87108
X31.68524 Y29.88251
X31.75255 Y29.93776
X31.77785 Y30.02107
X31.78928 Y29.96369
X31.82179 Y29.91502
X31.87045 Y29.88251
X31.92783 Y29.87108
X32.18524 Y29.88251
X32.25255 Y29.93776
X32.27785 Y30.02107
X32.28928 Y29.96369
X32.32179 Y29.91502
X32.37045 Y29.88251
X32.42783 Y29.87108
X32.68524 Y29.88251
X32.75255 Y29.93776
X32.77784 Y30.02107
X32.78927 Y29.96369
X32.82179 Y29.91502
X32.87045 Y29.88251
X32.92783 Y29.87108
X33.18523 Y29.88251
X33.25254 Y29.93776
X33.27784 Y30.02107
X33.28927 Y29.96369
X33.32179 Y29.91502
X33.37045 Y29.88251
X33.42783 Y29.87108
X33.68523 Y29.88251
X33.75254 Y29.93776
X33.77784 Y30.02107
X33.78927 Y29.96369
X33.82178 Y29.91502
X33.87045 Y29.88251
X33.92783 Y29.87108
X34.18523 Y29.88251
X34.25254 Y29.93776
X34.27784 Y30.02107
X34.28927 Y29.96369
X34.32178 Y29.91502
X34.39857 Y29.87398
X34.68523 Y29.88251
X34.75254 Y29.93776
X34.77784 Y30.02107
X34.80314 Y29.93776
X34.87045 Y29.88251
X34.92783 Y29.87108
X35.18523 Y29.88251
X35.25254 Y29.93776
X35.27784 Y30.02107
X35.29034 Y32.22106
X35.32178 Y32.32713
X35.37045 Y32.35965
X35.42783 Y32.37105
X35.68523 Y32.35965
X35.73390 Y32.32713
X35.77494 Y32.25035
X35.77784 Y30.02107
X35.78927 Y29.96369
X35.82178 Y29.91502
X35.89856 Y29.87398
X36.15711 Y29.87398
X36.23390 Y29.91502
X36.26641 Y29.96369
X36.27786 Y30.02107
X36.30316 Y29.93776
X36.37047 Y29.88251
X36.65714 Y29.87398
X36.73392 Y29.91502
X36.76643 Y29.96369
X36.77784 Y30.02107
X36.77784 Y32.22106
X36.76643 Y32.27847
X36.73392 Y32.32713
X36.65714 Y32.36818
X36.39859 Y32.36818
X36.32180 Y32.32713
X36.28076 Y32.25035
X36.27786 Y30.02107
X36.27786 Y32.22106
X36.25254 Y32.30440
X36.21116 Y32.34578
X36.12782 Y32.37105
X35.89856 Y32.36818
X35.82178 Y32.32713
X35.78073 Y32.25035
X35.77784 Y30.02107
X35.75254 Y29.93776
X35.68523 Y29.88251
X35.39857 Y29.87398
X35.32178 Y29.91502
X35.28927 Y29.96369
X35.27784 Y30.02107
X35.27792 Y31.00694
G04 P0 ( dwell for no time -- G64 should not smooth over this point )
G00 Z5.00000 ( retract )

G00 X55.04140 Y16.37832 ( rapid move to begin. )
F50.00000
G01 Z-0.05000
G04 P0 ( dwell for no time -- G64 should not smooth over this point )
F100.00000
G01 X55.04140 Y16.37832
X55.02748 Y16.26964
X54.99538 Y16.18140
X54.89251 Y16.04393
X54.80239 Y15.98152
X54.71534 Y15.94634
X54.53442 Y15.93248
X53.58192 Y14.97995
X53.49274 Y14.92034
X53.38745 Y14.89938
X35.50072 Y14.89938
X35.44627 Y14.83997
X35.35615 Y14.77756
X35.20776 Y14.72933
X35.11383 Y14.72603
X34.93423 Y14.77756
X34.83298 Y14.85110
X34.74124 Y14.97744
X34.69603 Y15.15864
X34.72851 Y15.34271
X34.78114 Y15.43883
X34.83298 Y15.49765
X34.93423 Y15.57119
X35.11383 Y15.62270
X35.20776 Y15.61942
X35.35615 Y15.57119
X35.44627 Y15.50878
X35.50072 Y15.44934
X53.27356 Y15.44934
X54.14651 Y16.32229
X54.14885 Y16.45643
X54.18748 Y16.57527
X54.27922 Y16.70161
X54.38047 Y16.77515
X54.52885 Y16.82338
X54.62276 Y16.82666
X54.71534 Y16.81033
X54.82954 Y16.75947
X54.90363 Y16.70161
X54.99538 Y16.57527
X55.02748 Y16.48703
X55.04140 Y16.37832
G04 P0 ( dwell for no time -- G64 should not smooth over this point )
G00 Z5.00000 ( retract )

G00 X55.24961 Y16.24812 ( rapid move to begin. )
F50.00000
G01 Z-0.05000
G04 P0 ( dwell for no time -- G64 should not smooth over this point )
F100.00000
G01 X55.24961 Y16.24812
X55.24935 Y16.50982
X55.14897 Y16.75160
X54.96370 Y16.93651
X54.72169 Y17.03651
X54.46000 Y17.03626
X54.21821 Y16.93588
X54.03328 Y16.75061
X53.93173 Y16.50479
X53.90932 Y16.40550
X53.85220 Y16.32219
X53.26856 Y15.73855
X53.17872 Y15.67850
X53.10196 Y15.66029
X35.70730 Y15.65739
X35.60829 Y15.67581
X35.52122 Y15.73100
X35.27545 Y15.83255
X35.01376 Y15.83230
X34.77197 Y15.73192
X34.58706 Y15.54665
X34.48706 Y15.30464
X34.48731 Y15.04294
X34.58770 Y14.80116
X34.77296 Y14.61625
X35.01497 Y14.51625
X35.27667 Y14.51650
X35.52234 Y14.61851
X35.60845 Y14.67292
X35.70766 Y14.69136
X53.36018 Y14.69136
X53.57023 Y14.73316
X53.74836 Y14.85216
X54.55822 Y15.65798
X54.61852 Y15.69633
X54.71918 Y15.71889
X54.96469 Y15.82084
X55.14961 Y16.00611
X55.24961 Y16.24812
G04 P0 ( dwell for no time -- G64 should not smooth over this point )
G00 Z5.00000 ( retract )

G00 X48.78033 Y5.30804 ( rapid move to begin. )
F50.00000
G01 Z-0.05000
G04 P0 ( dwell for no time -- G64 should not smooth over this point )
F100.00000
G01 X48.78033 Y5.30804
X48.85005 Y5.38269
X48.89150 Y5.46028
X48.90865 Y5.54657
X48.89150 Y5.66216
X48.85556 Y5.73255
X48.71642 Y5.87329
X48.64774 Y5.91174
X48.53804 Y5.93219
X48.44533 Y5.91751
X48.36961 Y5.88081
X48.24459 Y5.76244
X48.18447 Y5.66214
X48.16732 Y5.57585
X48.18447 Y5.46028
X48.22590 Y5.38276
X48.29572 Y5.30811
G04 P0 ( dwell for no time -- G64 should not smooth over this point )
G00 Z5.00000 ( retract )

G00 X48.82386 Y5.17842 ( rapid move to begin. )
F50.00000
G01 Z-0.05000
G04 P0 ( dwell for no time -- G64 should not smooth over this point )
F100.00000
G01 X48.82386 Y5.17842
X48.82351 Y5.16887
G04 P0 ( dwell for no time -- G64 should not smooth over this point )
G00 Z5.00000 ( retract )

G00 X48.83796 Y5.00085 ( rapid move to begin. )
F50.00000
G01 Z-0.05000
G04 P0 ( dwell for no time -- G64 should not smooth over this point )
F100.00000
G01 X48.83796 Y5.00085
X48.83793 Y4.13260
X48.81766 Y4.02534
X48.74985 Y3.92084
X48.67395 Y3.86572
X48.55366 Y3.83347
X48.43067 Y3.85297
X48.30514 Y3.94416
X48.26392 Y4.01066
X48.24213 Y4.08564
X48.23799 Y5.13260
X48.24863 Y5.21009
X48.29572 Y5.30811
X48.38213 Y5.31162
X48.78033 Y5.30804
X48.82353 Y5.22084
