( pcb2gcode 1.3.2 )
( Software-independent Gcode )

G94 ( Millimeters per minute feed rate. )
G21 ( Units == Millimeters. )

G90 ( Absolute coordinates. )
S10000 ( RPM spindle speed. )
G64 P0.01000 ( set maximum deviation from commanded toolpath )
F100.00000 ( Feedrate. )

F100.00000 ( Feedrate. )
M3 ( Spindle on clockwise. )
G04 P1.00000
G04 P0 ( dwell for no time -- G64 should not smooth over this point )
G00 Z5.00000 ( retract )

G00 X3.66736 Y37.23817 ( rapid move to begin. )
F50.00000
G01 Z-0.05000
G04 P0 ( dwell for no time -- G64 should not smooth over this point )
F100.00000
G01 X3.66736 Y37.23817
X3.66810 Y38.01699
X3.96683 Y38.73642
X4.51808 Y39.28673
X5.23807 Y39.58424
X6.01691 Y39.58351
X6.73634 Y39.28478
X7.28663 Y38.73352
X7.58417 Y38.01351
X7.58343 Y37.23469
X7.28470 Y36.51526
X6.73345 Y35.96497
X6.01343 Y35.66744
X5.23462 Y35.66817
X4.51519 Y35.96690
X3.96490 Y36.51816
X3.66736 Y37.23817
G04 P0 ( dwell for no time -- G64 should not smooth over this point )
G00 Z5.00000 ( retract )

G00 X5.87376 Y26.84579 ( rapid move to begin. )
F50.00000
G01 Z-0.05000
G04 P0 ( dwell for no time -- G64 should not smooth over this point )
F100.00000
G01 X5.87376 Y26.84579
X5.93114 Y26.85727
X5.97980 Y26.88978
X6.01231 Y26.93845
X6.02374 Y26.99583
X6.01231 Y27.25323
X5.95707 Y27.32054
X5.87376 Y27.34581
G04 P0 ( dwell for no time -- G64 should not smooth over this point )
G00 Z5.00000 ( retract )

G00 X5.07376 Y26.84579 ( rapid move to begin. )
F50.00000
G01 Z-0.05000
G04 P0 ( dwell for no time -- G64 should not smooth over this point )
F100.00000
G01 X5.07376 Y26.84579
X5.87376 Y26.84579
X5.95707 Y26.82052
X5.99845 Y26.77914
X6.02085 Y26.72509
X6.02085 Y26.46654
X5.97980 Y26.38976
X5.93114 Y26.35725
X5.87376 Y26.34579
G04 P0 ( dwell for no time -- G64 should not smooth over this point )
G00 Z5.00000 ( retract )

G00 X5.07376 Y26.34579 ( rapid move to begin. )
F50.00000
G01 Z-0.05000
G04 P0 ( dwell for no time -- G64 should not smooth over this point )
F100.00000
G01 X5.07376 Y26.34579
X5.87376 Y26.34579
X5.95707 Y26.32052
X5.99845 Y26.27914
X6.02085 Y26.22509
X6.02085 Y25.96654
X5.97980 Y25.88976
X5.93114 Y25.85725
X5.87376 Y25.84579
G04 P0 ( dwell for no time -- G64 should not smooth over this point )
G00 Z5.00000 ( retract )

G00 X5.07376 Y25.84579 ( rapid move to begin. )
F50.00000
G01 Z-0.05000
G04 P0 ( dwell for no time -- G64 should not smooth over this point )
F100.00000
G01 X5.07376 Y25.84579
X5.87376 Y25.84579
X5.93114 Y25.83439
X5.99845 Y25.77914
X6.02374 Y25.69580
X6.02374 Y25.49580
X6.01231 Y25.43843
X5.97117 Y25.38267
X5.87376 Y25.35831
X5.37759 Y25.34932
G04 P0 ( dwell for no time -- G64 should not smooth over this point )
G00 Z5.00000 ( retract )

G00 X5.07376 Y25.34579 ( rapid move to begin. )
F50.00000
G01 Z-0.05000
G04 P0 ( dwell for no time -- G64 should not smooth over this point )
F100.00000
G01 X5.07376 Y25.34579
X5.37759 Y25.34932
X5.35926 Y25.34582
G04 P0 ( dwell for no time -- G64 should not smooth over this point )
G00 Z5.00000 ( retract )

G00 X5.92367 Y25.37079 ( rapid move to begin. )
F50.00000
G01 Z-0.05000
G04 P0 ( dwell for no time -- G64 should not smooth over this point )
F100.00000
G01 X5.92367 Y25.37079
X7.65110 Y25.37079
X16.08524 Y33.80493
X16.09406 Y38.13789
X16.16584 Y38.26449
X17.96515 Y40.05628
X18.05705 Y40.09572
X18.11793 Y40.10258
X23.30014 Y40.09857
X23.36567 Y40.07871
X23.44817 Y40.02206
X24.12640 Y39.34383
X24.23044 Y39.34548
X24.33704 Y39.32029
X24.47225 Y39.24226
X24.54743 Y39.16243
X24.60006 Y39.06631
X24.63338 Y38.89796
X24.61944 Y38.78928
X24.55599 Y38.64671
X24.48446 Y38.56357
X24.39435 Y38.50116
X24.24596 Y38.45293
X24.13633 Y38.45047
X23.97243 Y38.50116
X23.87118 Y38.57470
X23.81934 Y38.63352
X23.76671 Y38.72964
X23.74080 Y38.81988
X23.73847 Y38.95402
X23.13984 Y39.55262
X18.23175 Y39.55265
X16.63518 Y37.95605
X16.63518 Y33.69096
X16.61420 Y33.58570
X16.55458 Y33.49653
X7.92379 Y24.87145
X7.86342 Y24.83916
X7.76502 Y24.82083
X5.92377 Y24.82083
G04 P0 ( dwell for no time -- G64 should not smooth over this point )
G00 Z5.00000 ( retract )

G00 X5.00807 Y24.32083 ( rapid move to begin. )
F50.00000
G01 Z-0.05000
G04 P0 ( dwell for no time -- G64 should not smooth over this point )
F100.00000
G01 X5.00807 Y24.32083
X5.07376 Y24.33332
X5.36205 Y24.33332
X5.58537 Y24.35832
X5.87376 Y24.35832
X5.97114 Y24.38268
X6.02085 Y24.46655
X6.02374 Y24.69581
X6.01231 Y24.75321
X5.97980 Y24.80188
X5.87376 Y24.83332
X5.07376 Y24.85832
X4.98539 Y24.87523
X4.93518 Y24.93843
X4.92377 Y24.99581
X4.93518 Y25.25321
X4.99042 Y25.32052
X5.07376 Y25.34579
X4.99042 Y25.37112
X4.93518 Y25.43843
X4.92664 Y25.72509
X4.96769 Y25.80187
X5.01636 Y25.83439
X5.07376 Y25.84579
X4.99042 Y25.87112
X4.93518 Y25.93843
X4.92664 Y26.22509
X4.96769 Y26.30187
X5.01636 Y26.33439
X5.07376 Y26.34579
X4.99042 Y26.37111
X4.93518 Y26.43842
X4.92377 Y26.69580
X4.93518 Y26.75321
X4.96769 Y26.80187
X5.01636 Y26.83438
X5.07376 Y26.84579
X4.99042 Y26.87114
X4.93518 Y26.93845
X4.92377 Y27.19583
X4.93518 Y27.25323
X4.96769 Y27.30190
X5.01636 Y27.33441
X5.07376 Y27.34581
X4.99042 Y27.37114
X4.93518 Y27.43845
X4.92664 Y27.72511
X4.96769 Y27.80190
X5.01636 Y27.83441
X5.07376 Y27.84581
X5.90302 Y27.84294
X5.97980 Y27.80190
X6.01231 Y27.75323
X6.02085 Y27.46657
X5.97980 Y27.38978
X5.93114 Y27.35727
X5.87376 Y27.34581
X5.07376 Y27.34581
G04 P0 ( dwell for no time -- G64 should not smooth over this point )
G00 Z5.00000 ( retract )

G00 X5.92367 Y23.82083 ( rapid move to begin. )
F50.00000
G01 Z-0.05000
G04 P0 ( dwell for no time -- G64 should not smooth over this point )
F100.00000
G01 X5.92367 Y23.82083
X18.06863 Y23.82083
X18.15110 Y23.71062
X18.25235 Y23.63708
X18.40073 Y23.58885
X18.49466 Y23.58555
X18.67427 Y23.63708
X18.77551 Y23.71062
X18.82735 Y23.76944
X18.87998 Y23.86556
X18.91330 Y24.03388
X18.87998 Y24.20223
X18.82735 Y24.29835
X18.77551 Y24.35717
X18.67427 Y24.43071
X18.49466 Y24.48222
X18.41625 Y24.48140
X18.30965 Y24.45621
X18.16530 Y24.37079
X5.92367 Y24.37079
G04 P0 ( dwell for no time -- G64 should not smooth over this point )
G00 Z5.00000 ( retract )

G00 X5.92367 Y23.37079 ( rapid move to begin. )
F50.00000
G01 Z-0.05000
G04 P0 ( dwell for no time -- G64 should not smooth over this point )
F100.00000
G01 X5.92367 Y23.37079
X15.84151 Y23.37079
X15.88004 Y23.48915
X15.98291 Y23.62662
X16.13033 Y23.71453
X16.25265 Y23.74054
X16.40790 Y23.72421
X16.52210 Y23.67335
X16.63815 Y23.56888
X16.70066 Y23.46055
X16.73398 Y23.29220
X16.72004 Y23.18352
X16.68793 Y23.09528
X16.58506 Y22.95781
X16.43764 Y22.86990
X16.33104 Y22.84471
X16.20968 Y22.84999
X16.08758 Y22.82083
X14.90069 Y22.82083
G04 P0 ( dwell for no time -- G64 should not smooth over this point )
G00 Z5.00000 ( retract )

G00 X5.07376 Y22.84580 ( rapid move to begin. )
F50.00000
G01 Z-0.05000
G04 P0 ( dwell for no time -- G64 should not smooth over this point )
F100.00000
G01 X5.07376 Y22.84580
X14.75741 Y22.84552
X14.91253 Y22.81280
X15.03592 Y22.81270
X15.18431 Y22.76447
X15.28555 Y22.69093
X15.33739 Y22.63211
X15.39002 Y22.53599
X15.42334 Y22.36764
X15.39002 Y22.19932
X15.32751 Y22.09099
X15.20407 Y21.98222
X15.00470 Y21.95078
X14.78809 Y21.97133
X14.63617 Y22.10628
X14.54758 Y22.22726
G04 P0 ( dwell for no time -- G64 should not smooth over this point )
G00 Z5.00000 ( retract )

G00 X5.00807 Y23.32083 ( rapid move to begin. )
F50.00000
G01 Z-0.05000
G04 P0 ( dwell for no time -- G64 should not smooth over this point )
F100.00000
G01 X5.00807 Y23.32083
X5.07376 Y23.33332
X5.36205 Y23.33332
X5.58537 Y23.35832
X5.87376 Y23.35832
X5.97114 Y23.38268
X6.02085 Y23.46655
X6.02085 Y23.72509
X5.97114 Y23.80899
X5.87376 Y23.83332
X5.58542 Y23.83332
X5.36210 Y23.85832
X4.80378 Y23.87079
X4.77826 Y24.02159
X4.77828 Y24.16812
X4.80531 Y24.32083
X5.00807 Y24.32083
X4.96769 Y24.30188
X4.92664 Y24.22509
X4.92664 Y23.96655
X4.94905 Y23.91250
X4.98539 Y23.87523
X5.07376 Y23.85832
G04 P0 ( dwell for no time -- G64 should not smooth over this point )
G00 Z5.00000 ( retract )

G00 X5.07376 Y22.34580 ( rapid move to begin. )
F50.00000
G01 Z-0.05000
G04 P0 ( dwell for no time -- G64 should not smooth over this point )
F100.00000
G01 X5.07376 Y22.34580
X14.29015 Y22.34582
X14.44400 Y22.32083
X14.54758 Y22.22726
X14.52746 Y22.32083
X14.44400 Y22.32083
G04 P0 ( dwell for no time -- G64 should not smooth over this point )
G00 Z5.00000 ( retract )

G00 X5.92377 Y21.82083 ( rapid move to begin. )
F50.00000
G01 Z-0.05000
G04 P0 ( dwell for no time -- G64 should not smooth over this point )
F100.00000
G01 X5.92377 Y21.82083
X14.17626 Y21.82083
X14.49510 Y21.50300
X14.62497 Y21.43760
X17.22873 Y21.43229
X17.32728 Y21.45060
X17.38765 Y21.48288
X21.84284 Y25.93238
X21.90248 Y26.02158
X21.92346 Y26.12684
X21.92346 Y35.18240
X27.13188 Y40.39085
X29.97973 Y40.39082
X30.04640 Y40.32153
X30.18161 Y40.24350
X30.28821 Y40.21831
X30.39784 Y40.22077
X30.54623 Y40.26900
X30.63634 Y40.33141
X30.70787 Y40.41455
X30.77132 Y40.55712
X30.78526 Y40.66580
X30.77132 Y40.77451
X30.70787 Y40.91708
X30.63634 Y41.00022
X30.48892 Y41.08813
X30.38232 Y41.11332
X30.30393 Y41.11414
X30.12431 Y41.06263
X30.03419 Y41.00022
X29.97973 Y40.94081
X27.01804 Y40.94078
X26.95721 Y40.93392
X26.86523 Y40.89445
X21.41983 Y35.44905
X21.38036 Y35.35708
X21.37350 Y35.29624
X21.37350 Y26.24076
X17.11496 Y21.98222
X15.20407 Y21.98222
G04 P0 ( dwell for no time -- G64 should not smooth over this point )
G00 Z5.00000 ( retract )

G00 X5.92367 Y21.37079 ( rapid move to begin. )
F50.00000
G01 Z-0.05000
G04 P0 ( dwell for no time -- G64 should not smooth over this point )
F100.00000
G01 X5.92367 Y21.37079
X17.33155 Y21.37079
X22.20431 Y26.24353
X22.20664 Y26.37767
X22.23255 Y26.46791
X22.28518 Y26.56403
X22.34815 Y26.63398
X22.49557 Y26.72189
X22.61789 Y26.74790
X22.69628 Y26.74708
X22.80288 Y26.72189
X22.95030 Y26.63398
X23.05317 Y26.49651
X23.08528 Y26.40827
X23.09922 Y26.29956
X23.06590 Y26.13124
X23.01327 Y26.03512
X22.96143 Y25.97630
X22.80288 Y25.87726
X22.69628 Y25.85207
X22.59222 Y25.85372
X17.59929 Y20.87079
G04 P0 ( dwell for no time -- G64 should not smooth over this point )
G00 Z5.00000 ( retract )

G00 X5.00807 Y21.32083 ( rapid move to begin. )
F50.00000
G01 Z-0.05000
G04 P0 ( dwell for no time -- G64 should not smooth over this point )
F100.00000
G01 X5.00807 Y21.32083
X5.07376 Y21.33333
X5.36205 Y21.33333
X5.58537 Y21.35832
X5.87376 Y21.35832
X5.97112 Y21.38266
X6.02085 Y21.46655
X6.02085 Y21.72510
X5.97114 Y21.80899
X5.87376 Y21.83333
X5.58542 Y21.83333
X5.36210 Y21.85832
X4.80378 Y21.87079
X4.77826 Y22.02159
X4.77828 Y22.16927
X4.80749 Y22.33851
X4.77826 Y22.52058
X4.77828 Y22.66927
X4.80749 Y22.83851
X4.77826 Y23.02057
X4.77828 Y23.16812
X4.80531 Y23.32083
X5.00807 Y23.32083
X4.96769 Y23.30188
X4.92664 Y23.22510
X4.92664 Y22.96655
X4.96769 Y22.88976
X5.01636 Y22.85725
X5.07376 Y22.84580
X4.99042 Y22.82052
X4.93518 Y22.75321
X4.92377 Y22.49581
X4.93518 Y22.43843
X4.96769 Y22.38977
X5.01636 Y22.35725
X5.07376 Y22.34580
X4.99042 Y22.32053
X4.93518 Y22.25322
X4.92377 Y21.99581
X4.93518 Y21.93843
X4.96769 Y21.88977
X5.07376 Y21.85832
G04 P0 ( dwell for no time -- G64 should not smooth over this point )
G00 Z5.00000 ( retract )

G00 X5.07376 Y20.34580 ( rapid move to begin. )
F50.00000
G01 Z-0.05000
G04 P0 ( dwell for no time -- G64 should not smooth over this point )
F100.00000
G01 X5.07376 Y20.34580
X18.21039 Y20.34583
X18.36421 Y20.37080
X25.14238 Y27.13896
X25.24644 Y27.13731
X25.35304 Y27.16250
X25.51159 Y27.26154
X25.60333 Y27.38788
X25.64197 Y27.50672
X25.64855 Y27.60055
X25.61606 Y27.75315
X25.56343 Y27.84927
X25.50046 Y27.91922
X25.41035 Y27.98163
X25.32330 Y28.01681
X25.23074 Y28.03314
X25.07547 Y28.01681
X24.98843 Y27.98163
X24.89831 Y27.91922
X24.83534 Y27.84927
X24.78271 Y27.75315
X24.75680 Y27.66291
X24.75447 Y27.52877
X18.09647 Y20.87079
X17.59929 Y20.87079
X17.46985 Y20.84705
X5.07376 Y20.84580
G04 P0 ( dwell for no time -- G64 should not smooth over this point )
G00 Z5.00000 ( retract )

G00 X5.07376 Y19.84580 ( rapid move to begin. )
F50.00000
G01 Z-0.05000
G04 P0 ( dwell for no time -- G64 should not smooth over this point )
F100.00000
G01 X5.07376 Y19.84580
X18.98034 Y19.85345
X19.04785 Y19.87080
X19.08844 Y19.90140
X23.52508 Y24.33802
X25.17755 Y24.33802
X25.05459 Y24.27968
X24.28888 Y23.51737
X24.22904 Y23.42794
X24.20814 Y23.32268
X24.20814 Y21.93800
X20.96052 Y18.69038
X15.26292 Y18.69038
X15.15766 Y18.66948
X15.09116 Y18.62848
X14.82939 Y18.37080
X5.92369 Y18.37080
G04 P0 ( dwell for no time -- G64 should not smooth over this point )
G00 Z5.00000 ( retract )

G00 X5.07376 Y19.34580 ( rapid move to begin. )
F50.00000
G01 Z-0.05000
G04 P0 ( dwell for no time -- G64 should not smooth over this point )
F100.00000
G01 X5.07376 Y19.34580
X19.49131 Y19.34583
X19.64670 Y19.37080
X19.97467 Y19.37080
X22.55991 Y21.95601
X22.56224 Y22.09015
X22.58815 Y22.18039
X22.64078 Y22.27651
X22.71596 Y22.35634
X22.79387 Y22.40887
X22.94225 Y22.45710
X23.05188 Y22.45956
X23.15848 Y22.43437
X23.29369 Y22.35634
X23.35899 Y22.28872
X23.40877 Y22.20899
X23.44741 Y22.09015
X23.45399 Y21.99632
X23.42150 Y21.84372
X23.36887 Y21.74760
X23.30590 Y21.67765
X23.21579 Y21.61524
X23.12874 Y21.58006
X22.94782 Y21.56620
X20.28300 Y18.90141
X20.20055 Y18.84479
X20.13497 Y18.82488
X5.92359 Y18.82091
G04 P0 ( dwell for no time -- G64 should not smooth over this point )
G00 Z5.00000 ( retract )

G00 X5.00807 Y18.32084 ( rapid move to begin. )
F50.00000
G01 Z-0.05000
G04 P0 ( dwell for no time -- G64 should not smooth over this point )
F100.00000
G01 X5.00807 Y18.32084
X5.07376 Y18.33333
X5.36205 Y18.33333
X5.58537 Y18.35833
X5.87376 Y18.35833
X5.97114 Y18.38269
X6.02085 Y18.46656
X6.02374 Y18.69582
X6.01231 Y18.75322
X5.97980 Y18.80189
X5.87376 Y18.83336
X5.07376 Y18.85833
X4.98539 Y18.87524
X4.93518 Y18.93844
X4.92377 Y18.99582
X4.93518 Y19.25322
X4.99042 Y19.32053
X5.07376 Y19.34580
X4.99042 Y19.37113
X4.93518 Y19.43844
X4.92664 Y19.72510
X4.96769 Y19.80189
X5.01636 Y19.83440
X5.07376 Y19.84580
X4.99042 Y19.87113
X4.93518 Y19.93844
X4.92664 Y20.22510
X4.96769 Y20.30189
X5.01636 Y20.33440
X5.07376 Y20.34580
X4.99042 Y20.37113
X4.93518 Y20.43844
X4.92377 Y20.69581
X4.93518 Y20.75322
X4.96769 Y20.80188
X5.01636 Y20.83440
X5.07376 Y20.84580
X5.01636 Y20.85726
X4.96769 Y20.88977
X4.92664 Y20.96655
X4.92664 Y21.22510
X4.96769 Y21.30188
X5.00807 Y21.32083
X4.80531 Y21.32083
X4.77828 Y21.16813
X4.77826 Y21.02058
X4.80749 Y20.83851
X4.77828 Y20.66927
X4.77826 Y20.52058
X4.80749 Y20.33851
X4.77828 Y20.16927
X4.77826 Y20.02058
X4.80749 Y19.83851
X4.77828 Y19.66927
X4.77826 Y19.52058
X4.80749 Y19.33851
X4.77828 Y19.16927
X4.77826 Y19.02160
X4.80378 Y18.87080
X5.07376 Y18.85833
G04 P0 ( dwell for no time -- G64 should not smooth over this point )
G00 Z5.00000 ( retract )

G00 X5.92367 Y17.82084 ( rapid move to begin. )
F50.00000
G01 Z-0.05000
G04 P0 ( dwell for no time -- G64 should not smooth over this point )
F100.00000
G01 X5.92367 Y17.82084
X14.94331 Y17.82084
X15.04857 Y17.84182
X15.11501 Y17.88279
X15.37679 Y18.14047
X21.14236 Y18.14931
X21.26890 Y18.22104
X24.70748 Y21.66533
X24.73976 Y21.72568
X24.75810 Y21.82408
X24.75810 Y23.20884
X25.34372 Y23.79446
X29.22276 Y23.79446
X29.32802 Y23.81544
X29.41717 Y23.87503
X29.64915 Y24.11110
X29.69012 Y24.17754
X29.70820 Y24.25352
X29.71110 Y26.79740
X29.68113 Y26.92143
X29.61092 Y27.00921
X29.10150 Y27.31886
X29.10150 Y39.33606
X29.18067 Y39.41379
X29.23045 Y39.49352
X29.26256 Y39.58176
X29.27650 Y39.69044
X29.26256 Y39.79915
X29.19911 Y39.94172
X29.12758 Y40.02486
X29.03747 Y40.08727
X28.88908 Y40.13550
X28.79517 Y40.13878
X28.70259 Y40.12245
X28.58839 Y40.07159
X28.52543 Y40.02486
X28.45390 Y39.94172
X28.40983 Y39.85879
X28.37734 Y39.70619
X28.38392 Y39.61236
X28.42256 Y39.49352
X28.47234 Y39.41379
X28.55154 Y39.33606
X28.55154 Y33.82050
X27.54702 Y34.88253
X27.54702 Y38.94490
X27.63607 Y39.03484
X27.68870 Y39.13096
X27.72119 Y39.28356
X27.70808 Y39.40799
X27.63607 Y39.56375
X27.51014 Y39.68043
X27.39594 Y39.73129
X27.22497 Y39.74680
X27.06107 Y39.69611
X26.95982 Y39.62257
X26.86808 Y39.49623
X26.82286 Y39.31503
X26.82944 Y39.22120
X26.86808 Y39.10236
X26.91786 Y39.02263
X26.99708 Y38.94488
X27.00526 Y34.70757
X27.07229 Y34.58403
X28.07402 Y33.52558
X28.08075 Y26.01409
X28.02619 Y26.08945
X27.95210 Y26.14731
X27.83790 Y26.19817
X27.74534 Y26.21450
X27.65141 Y26.21122
X27.50303 Y26.16299
X27.41291 Y26.10058
X27.35845 Y26.04114
X25.65822 Y26.03804
X25.54527 Y25.99535
X25.45068 Y25.90701
X25.26851 Y25.89337
X25.10356 Y25.80566
X25.02838 Y25.72583
X24.98848 Y25.65831
X24.94326 Y25.47711
X24.97575 Y25.29304
X25.02838 Y25.19692
X25.09135 Y25.12697
X25.23877 Y25.03906
X25.34537 Y25.01387
X25.42378 Y25.01303
X25.60339 Y25.06456
X25.69350 Y25.12697
X25.74659 Y25.18471
X25.82848 Y25.35268
X25.84009 Y25.49118
X27.35845 Y25.49118
X27.41291 Y25.43177
X27.50303 Y25.36936
X27.65141 Y25.32113
X27.74534 Y25.31783
X27.92495 Y25.36936
X28.01506 Y25.43177
X28.07402 Y25.49756
X28.07402 Y25.30922
X27.92919 Y24.88798
X23.41124 Y24.88798
X23.30598 Y24.86708
X23.21678 Y24.80746
X18.78011 Y20.37080
X18.36421 Y20.37080
G04 P0 ( dwell for no time -- G64 should not smooth over this point )
G00 Z5.00000 ( retract )

G00 X5.00807 Y17.32084 ( rapid move to begin. )
F50.00000
G01 Z-0.05000
G04 P0 ( dwell for no time -- G64 should not smooth over this point )
F100.00000
G01 X5.00807 Y17.32084
X5.07376 Y17.33334
X5.36205 Y17.33334
X5.58537 Y17.35833
X5.87376 Y17.35833
X5.97114 Y17.38269
X6.02085 Y17.46656
X6.02085 Y17.72511
X5.97114 Y17.80900
X5.87376 Y17.83334
X5.58542 Y17.83334
X5.36210 Y17.85833
X4.80378 Y17.87080
X4.77826 Y18.02160
X4.77828 Y18.16813
X4.80531 Y18.32084
X5.00807 Y18.32084
X4.96769 Y18.30189
X4.92664 Y18.22511
X4.92664 Y17.96656
X4.94905 Y17.91251
X4.98539 Y17.87525
X5.07376 Y17.85833
G04 P0 ( dwell for no time -- G64 should not smooth over this point )
G00 Z5.00000 ( retract )

G00 X5.07376 Y16.84581 ( rapid move to begin. )
F50.00000
G01 Z-0.05000
G04 P0 ( dwell for no time -- G64 should not smooth over this point )
F100.00000
G01 X5.07376 Y16.84581
X15.69007 Y16.84705
X15.82497 Y16.87220
X15.93632 Y16.97916
X16.11834 Y16.99282
X16.28329 Y17.08053
X16.35847 Y17.16036
X16.39837 Y17.22788
X16.43048 Y17.31612
X16.44442 Y17.42480
X16.43048 Y17.53351
X16.39837 Y17.62175
X16.29550 Y17.75922
X16.14808 Y17.84713
X16.04148 Y17.87232
X15.96309 Y17.87314
X15.78347 Y17.82163
X15.69335 Y17.75922
X15.64026 Y17.70148
X15.55837 Y17.53351
X15.54930 Y17.37080
X5.92367 Y17.37080
G04 P0 ( dwell for no time -- G64 should not smooth over this point )
G00 Z5.00000 ( retract )

G00 X5.92377 Y16.32084 ( rapid move to begin. )
F50.00000
G01 Z-0.05000
G04 P0 ( dwell for no time -- G64 should not smooth over this point )
F100.00000
G01 X5.92377 Y16.32084
X16.89771 Y16.32084
X16.99611 Y16.33918
X17.09352 Y16.40532
X17.19972 Y16.40327
X17.30632 Y16.42846
X17.44153 Y16.50649
X17.51671 Y16.58632
X17.55661 Y16.65384
X17.58872 Y16.74208
X17.60266 Y16.85076
X17.56934 Y17.01911
X17.51671 Y17.11523
X17.46487 Y17.17405
X17.36363 Y17.24759
X17.18402 Y17.29910
X17.10561 Y17.29828
X16.99901 Y17.27309
X16.85159 Y17.18518
X16.74872 Y17.04771
X16.70396 Y16.87080
X15.82078 Y16.87080
G04 P0 ( dwell for no time -- G64 should not smooth over this point )
G00 Z5.00000 ( retract )

G00 X5.00807 Y15.82084 ( rapid move to begin. )
F50.00000
G01 Z-0.05000
G04 P0 ( dwell for no time -- G64 should not smooth over this point )
F100.00000
G01 X5.00807 Y15.82084
X4.96769 Y15.80189
X4.92664 Y15.72511
X4.92664 Y15.46656
X4.96769 Y15.38978
X5.01636 Y15.35727
X5.07376 Y15.34581
X4.99042 Y15.32054
X4.93518 Y15.25323
X4.92377 Y14.99583
X4.94905 Y14.91251
X5.00861 Y14.87081
X4.80378 Y14.87081
X4.77826 Y15.02161
X4.77828 Y15.16928
X4.80749 Y15.33850
X4.77826 Y15.52059
X4.77828 Y15.66814
X4.80531 Y15.82084
X5.36205 Y15.83334
X5.58537 Y15.85833
X5.87376 Y15.85833
X5.97114 Y15.88269
X6.02085 Y15.96656
X6.02085 Y16.22511
X5.97114 Y16.30901
X5.87376 Y16.33334
X5.58542 Y16.33334
X5.36210 Y16.35833
X4.80378 Y16.37080
X4.77826 Y16.52160
X4.77828 Y16.66928
X4.80749 Y16.83849
X4.77826 Y17.02059
X4.77828 Y17.16814
X4.80531 Y17.32084
X5.00807 Y17.32084
X4.96769 Y17.30189
X4.92664 Y17.22511
X4.92664 Y16.96656
X4.96769 Y16.88978
X5.01636 Y16.85726
X5.07376 Y16.84581
X4.99042 Y16.82054
X4.93518 Y16.75323
X4.92377 Y16.49582
X4.93518 Y16.43844
X4.96769 Y16.38978
X5.07376 Y16.35833
G04 P0 ( dwell for no time -- G64 should not smooth over this point )
G00 Z5.00000 ( retract )

G00 X5.07376 Y15.34581 ( rapid move to begin. )
F50.00000
G01 Z-0.05000
G04 P0 ( dwell for no time -- G64 should not smooth over this point )
F100.00000
G01 X5.07376 Y15.34581
X18.01531 Y15.34706
X18.16238 Y15.38279
X18.41648 Y15.63276
X18.59738 Y15.64662
X18.76233 Y15.73433
X18.83751 Y15.81416
X18.87741 Y15.88168
X18.90952 Y15.96992
X18.92346 Y16.07860
X18.90952 Y16.18731
X18.87741 Y16.27555
X18.77454 Y16.41302
X18.62712 Y16.50093
X18.52052 Y16.52612
X18.44213 Y16.52694
X18.26251 Y16.47543
X18.17239 Y16.41302
X18.11930 Y16.35528
X18.03741 Y16.18731
X18.02855 Y16.02260
X17.87676 Y15.87080
X5.92367 Y15.87080
G04 P0 ( dwell for no time -- G64 should not smooth over this point )
G00 Z5.00000 ( retract )

G00 X5.92377 Y14.82085 ( rapid move to begin. )
F50.00000
G01 Z-0.05000
G04 P0 ( dwell for no time -- G64 should not smooth over this point )
F100.00000
G01 X5.92377 Y14.82085
X19.05461 Y14.82085
X19.17007 Y14.71704
X19.25453 Y14.67586
X19.36113 Y14.65067
X19.43954 Y14.64983
X19.56184 Y14.67586
X19.70926 Y14.76377
X19.78079 Y14.84691
X19.84424 Y14.98948
X19.85818 Y15.09816
X19.85077 Y15.17627
X19.78079 Y15.34944
X19.69705 Y15.44246
X19.53210 Y15.53017
X19.37685 Y15.54650
X19.25453 Y15.52049
X19.11932 Y15.44246
X19.05107 Y15.37081
X18.14450 Y15.37081
G04 P0 ( dwell for no time -- G64 should not smooth over this point )
G00 Z5.00000 ( retract )

G00 X5.00807 Y14.32085 ( rapid move to begin. )
F50.00000
G01 Z-0.05000
G04 P0 ( dwell for no time -- G64 should not smooth over this point )
F100.00000
G01 X5.00807 Y14.32085
X4.80531 Y14.32085
X4.77828 Y14.16812
X4.77826 Y14.02057
X4.80749 Y13.83850
X4.77828 Y13.66926
X4.77826 Y13.52158
X4.80381 Y13.37071
X5.00937 Y13.37045
X4.96769 Y13.38976
X4.92664 Y13.46654
X4.92664 Y13.72509
X4.96769 Y13.80187
X5.01636 Y13.83439
X5.07376 Y13.84579
X5.01636 Y13.85727
X4.96769 Y13.88978
X4.92664 Y13.96657
X4.92664 Y14.22511
X4.96769 Y14.30190
X5.07376 Y14.33334
X5.36205 Y14.33334
X5.58537 Y14.35834
X5.87376 Y14.35829
X5.92352 Y14.37073
X5.87376 Y14.35829
G04 P0 ( dwell for no time -- G64 should not smooth over this point )
G00 Z5.00000 ( retract )

G00 X5.07376 Y13.84579 ( rapid move to begin. )
F50.00000
G01 Z-0.05000
G04 P0 ( dwell for no time -- G64 should not smooth over this point )
F100.00000
G01 X5.07376 Y13.84579
X17.30368 Y13.83822
X17.37119 Y13.82087
X17.41181 Y13.79027
X20.69049 Y10.51158
X56.68308 Y10.51158
X62.67898 Y16.50748
X62.67898 Y38.05257
X60.30006 Y40.43146
X53.74095 Y40.43146
X53.64232 Y40.34609
X53.52205 Y40.32018
X53.37221 Y40.31231
X53.16457 Y40.34624
X52.68215 Y40.34640
X52.62766 Y40.40586
X52.53755 Y40.46827
X52.38916 Y40.51650
X52.29525 Y40.51978
X52.17293 Y40.49377
X52.02551 Y40.40586
X51.95398 Y40.32272
X51.89053 Y40.18015
X51.87661 Y40.07144
X51.88400 Y39.99336
X51.90991 Y39.90312
X51.96254 Y39.80700
X52.02551 Y39.73705
X52.11563 Y39.67464
X52.29525 Y39.62311
X52.38916 Y39.62641
X52.53755 Y39.67464
X52.62766 Y39.73705
X52.68212 Y39.79646
X59.89874 Y39.79646
X61.91698 Y37.77825
X61.91698 Y17.04088
X56.22080 Y11.34470
X21.07657 Y11.34470
X18.13098 Y14.29029
X18.04849 Y14.34693
X17.98295 Y14.36679
X5.92352 Y14.37071
X5.97980 Y14.38978
X6.02085 Y14.46657
X6.02085 Y14.72511
X5.97114 Y14.80901
X5.87376 Y14.83334
X5.58542 Y14.83334
X5.36210 Y14.85834
X5.07376 Y14.85834
X5.00861 Y14.87081
X5.07376 Y14.85834
G04 P0 ( dwell for no time -- G64 should not smooth over this point )
G00 Z5.00000 ( retract )

G00 X5.00937 Y13.37045 ( rapid move to begin. )
F50.00000
G01 Z-0.05000
G04 P0 ( dwell for no time -- G64 should not smooth over this point )
F100.00000
G01 X5.00937 Y13.37045
X5.47376 Y13.34536
X6.70479 Y13.34185
X6.81468 Y13.30891
X7.01488 Y13.11280
X16.97081 Y13.10393
X17.09842 Y13.03169
X20.21569 Y9.91440
X20.39382 Y9.79540
X20.60388 Y9.75360
X56.76967 Y9.75360
X56.97968 Y9.79538
X57.15778 Y9.91438
X63.27616 Y16.03273
X63.39516 Y16.21086
X63.43696 Y16.42092
X63.43696 Y38.13916
X63.39518 Y38.34920
X63.27618 Y38.52730
X61.05782 Y40.75016
X61.00481 Y40.89118
X61.00771 Y40.96989
X61.04906 Y41.06974
X61.16003 Y41.16545
X61.27939 Y41.19280
X75.94055 Y41.19036
X76.02846 Y41.16877
X76.08891 Y41.13034
X76.15779 Y41.04779
X76.18020 Y40.99372
X76.19274 Y40.91581
X76.19028 Y2.31104
X76.16869 Y2.22313
X76.13026 Y2.16268
X76.04771 Y2.09379
X75.99366 Y2.07139
X75.91578 Y2.05882
X2.33579 Y2.05882
X2.23660 Y2.07728
X2.12126 Y2.16268
X2.07986 Y2.22984
X2.05880 Y2.33581
X2.05880 Y40.91581
X2.09790 Y41.05711
X2.14524 Y41.11678
X2.20381 Y41.15788
X2.33579 Y41.19280
X26.21799 Y41.19036
X26.34085 Y41.15010
X26.40770 Y41.08899
X26.44910 Y41.02186
X26.46945 Y40.90098
X26.44613 Y40.80314
X26.38906 Y40.71998
X25.03636 Y39.36730
X24.96955 Y39.31813
X24.87047 Y39.28818
X24.76874 Y39.29562
X24.71019 Y39.31970
X24.55769 Y39.45506
X24.16950 Y39.60251
X23.61477 Y40.14973
X23.43646 Y40.26888
X23.22658 Y40.31063
X18.14501 Y40.31063
X17.93513 Y40.26890
X17.75702 Y40.14990
X16.03792 Y38.43083
X15.91892 Y38.25270
X15.87717 Y38.04277
X15.87717 Y34.00577
X15.85870 Y33.90663
X15.82621 Y33.84590
X7.61010 Y25.62979
X7.54937 Y25.59730
X7.45023 Y25.57884
X6.41783 Y25.57884
X6.28958 Y25.61183
X6.19138 Y25.69641
X6.15897 Y25.75745
X6.14084 Y25.85560
X6.16921 Y26.02245
X6.16919 Y26.17101
X6.13995 Y26.35321
X6.16921 Y26.52250
X6.16919 Y26.67101
X6.13995 Y26.85321
X6.16921 Y27.02252
X6.16919 Y27.17104
X6.13995 Y27.35321
X6.16921 Y27.52252
X6.16919 Y27.66997
X6.13944 Y27.82813
X6.07063 Y27.94429
X6.05174 Y28.04876
X6.11920 Y28.34866
X6.11917 Y28.64500
X6.08971 Y28.80177
X6.01028 Y28.92519
X5.89067 Y29.00690
X5.72103 Y29.04126
X5.22443 Y29.04126
X5.06779 Y29.01183
X4.94437 Y28.93240
X4.86266 Y28.81279
X4.82829 Y28.64309
X4.82827 Y28.34660
X4.89720 Y28.04345
X4.87551 Y27.93969
X4.81295 Y27.83934
X4.77828 Y27.66811
X4.77826 Y27.52059
X4.80749 Y27.33850
X4.77828 Y27.16928
X4.77826 Y27.02059
X4.80749 Y26.83850
X4.77828 Y26.66926
X4.77826 Y26.52057
X4.80749 Y26.33850
X4.77828 Y26.16926
X4.77826 Y26.02057
X4.80749 Y25.83850
X4.77828 Y25.66926
X4.77826 Y25.52057
X4.80749 Y25.33850
X4.77828 Y25.16926
X4.77826 Y25.02159
X4.80378 Y24.87079
X5.07376 Y24.85832
G04 P0 ( dwell for no time -- G64 should not smooth over this point )
G00 Z5.00000 ( retract )

G00 X4.82827 Y12.04658 ( rapid move to begin. )
F50.00000
G01 Z-0.05000
G04 P0 ( dwell for no time -- G64 should not smooth over this point )
F100.00000
G01 X4.82827 Y12.04658
X4.82829 Y12.34313
X4.88786 Y12.64125
X4.83391 Y12.82082
X6.11280 Y12.82082
X6.05999 Y12.66060
X6.06088 Y12.58989
X6.11917 Y12.34501
X6.11920 Y12.04866
X6.08478 Y11.87889
X6.00307 Y11.75928
X5.87965 Y11.67986
X5.72286 Y11.65037
X5.22659 Y11.65037
X5.05677 Y11.68478
X4.93716 Y11.76650
X4.85773 Y11.88991
X4.82827 Y12.04658
G04 P0 ( dwell for no time -- G64 should not smooth over this point )
G00 Z5.00000 ( retract )

G00 X6.79679 Y13.32085 ( rapid move to begin. )
F50.00000
G01 Z-0.05000
G04 P0 ( dwell for no time -- G64 should not smooth over this point )
F100.00000
G01 X6.79679 Y13.32085
X17.10350 Y13.32082
X20.38214 Y10.04219
X20.47132 Y9.98258
X20.57660 Y9.96162
X56.79700 Y9.96162
X56.92816 Y9.99647
X56.99141 Y10.04219
X63.14837 Y16.19915
X63.20499 Y16.28160
X63.22490 Y16.34718
X63.22604 Y38.19573
X63.20798 Y38.27173
X63.14837 Y38.36090
X60.60837 Y40.90090
X60.52587 Y40.95755
X60.46034 Y40.97741
X53.77399 Y40.98140
X53.70462 Y41.06118
X53.61451 Y41.12359
X53.46612 Y41.17182
X53.35649 Y41.17428
X53.19259 Y41.12359
X53.10247 Y41.06118
X53.03094 Y40.97804
X52.96749 Y40.83547
X52.95438 Y40.71104
X52.98687 Y40.55844
X53.04938 Y40.45011
X53.16457 Y40.34624
G04 P0 ( dwell for no time -- G64 should not smooth over this point )
G00 Z5.00000 ( retract )

G00 X6.76487 Y5.45853 ( rapid move to begin. )
F50.00000
G01 Z-0.05000
G04 P0 ( dwell for no time -- G64 should not smooth over this point )
F100.00000
G01 X6.76487 Y5.45853
X6.74015 Y5.61246
X6.78651 Y5.74459
X7.07627 Y6.03783
X7.22115 Y6.09343
X7.34495 Y6.08040
X7.44114 Y6.02866
X7.51188 Y5.94520
X7.54541 Y5.85777
X7.55034 Y5.76425
X7.52608 Y5.67370
X7.47500 Y5.59501
X7.37726 Y5.49615
G04 P0 ( dwell for no time -- G64 should not smooth over this point )
G00 Z5.00000 ( retract )

G00 X7.88102 Y4.22404 ( rapid move to begin. )
F50.00000
G01 Z-0.05000
G04 P0 ( dwell for no time -- G64 should not smooth over this point )
F100.00000
G01 X7.88102 Y4.22404
X7.88183 Y5.23971
X7.90690 Y5.34604
X7.96911 Y5.43585
X8.04500 Y5.49097
X8.14957 Y5.52239
X8.28935 Y5.50326
X8.37103 Y5.52224
X8.60842 Y5.52401
X8.73316 Y5.49714
X8.88653 Y5.42094
X8.96448 Y5.36476
X9.09212 Y5.14393
X9.12199 Y5.03323
X9.12298 Y4.20824
X9.09788 Y4.10210
X9.03568 Y4.01228
X8.93113 Y3.94441
X8.79242 Y3.92574
X8.66072 Y3.97278
X8.55689 Y4.08810
X8.52387 Y4.22404
X8.52387 Y4.92407
X8.48097 Y4.92407
X8.47683 Y4.17708
X8.45503 Y4.10210
X8.39283 Y4.01228
X8.31693 Y3.95716
X8.22788 Y3.92821
X8.14957 Y3.92574
X8.07365 Y3.94441
X7.99250 Y3.99120
X7.92971 Y4.06095
X7.89161 Y4.14660
X7.88102 Y4.22404
G04 P0 ( dwell for no time -- G64 should not smooth over this point )
G00 Z5.00000 ( retract )

G00 X10.38101 Y4.22404 ( rapid move to begin. )
F50.00000
G01 Z-0.05000
G04 P0 ( dwell for no time -- G64 should not smooth over this point )
F100.00000
G01 X10.38101 Y4.22404
X10.38101 Y5.72404
X10.39887 Y5.82503
X10.44030 Y5.90250
X10.52691 Y5.98104
X10.63707 Y6.02043
X11.27591 Y6.02223
X11.38792 Y5.99165
X11.57123 Y5.89556
X11.70953 Y5.75729
X11.80570 Y5.57392
X11.83443 Y5.48513
X11.83808 Y5.22518
X11.81578 Y5.11266
X11.69440 Y4.88744
X11.53775 Y4.74771
X11.81962 Y4.32653
X11.83694 Y4.20314
X11.78642 Y4.05653
X11.72251 Y3.98797
X11.61063 Y3.93341
X11.51716 Y3.92524
X11.39744 Y3.95958
X11.29237 Y4.05203
X10.98096 Y4.49694
X10.97032 Y4.14660
X10.91380 Y4.03560
X10.81693 Y3.95716
X10.66529 Y3.92491
X10.51787 Y3.97278
X10.41403 Y4.08810
X10.38101 Y4.22404
G04 P0 ( dwell for no time -- G64 should not smooth over this point )
G00 Z5.00000 ( retract )

G00 X10.98096 Y5.23831 ( rapid move to begin. )
F50.00000
G01 Z-0.05000
G04 P0 ( dwell for no time -- G64 should not smooth over this point )
F100.00000
G01 X10.98096 Y5.23831
X10.98096 Y5.42406
X11.18160 Y5.42406
X11.22020 Y5.40346
X11.23814 Y5.36755
X11.23816 Y5.29488
X11.21756 Y5.25632
X11.18157 Y5.23834
X10.98096 Y5.23831
G04 P0 ( dwell for no time -- G64 should not smooth over this point )
G00 Z5.00000 ( retract )

G00 X12.40951 Y4.58056 ( rapid move to begin. )
F50.00000
G01 Z-0.05000
G04 P0 ( dwell for no time -- G64 should not smooth over this point )
F100.00000
G01 X12.40951 Y4.58056
X12.40953 Y4.86760
X12.42749 Y4.90352
X12.46602 Y4.92409
X12.53877 Y4.92407
X12.57727 Y4.90352
X12.59531 Y4.86750
X12.59531 Y4.58066
X12.57727 Y4.54461
X12.53872 Y4.52402
X12.46607 Y4.52402
X12.43008 Y4.54202
X12.40951 Y4.58056
G04 P0 ( dwell for no time -- G64 should not smooth over this point )
G00 Z5.00000 ( retract )

G00 X13.18093 Y4.44197 ( rapid move to begin. )
F50.00000
G01 Z-0.05000
G04 P0 ( dwell for no time -- G64 should not smooth over this point )
F100.00000
G01 X13.18093 Y4.44197
X13.19909 Y4.37426
X13.30874 Y4.17482
X13.45479 Y4.03966
X13.66180 Y3.93809
X13.75241 Y3.92407
X14.21235 Y3.92574
X14.31692 Y3.95716
X14.41380 Y4.03560
X14.46063 Y4.11678
X14.48095 Y4.22404
X14.48095 Y5.72404
X14.47031 Y5.80153
X14.43221 Y5.88718
X14.36942 Y5.95693
X14.25853 Y6.01340
X14.14956 Y6.02239
X14.04499 Y5.99097
X13.96909 Y5.93585
X13.90128 Y5.83135
X13.88182 Y5.73971
X13.88101 Y5.52315
X13.70577 Y5.52038
X13.61824 Y5.49236
X13.41581 Y5.38038
X13.29411 Y5.25571
X13.18093 Y5.02965
X13.18060 Y4.42308
X13.06668 Y4.19087
X12.92840 Y4.05259
X12.74509 Y3.95648
X12.65614 Y3.92775
X12.34829 Y3.92821
X12.26732 Y3.95282
X12.09765 Y4.03966
X11.93737 Y4.19183
X11.81845 Y4.44116
X11.81319 Y4.98482
X11.84194 Y5.07393
X11.93806 Y5.25724
X12.07636 Y5.39554
X12.25972 Y5.49165
X12.34911 Y5.52046
X12.63262 Y5.52224
X12.72223 Y5.50110
X12.90712 Y5.40847
X13.05314 Y5.27334
X13.18093 Y5.02401
G04 P0 ( dwell for no time -- G64 should not smooth over this point )
G00 Z5.00000 ( retract )

G00 X13.76666 Y4.58056 ( rapid move to begin. )
F50.00000
G01 Z-0.05000
G04 P0 ( dwell for no time -- G64 should not smooth over this point )
F100.00000
G01 X13.76666 Y4.58056
X13.76668 Y4.86760
X13.78464 Y4.90352
X13.82314 Y4.92407
X13.88101 Y4.92407
X13.88101 Y4.52402
X13.82320 Y4.52402
X13.78723 Y4.54202
X13.76666 Y4.58056
G04 P0 ( dwell for no time -- G64 should not smooth over this point )
G00 Z5.00000 ( retract )

G00 X15.46851 Y5.48596 ( rapid move to begin. )
F50.00000
G01 Z-0.05000
G04 P0 ( dwell for no time -- G64 should not smooth over this point )
F100.00000
G01 X15.46851 Y5.48596
X15.45609 Y5.62813
X15.50079 Y5.74459
X15.80330 Y6.04708
X15.91976 Y6.09178
X16.02896 Y6.08850
X16.15542 Y6.02866
X16.22616 Y5.94520
X16.25969 Y5.85777
X16.26297 Y5.74857
X16.22614 Y5.64576
X16.17879 Y5.58337
X16.03335 Y5.43796
X15.57417 Y5.35927
X15.56901 Y5.15589
X15.52385 Y5.00164
X15.40130 Y4.93471
X15.25172 Y4.92409
X15.21321 Y4.90352
X15.19525 Y4.86760
X15.19441 Y4.20824
X15.16932 Y4.10210
X15.12810 Y4.03560
X15.03122 Y3.95716
X14.92665 Y3.92574
X14.81768 Y3.93474
X14.73216 Y3.97278
X14.64400 Y4.06095
X14.59612 Y4.20837
X14.59530 Y5.22404
X14.60590 Y5.30153
X14.64400 Y5.38718
X14.73216 Y5.47535
X14.84834 Y5.51992
X14.94217 Y5.51992
X15.03716 Y5.48754
X15.13399 Y5.52033
X15.32223 Y5.52401
X15.46851 Y5.48596
X15.57389 Y5.35254
G04 P0 ( dwell for no time -- G64 should not smooth over this point )
G00 Z5.00000 ( retract )

G00 X15.56449 Y5.37116 ( rapid move to begin. )
F50.00000
G01 Z-0.05000
G04 P0 ( dwell for no time -- G64 should not smooth over this point )
F100.00000
G01 X15.56449 Y5.37116
X15.57417 Y5.35927
G04 P0 ( dwell for no time -- G64 should not smooth over this point )
G00 Z5.00000 ( retract )

G00 X15.57371 Y5.28881 ( rapid move to begin. )
F50.00000
G01 Z-0.05000
G04 P0 ( dwell for no time -- G64 should not smooth over this point )
F100.00000
G01 X15.57371 Y5.28881
X15.57394 Y5.29331
G04 P0 ( dwell for no time -- G64 should not smooth over this point )
G00 Z5.00000 ( retract )

G00 X15.52385 Y5.00164 ( rapid move to begin. )
F50.00000
G01 Z-0.05000
G04 P0 ( dwell for no time -- G64 should not smooth over this point )
F100.00000
G01 X15.52385 Y5.00164
X15.52388 Y4.22404
X15.54976 Y4.10210
X15.62312 Y4.00113
X15.71651 Y3.94441
X15.80815 Y3.92491
X15.93114 Y3.94441
X16.05667 Y4.03560
X16.09789 Y4.10210
X16.12299 Y4.20824
X16.12299 Y5.23984
X16.09789 Y5.34604
X16.03335 Y5.43796
G04 P0 ( dwell for no time -- G64 should not smooth over this point )
G00 Z5.00000 ( retract )

G00 X16.16673 Y4.50977 ( rapid move to begin. )
F50.00000
G01 Z-0.05000
G04 P0 ( dwell for no time -- G64 should not smooth over this point )
F100.00000
G01 X16.16673 Y4.50977
X16.16673 Y4.93834
X16.17925 Y5.02409
X16.29451 Y5.25630
X16.45479 Y5.40847
X16.64100 Y5.50176
X16.72941 Y5.52226
X17.19665 Y5.52320
X17.34404 Y5.47535
X17.43221 Y5.38718
X17.47031 Y5.30153
X17.48092 Y5.22384
X17.47732 Y3.96351
X17.44925 Y3.87565
X17.36535 Y3.71218
X17.21260 Y3.55150
X16.98656 Y3.43832
X16.68098 Y3.42407
X16.56955 Y3.44639
X16.33932 Y3.57139
X16.25390 Y3.70078
X16.24145 Y3.84020
X16.29446 Y3.96976
X16.41491 Y4.06852
X16.28232 Y4.21205
X16.18093 Y4.41853
X16.16673 Y4.50977
G04 P0 ( dwell for no time -- G64 should not smooth over this point )
G00 Z5.00000 ( retract )

G00 X16.76665 Y4.58056 ( rapid move to begin. )
F50.00000
G01 Z-0.05000
G04 P0 ( dwell for no time -- G64 should not smooth over this point )
F100.00000
G01 X16.76665 Y4.58056
X16.76667 Y4.86760
X16.78463 Y4.90352
X16.82316 Y4.92409
X16.88100 Y4.92407
X16.88100 Y4.52402
X16.82322 Y4.52402
X16.78722 Y4.54202
X16.76665 Y4.58056
G04 P0 ( dwell for no time -- G64 should not smooth over this point )
G00 Z5.00000 ( retract )

G00 X17.59530 Y5.22373 ( rapid move to begin. )
F50.00000
G01 Z-0.05000
G04 P0 ( dwell for no time -- G64 should not smooth over this point )
F100.00000
G01 X17.59530 Y5.22373
X17.60589 Y5.30153
X17.64399 Y5.38718
X17.70678 Y5.45693
X17.78793 Y5.50372
X17.86385 Y5.52239
X17.94216 Y5.51992
X18.03121 Y5.49097
X18.10711 Y5.43585
X18.16931 Y5.34604
X18.19111 Y5.27103
X18.19525 Y4.52402
X18.23815 Y4.52402
X18.23815 Y5.22404
X18.27117 Y5.36003
X18.37500 Y5.47535
X18.50670 Y5.52239
X18.64541 Y5.50372
X18.74996 Y5.43585
X18.81216 Y5.34604
X18.83726 Y5.23984
X18.83810 Y4.22404
X18.81216 Y4.10210
X18.73881 Y4.00113
X18.67406 Y3.95716
X18.56949 Y3.92574
X18.42971 Y3.94487
X18.34803 Y3.92590
X18.08643 Y3.92587
X17.97538 Y3.95577
X17.75456 Y4.08340
X17.69837 Y4.16135
X17.59888 Y4.39204
X17.59530 Y5.22373
G04 P0 ( dwell for no time -- G64 should not smooth over this point )
G00 Z5.00000 ( retract )

G00 X20.09936 Y4.17964 ( rapid move to begin. )
F50.00000
G01 Z-0.05000
G04 P0 ( dwell for no time -- G64 should not smooth over this point )
F100.00000
G01 X20.09936 Y4.17964
X20.06481 Y4.11759
X19.99799 Y4.05175
X19.81511 Y3.95577
X19.72755 Y3.92775
X19.32651 Y3.93298
X19.11955 Y4.02656
X19.04028 Y4.08340
X18.98409 Y4.16135
X18.90789 Y4.31474
X18.88102 Y4.43880
X18.88460 Y5.05617
X18.98409 Y5.28678
X19.04028 Y5.36476
X19.11826 Y5.42094
X19.27157 Y5.49711
X19.39613 Y5.52401
X19.74968 Y5.51515
X19.95796 Y5.42094
X20.03591 Y5.36476
X20.09956 Y5.27189
X20.13096 Y5.15183
X20.19377 Y5.00293
X20.19161 Y4.82287
X20.16613 Y4.73887
X20.11726 Y4.66575
X20.04945 Y4.61002
X19.94221 Y4.57040
X20.03753 Y4.50598
X20.09839 Y4.41525
X20.12003 Y4.34220
X20.09936 Y4.17959
X20.14879 Y4.05376
X20.26286 Y3.95531
X20.38000 Y3.92485
X21.19679 Y3.92491
X21.30294 Y3.95000
X21.40390 Y4.02336
X21.46062 Y4.11675
X21.48013 Y4.20837
X21.47030 Y4.30164
X21.41383 Y4.41253
X21.34408 Y4.47532
X21.25844 Y4.51342
X21.01244 Y4.52402
X21.42564 Y5.05119
X21.46628 Y5.13270
X21.48053 Y5.22254
X21.45673 Y5.34111
X21.38782 Y5.44078
X21.28533 Y5.50489
X21.18099 Y5.52401
X20.31777 Y5.51342
X20.23212 Y5.47532
X20.17231 Y5.42478
X20.12834 Y5.36003
X20.09956 Y5.27189
G04 P0 ( dwell for no time -- G64 should not smooth over this point )
G00 Z5.00000 ( retract )

G00 X20.11777 Y4.32432 ( rapid move to begin. )
F50.00000
G01 Z-0.05000
G04 P0 ( dwell for no time -- G64 should not smooth over this point )
F100.00000
G01 X20.11777 Y4.32432
X20.15935 Y4.40941
X20.56377 Y4.92407
X20.34828 Y4.92821
X20.27327 Y4.95000
X20.19377 Y5.00293
G04 P0 ( dwell for no time -- G64 should not smooth over this point )
G00 Z5.00000 ( retract )

G00 X22.59529 Y4.22404 ( rapid move to begin. )
F50.00000
G01 Z-0.05000
G04 P0 ( dwell for no time -- G64 should not smooth over this point )
F100.00000
G01 X22.59529 Y4.22404
X22.59529 Y5.72404
X22.61528 Y5.83067
X22.66158 Y5.91157
X22.75732 Y5.99000
X22.87654 Y6.02305
X22.99905 Y6.00509
X23.08033 Y5.95962
X23.16709 Y5.85094
X23.39524 Y5.36201
X23.62340 Y5.85094
X23.71017 Y5.95965
X23.79135 Y6.00506
X23.88279 Y6.02338
X24.00473 Y6.00290
X24.08510 Y5.95579
X24.16260 Y5.85922
X24.19523 Y5.72404
X24.19523 Y4.22404
X24.17491 Y4.11678
X24.12808 Y4.03560
X24.03120 Y3.95716
X23.92663 Y3.92574
X23.81766 Y3.93474
X23.70677 Y3.99120
X23.64398 Y4.06095
X23.60588 Y4.14660
X23.59529 Y4.43016
X23.50098 Y4.37235
X23.41068 Y4.35345
X23.28950 Y4.37235
X23.19521 Y4.43014
X23.19440 Y4.20824
X23.16930 Y4.10210
X23.08371 Y3.99120
X22.94215 Y3.92821
X22.81767 Y3.93474
X22.69453 Y4.00113
X22.62117 Y4.10210
X22.59529 Y4.22404
G04 P0 ( dwell for no time -- G64 should not smooth over this point )
G00 Z5.00000 ( retract )

G00 X24.55058 Y5.45853 ( rapid move to begin. )
F50.00000
G01 Z-0.05000
G04 P0 ( dwell for no time -- G64 should not smooth over this point )
F100.00000
G01 X24.55058 Y5.45853
X24.45480 Y5.40847
X24.38180 Y5.34637
X24.24703 Y5.07850
X24.23816 Y4.43880
X24.25068 Y4.35269
X24.35373 Y4.14070
X24.39742 Y4.08340
X24.47669 Y4.02656
X24.68365 Y3.93298
X25.06206 Y3.92590
X25.17225 Y3.95577
X25.32868 Y4.03489
X25.40212 Y4.09343
X25.45365 Y4.17149
X25.48053 Y4.29321
X25.45553 Y4.41525
X25.39467 Y4.50598
X25.29935 Y4.57040
X25.43112 Y4.62645
X25.52327 Y4.73887
X25.55165 Y4.85211
X25.54344 Y5.07852
X25.43676 Y5.30745
X25.39305 Y5.36476
X25.31510 Y5.42094
X25.16297 Y5.49615
X24.85513 Y5.40377
X24.77342 Y5.40621
X24.58723 Y5.44637
X24.55058 Y5.45853
X24.53890 Y5.48866
X24.53079 Y5.64352
X24.60120 Y5.78170
X24.86198 Y6.03783
X24.99119 Y6.09178
X25.10039 Y6.08850
X25.18782 Y6.05497
X25.26074 Y5.99595
X25.31179 Y5.91731
X25.33603 Y5.82681
X25.33440 Y5.74857
X25.29757 Y5.64576
X25.16297 Y5.49615
G04 P0 ( dwell for no time -- G64 should not smooth over this point )
G00 Z5.00000 ( retract )

G00 X25.59531 Y4.22404 ( rapid move to begin. )
F50.00000
G01 Z-0.05000
G04 P0 ( dwell for no time -- G64 should not smooth over this point )
F100.00000
G01 X25.59531 Y4.22404
X25.59612 Y5.23971
X25.62119 Y5.34604
X25.68340 Y5.43585
X25.75929 Y5.49097
X25.86386 Y5.52239
X26.00364 Y5.50326
X26.08533 Y5.52224
X26.32269 Y5.52401
X26.44743 Y5.49714
X26.60082 Y5.42094
X26.67877 Y5.36476
X26.80641 Y5.14393
X26.83628 Y5.03323
X26.83727 Y4.20824
X26.81217 Y4.10210
X26.74997 Y4.01228
X26.64542 Y3.94441
X26.50671 Y3.92574
X26.37501 Y3.97278
X26.27118 Y4.08810
X26.23816 Y4.22404
X26.23816 Y4.92407
X26.19526 Y4.92407
X26.19112 Y4.17708
X26.16932 Y4.10210
X26.10712 Y4.01228
X26.03122 Y3.95716
X25.94217 Y3.92821
X25.86386 Y3.92574
X25.78794 Y3.94441
X25.70679 Y3.99120
X25.64400 Y4.06095
X25.60590 Y4.14660
X25.59531 Y4.22404
G04 P0 ( dwell for no time -- G64 should not smooth over this point )
G00 Z5.00000 ( retract )

G00 X26.88101 Y4.50977 ( rapid move to begin. )
F50.00000
G01 Z-0.05000
G04 P0 ( dwell for no time -- G64 should not smooth over this point )
F100.00000
G01 X26.88101 Y4.50977
X26.88984 Y5.00700
X27.02304 Y5.27334
X27.16909 Y5.40849
X27.33254 Y5.49236
X27.42007 Y5.52038
X27.59530 Y5.52315
X27.60590 Y5.80153
X27.64400 Y5.88718
X27.73216 Y5.97535
X27.81768 Y6.01340
X27.92665 Y6.02239
X28.03122 Y5.99097
X28.09596 Y5.94700
X28.16932 Y5.84603
X28.19525 Y5.72404
X28.19525 Y4.22404
X28.17493 Y4.11678
X28.12809 Y4.03560
X28.03122 Y3.95716
X27.92665 Y3.92574
X27.46670 Y3.92407
X27.37610 Y3.93809
X27.16909 Y4.03964
X27.02302 Y4.17482
X26.90788 Y4.38617
X26.88101 Y4.50977
G04 P0 ( dwell for no time -- G64 should not smooth over this point )
G00 Z5.00000 ( retract )

G00 X27.48093 Y4.58056 ( rapid move to begin. )
F50.00000
G01 Z-0.05000
G04 P0 ( dwell for no time -- G64 should not smooth over this point )
F100.00000
G01 X27.48093 Y4.58056
X27.48095 Y4.86760
X27.50150 Y4.90611
X27.53744 Y4.92407
X27.59530 Y4.92407
X27.59530 Y4.52402
X27.53752 Y4.52402
X27.50150 Y4.54205
X27.48093 Y4.58056
G04 P0 ( dwell for no time -- G64 should not smooth over this point )
G00 Z5.00000 ( retract )

G00 X29.45651 Y4.17969 ( rapid move to begin. )
F50.00000
G01 Z-0.05000
G04 P0 ( dwell for no time -- G64 should not smooth over this point )
F100.00000
G01 X29.45651 Y4.17969
X29.42195 Y4.11759
X29.35512 Y4.05175
X29.17224 Y3.95577
X29.08468 Y3.92775
X28.68367 Y3.93298
X28.47668 Y4.02653
X28.39741 Y4.08340
X28.34123 Y4.16135
X28.26503 Y4.31474
X28.23815 Y4.43880
X28.24173 Y5.05617
X28.34123 Y5.28678
X28.39741 Y5.36476
X28.47539 Y5.42094
X28.62873 Y5.49711
X28.75329 Y5.52401
X29.10681 Y5.51515
X29.31509 Y5.42094
X29.39301 Y5.36481
X29.45672 Y5.27187
X29.47767 Y5.18165
X29.55093 Y5.00293
X29.54877 Y4.82287
X29.52329 Y4.73887
X29.47447 Y4.66580
X29.40658 Y4.61002
X29.29934 Y4.57040
X29.39467 Y4.50598
X29.45552 Y4.41525
X29.47716 Y4.34215
X29.45651 Y4.17964
X29.50594 Y4.05376
X29.62001 Y3.95531
X29.73716 Y3.92485
X30.55392 Y3.92491
X30.66007 Y3.95000
X30.76103 Y4.02336
X30.81775 Y4.11675
X30.83726 Y4.20837
X30.82743 Y4.30164
X30.77096 Y4.41253
X30.70122 Y4.47532
X30.61557 Y4.51342
X30.36957 Y4.52402
X30.78278 Y5.05119
X30.82342 Y5.13270
X30.83767 Y5.22254
X30.81387 Y5.34111
X30.74496 Y5.44078
X30.64247 Y5.50489
X30.53812 Y5.52401
X29.67493 Y5.51342
X29.58928 Y5.47532
X29.52946 Y5.42478
X29.48550 Y5.36003
X29.45672 Y5.27187
G04 P0 ( dwell for no time -- G64 should not smooth over this point )
G00 Z5.00000 ( retract )

G00 X29.47716 Y4.34215 ( rapid move to begin. )
F50.00000
G01 Z-0.05000
G04 P0 ( dwell for no time -- G64 should not smooth over this point )
F100.00000
G01 X29.47716 Y4.34215
X29.92090 Y4.92407
X29.67493 Y4.93471
X29.55093 Y5.00293
G04 P0 ( dwell for no time -- G64 should not smooth over this point )
G00 Z5.00000 ( retract )

G00 X37.16737 Y5.23816 ( rapid move to begin. )
F50.00000
G01 Z-0.05000
G04 P0 ( dwell for no time -- G64 should not smooth over this point )
F100.00000
G01 X37.16737 Y5.23816
X37.16808 Y6.01700
X37.46679 Y6.73643
X38.01809 Y7.28675
X38.73808 Y7.58423
X39.51692 Y7.58352
X40.23635 Y7.28482
X40.78667 Y6.73351
X41.08415 Y6.01352
X41.08344 Y5.23466
X40.78471 Y4.51525
X40.23343 Y3.96494
X39.51344 Y3.66745
X38.73458 Y3.66816
X38.01517 Y3.96689
X37.46486 Y4.51817
X37.16737 Y5.23816
G04 P0 ( dwell for no time -- G64 should not smooth over this point )
G00 Z5.00000 ( retract )

G00 X44.84340 Y2.92536 ( rapid move to begin. )
F50.00000
G01 Z-0.05000
G04 P0 ( dwell for no time -- G64 should not smooth over this point )
F100.00000
G01 X44.84340 Y2.92536
X44.84340 Y6.19140
X63.41657 Y6.19140
X63.41657 Y2.92536
X44.84340 Y2.92536
G04 P0 ( dwell for no time -- G64 should not smooth over this point )
G00 Z5.00000 ( retract )

G00 X45.25859 Y3.95480 ( rapid move to begin. )
F50.00000
G01 Z-0.05000
G04 P0 ( dwell for no time -- G64 should not smooth over this point )
F100.00000
G01 X45.25859 Y3.95480
X45.25859 Y5.45480
X45.27858 Y5.56143
X45.32489 Y5.64233
X45.42062 Y5.72076
X45.53985 Y5.75381
X45.66235 Y5.73585
X45.74363 Y5.69038
X45.83040 Y5.58170
X46.05854 Y5.09277
X46.28671 Y5.58170
X46.37347 Y5.69041
X46.45465 Y5.73582
X46.54609 Y5.75414
X46.66804 Y5.73366
X46.74840 Y5.68655
X46.82590 Y5.58998
X46.85854 Y5.45480
X46.85854 Y3.95480
X46.83822 Y3.84754
X46.79138 Y3.76636
X46.69450 Y3.68792
X46.58993 Y3.65650
X46.48097 Y3.66550
X46.37007 Y3.72196
X46.30728 Y3.79171
X46.26918 Y3.87736
X46.25859 Y4.16092
X46.16428 Y4.10311
X46.07398 Y4.08421
X45.95280 Y4.10311
X45.85851 Y4.16090
X45.85770 Y3.93900
X45.83261 Y3.83286
X45.74701 Y3.72196
X45.60545 Y3.65897
X45.48097 Y3.66550
X45.35783 Y3.73189
X45.28447 Y3.83286
X45.25859 Y3.95480
G04 P0 ( dwell for no time -- G64 should not smooth over this point )
G00 Z5.00000 ( retract )

G00 X47.28566 Y5.18861 ( rapid move to begin. )
F50.00000
G01 Z-0.05000
G04 P0 ( dwell for no time -- G64 should not smooth over this point )
F100.00000
G01 X47.28566 Y5.18861
X47.25897 Y5.31190
X47.29907 Y5.46171
X47.60944 Y5.77784
X47.72590 Y5.82254
X47.83509 Y5.81926
X47.94883 Y5.76867
X48.01523 Y5.70227
X48.07073 Y5.55757
X48.05770 Y5.43364
X48.01515 Y5.35012
X47.87446 Y5.20367
X47.55221 Y5.13262
X47.28566 Y5.18861
X47.16821 Y5.12630
X47.04507 Y5.00573
X46.93380 Y4.80469
X46.90322 Y4.69280
X46.90144 Y4.24114
X46.91396 Y4.15488
X47.02923 Y3.92259
X47.18950 Y3.77042
X47.35917 Y3.68358
X47.44015 Y3.65897
X47.72536 Y3.65666
X47.81409 Y3.67779
X48.02023 Y3.78335
X48.14337 Y3.90387
X48.27243 Y4.15384
X48.38637 Y3.92259
X48.48764 Y3.81579
X48.56854 Y3.75729
X48.75371 Y3.66885
X48.84428 Y3.65483
X49.30420 Y3.65650
X49.40877 Y3.68792
X49.50565 Y3.76636
X49.55249 Y3.84754
X49.57281 Y3.95480
X49.57281 Y5.45480
X49.54687 Y5.57679
X49.47352 Y5.67776
X49.38012 Y5.73448
X49.28850 Y5.75396
X49.19524 Y5.74416
X49.08434 Y5.68769
X49.02155 Y5.61794
X48.98345 Y5.53229
X48.97286 Y5.25391
X48.77555 Y5.24591
X48.54665 Y5.13923
X48.38597 Y4.98647
X48.27281 Y4.75991
X48.14502 Y5.00410
X48.03794 Y5.11119
X47.87446 Y5.20367
G04 P0 ( dwell for no time -- G64 should not smooth over this point )
G00 Z5.00000 ( retract )

G00 X47.50136 Y4.31132 ( rapid move to begin. )
F50.00000
G01 Z-0.05000
G04 P0 ( dwell for no time -- G64 should not smooth over this point )
F100.00000
G01 X47.50136 Y4.31132
X47.50139 Y4.59836
X47.52193 Y4.63687
X47.55788 Y4.65485
X47.63060 Y4.65483
X47.66920 Y4.63423
X47.68714 Y4.59831
X47.68716 Y4.31134
X47.66656 Y4.27278
X47.63057 Y4.25478
X47.55793 Y4.25478
X47.52193 Y4.27278
X47.50136 Y4.31132
G04 P0 ( dwell for no time -- G64 should not smooth over this point )
G00 Z5.00000 ( retract )

G00 X48.27276 Y4.21942 ( rapid move to begin. )
F50.00000
G01 Z-0.05000
G04 P0 ( dwell for no time -- G64 should not smooth over this point )
F100.00000
G01 X48.27276 Y4.21942
X48.27281 Y4.75991
X48.27283 Y4.69018
G04 P0 ( dwell for no time -- G64 should not smooth over this point )
G00 Z5.00000 ( retract )

G00 X48.27278 Y4.17273 ( rapid move to begin. )
F50.00000
G01 Z-0.05000
G04 P0 ( dwell for no time -- G64 should not smooth over this point )
F100.00000
G01 X48.27278 Y4.17273
X48.27243 Y4.15384
X48.27294 Y4.21693
G04 P0 ( dwell for no time -- G64 should not smooth over this point )
G00 Z5.00000 ( retract )

G00 X48.85851 Y4.31132 ( rapid move to begin. )
F50.00000
G01 Z-0.05000
G04 P0 ( dwell for no time -- G64 should not smooth over this point )
F100.00000
G01 X48.85851 Y4.31132
X48.85853 Y4.59836
X48.87908 Y4.63687
X48.91502 Y4.65483
X48.97286 Y4.65483
X48.97286 Y4.25478
X48.91507 Y4.25478
X48.87908 Y4.27278
X48.85851 Y4.31132
G04 P0 ( dwell for no time -- G64 should not smooth over this point )
G00 Z5.00000 ( retract )

G00 X49.68716 Y4.95449 ( rapid move to begin. )
F50.00000
G01 Z-0.05000
G04 P0 ( dwell for no time -- G64 should not smooth over this point )
F100.00000
G01 X49.68716 Y4.95449
X49.69775 Y5.03229
X49.73585 Y5.11794
X49.79864 Y5.18769
X49.87979 Y5.23448
X49.95571 Y5.25315
X50.03402 Y5.25068
X50.12307 Y5.22173
X50.19897 Y5.16661
X50.26117 Y5.07680
X50.28297 Y5.00179
X50.28711 Y4.25478
X50.33001 Y4.25478
X50.33001 Y4.95480
X50.36303 Y5.09079
X50.46686 Y5.20611
X50.59856 Y5.25315
X50.73727 Y5.23448
X50.84182 Y5.16661
X50.90402 Y5.07680
X50.92912 Y4.97060
X50.92995 Y3.95480
X50.90402 Y3.83286
X50.83067 Y3.73189
X50.76592 Y3.68792
X50.66135 Y3.65650
X50.52157 Y3.67563
X50.43989 Y3.65666
X50.17829 Y3.65663
X50.06724 Y3.68653
X49.84642 Y3.81416
X49.79023 Y3.89211
X49.69074 Y4.12280
X49.68716 Y4.95449
G04 P0 ( dwell for no time -- G64 should not smooth over this point )
G00 Z5.00000 ( retract )

G00 X51.76823 Y4.16824 ( rapid move to begin. )
F50.00000
G01 Z-0.05000
G04 P0 ( dwell for no time -- G64 should not smooth over this point )
F100.00000
G01 X51.76823 Y4.16824
X51.64423 Y4.24733
X51.64425 Y5.45480
X51.62393 Y5.56211
X51.55611 Y5.66661
X51.48022 Y5.72173
X51.37565 Y5.75315
X51.23694 Y5.73448
X51.11141 Y5.64329
X51.07019 Y5.57679
X51.04839 Y5.50166
X51.04608 Y4.14583
X51.07595 Y4.03499
X51.15987 Y3.87146
X51.20356 Y3.81416
X51.28154 Y3.75795
X51.46810 Y3.66923
X51.59223 Y3.65716
X51.72386 Y3.70451
X51.81911 Y3.80705
X51.85202 Y3.89486
X51.85797 Y3.97258
X51.76823 Y4.16824
X51.76036 Y4.21751
X51.76219 Y4.71558
X51.79094 Y4.80469
X51.88710 Y4.98805
X52.04522 Y5.13852
X52.20869 Y5.22241
X52.29810 Y5.25122
X52.58161 Y5.25300
X52.67123 Y5.23186
X52.83554 Y5.15170
X52.91514 Y5.09386
X53.01639 Y4.98708
X53.12604 Y4.77136
X53.14422 Y4.66852
X53.13533 Y4.17184
X53.01573 Y3.92165
X52.87742 Y3.78335
X52.69406 Y3.68724
X52.60513 Y3.65851
X52.29729 Y3.65897
X52.21629 Y3.68361
X52.00770 Y3.79846
X51.88639 Y3.92259
X51.85373 Y3.98808
G04 P0 ( dwell for no time -- G64 should not smooth over this point )
G00 Z5.00000 ( retract )

G00 X52.35850 Y4.31132 ( rapid move to begin. )
F50.00000
G01 Z-0.05000
G04 P0 ( dwell for no time -- G64 should not smooth over this point )
F100.00000
G01 X52.35850 Y4.31132
X52.35853 Y4.59836
X52.37646 Y4.63425
X52.41502 Y4.65485
X52.48776 Y4.65483
X52.52370 Y4.63687
X52.54430 Y4.59831
X52.54430 Y4.31137
X52.52629 Y4.27537
X52.48771 Y4.25478
X52.41509 Y4.25478
X52.37907 Y4.27281
X52.35850 Y4.31132
G04 P0 ( dwell for no time -- G64 should not smooth over this point )
G00 Z5.00000 ( retract )

G00 X54.33002 Y3.95480 ( rapid move to begin. )
F50.00000
G01 Z-0.05000
G04 P0 ( dwell for no time -- G64 should not smooth over this point )
F100.00000
G01 X54.33002 Y3.95480
X54.33002 Y5.45480
X54.34788 Y5.55579
X54.38931 Y5.63326
X54.47592 Y5.71180
X54.58608 Y5.75119
X55.20142 Y5.75477
X55.30355 Y5.73664
X55.52027 Y5.62630
X55.65857 Y5.48802
X55.75468 Y5.30466
X55.78349 Y5.21533
X55.78349 Y4.90867
X55.75468 Y4.81926
X55.65857 Y4.63595
X55.51968 Y4.49722
X55.29271 Y4.38338
X55.20142 Y4.36913
X54.92997 Y4.36913
X54.91933 Y3.87736
X54.86281 Y3.76636
X54.76594 Y3.68792
X54.61430 Y3.65567
X54.46688 Y3.70354
X54.36304 Y3.81886
X54.33002 Y3.95480
G04 P0 ( dwell for no time -- G64 should not smooth over this point )
G00 Z5.00000 ( retract )

G00 X54.92997 Y4.96907 ( rapid move to begin. )
F50.00000
G01 Z-0.05000
G04 P0 ( dwell for no time -- G64 should not smooth over this point )
F100.00000
G01 X54.92997 Y4.96907
X54.92997 Y5.15482
X55.13063 Y5.15482
X55.16914 Y5.13428
X55.18712 Y5.09831
X55.18715 Y5.02564
X55.16655 Y4.98708
X55.13058 Y4.96910
X54.92997 Y4.96907
G04 P0 ( dwell for no time -- G64 should not smooth over this point )
G00 Z5.00000 ( retract )

G00 X55.83002 Y4.95449 ( rapid move to begin. )
F50.00000
G01 Z-0.05000
G04 P0 ( dwell for no time -- G64 should not smooth over this point )
F100.00000
G01 X55.83002 Y4.95449
X55.84061 Y5.03229
X55.87871 Y5.11794
X55.94150 Y5.18769
X56.02265 Y5.23448
X56.09857 Y5.25315
X56.17688 Y5.25068
X56.26594 Y5.22173
X56.34183 Y5.16661
X56.40404 Y5.07680
X56.42583 Y5.00179
X56.42997 Y4.25478
X56.47287 Y4.25478
X56.47287 Y4.95480
X56.50589 Y5.09079
X56.60972 Y5.20611
X56.74142 Y5.25315
X56.88013 Y5.23448
X56.98468 Y5.16661
X57.04688 Y5.07680
X57.07198 Y4.97060
X57.07282 Y3.95480
X57.04688 Y3.83286
X56.97353 Y3.73189
X56.90878 Y3.68792
X56.80421 Y3.65650
X56.66444 Y3.67563
X56.58275 Y3.65666
X56.32115 Y3.65663
X56.21011 Y3.68653
X55.98928 Y3.81416
X55.93309 Y3.89211
X55.83360 Y4.12280
X55.83002 Y4.95449
G04 P0 ( dwell for no time -- G64 should not smooth over this point )
G00 Z5.00000 ( retract )

G00 X57.11750 Y4.14604 ( rapid move to begin. )
F50.00000
G01 Z-0.05000
G04 P0 ( dwell for no time -- G64 should not smooth over this point )
F100.00000
G01 X57.11750 Y4.14604
X57.11927 Y4.78673
X57.14810 Y4.87616
X57.23205 Y5.03964
X57.29339 Y5.11114
X57.49583 Y5.22312
X57.58338 Y5.25114
X57.91480 Y5.25477
X58.02844 Y5.23181
X58.23395 Y5.12673
X58.29829 Y5.06361
X58.42102 Y4.80928
X58.42994 Y4.59930
X58.41211 Y4.49686
X58.35204 Y4.39656
X58.28414 Y4.34078
X58.17693 Y4.30116
X58.23642 Y4.26730
X58.30225 Y4.20047
X58.35519 Y4.07096
X58.34272 Y3.93143
X58.29954 Y3.84835
X58.24556 Y3.79171
X57.98440 Y3.66374
X57.56123 Y3.66377
X57.35298 Y3.75795
X57.27503 Y3.81411
X57.14737 Y4.03494
X57.11750 Y4.14604
G04 P0 ( dwell for no time -- G64 should not smooth over this point )
G00 Z5.00000 ( retract )

G00 X59.62001 Y5.00263 ( rapid move to begin. )
F50.00000
G01 Z-0.05000
G04 P0 ( dwell for no time -- G64 should not smooth over this point )
F100.00000
G01 X59.62001 Y5.00263
X59.55630 Y5.09557
X59.49897 Y5.13925
X59.32501 Y5.22790
X59.22443 Y5.25300
X58.96291 Y5.25300
X58.88120 Y5.23402
X58.80421 Y5.25315
X58.72590 Y5.25068
X58.60972 Y5.20611
X58.53997 Y5.14329
X58.49875 Y5.07680
X58.47368 Y4.97047
X58.47287 Y3.95480
X58.49875 Y3.83286
X58.57210 Y3.73189
X58.69524 Y3.66550
X58.81973 Y3.65897
X58.96128 Y3.72196
X59.03974 Y3.81886
X59.07281 Y3.95480
X59.07281 Y4.65483
X59.11574 Y4.65483
X59.11655 Y3.93913
X59.16443 Y3.79171
X59.25259 Y3.70354
X59.40002 Y3.65567
X59.55165 Y3.68792
X59.61640 Y3.73189
X59.66694 Y3.79171
X59.70504 Y3.87736
X59.71566 Y3.95516
X59.71393 Y4.73392
X59.62001 Y5.00263
X59.64878 Y5.09079
X59.69275 Y5.15554
X59.75257 Y5.20608
X59.83001 Y5.24151
X59.83083 Y5.47047
X59.85028 Y5.56211
X59.91810 Y5.66661
X59.99399 Y5.72173
X60.08305 Y5.75068
X60.16136 Y5.75315
X60.26593 Y5.72173
X60.33067 Y5.67776
X60.38122 Y5.61794
X60.41932 Y5.53229
X60.42996 Y5.25477
X60.53397 Y5.25068
X60.62308 Y5.22175
X60.71005 Y5.15554
X60.75963 Y5.07819
X60.71988 Y4.88929
X60.61716 Y4.68487
X60.53410 Y4.65897
X60.42996 Y4.65483
X60.42994 Y4.25363
X60.54347 Y4.24939
X60.62122 Y4.21853
X60.61751 Y4.68541
G04 P0 ( dwell for no time -- G64 should not smooth over this point )
G00 Z5.00000 ( retract )

G00 X59.71393 Y4.73392 ( rapid move to begin. )
F50.00000
G01 Z-0.05000
G04 P0 ( dwell for no time -- G64 should not smooth over this point )
F100.00000
G01 X59.71393 Y4.73392
X59.83037 Y4.66801
X59.83179 Y4.14566
X59.85292 Y4.05643
X59.95849 Y3.85025
X60.05678 Y3.76372
X60.21010 Y3.68653
X60.31950 Y3.65666
X60.53410 Y3.65897
X60.60908 Y3.68076
X60.67558 Y3.72198
X60.73839 Y3.79173
X60.75780 Y3.85150
X60.71965 Y4.02031
X60.62122 Y4.21853
G04 P0 ( dwell for no time -- G64 should not smooth over this point )
G00 Z5.00000 ( retract )

G00 X60.75744 Y5.06295 ( rapid move to begin. )
F50.00000
G01 Z-0.05000
G04 P0 ( dwell for no time -- G64 should not smooth over this point )
F100.00000
G01 X60.75744 Y5.06295
X60.77934 Y5.09971
X60.85297 Y5.15170
X61.06125 Y5.24591
X61.41485 Y5.25477
X61.50695 Y5.24057
X61.73395 Y5.12673
X61.80860 Y5.04865
X61.92102 Y4.80928
X61.92993 Y4.59930
X61.91210 Y4.49686
X61.85198 Y4.39651
X61.78416 Y4.34078
X61.67692 Y4.30116
X61.73641 Y4.26730
X61.80225 Y4.20047
X61.85518 Y4.07096
X61.85622 Y3.99272
X61.83123 Y3.90225
X61.73270 Y3.78251
X61.48442 Y3.66374
X61.10598 Y3.65666
X61.01726 Y3.67781
X60.85297 Y3.75795
X60.75973 Y3.83275
G04 P0 ( dwell for no time -- G64 should not smooth over this point )
G00 Z5.00000 ( retract )

G00 X64.91685 Y3.01680 ( rapid move to begin. )
F50.00000
G01 Z-0.05000
G04 P0 ( dwell for no time -- G64 should not smooth over this point )
F100.00000
G01 X64.91685 Y3.01680
X64.91685 Y6.28284
X74.46321 Y6.28284
X74.46321 Y3.01680
X64.91685 Y3.01680
G04 P0 ( dwell for no time -- G64 should not smooth over this point )
G00 Z5.00000 ( retract )

G00 X66.87272 Y4.88271 ( rapid move to begin. )
F50.00000
G01 Z-0.05000
G04 P0 ( dwell for no time -- G64 should not smooth over this point )
F100.00000
G01 X66.87272 Y4.88271
X66.79926 Y4.22564
X66.86835 Y4.01391
X66.95319 Y3.89156
X67.14079 Y3.78256
X67.22891 Y3.75140
X67.59218 Y3.74792
X67.69721 Y3.77482
X67.84900 Y3.84624
X67.94836 Y3.92171
X68.00843 Y4.03098
X68.01608 Y4.17075
X67.96901 Y4.28607
X67.86015 Y4.38272
X67.98133 Y4.41299
X68.04846 Y4.45300
X68.11229 Y4.52135
X68.14757 Y4.59097
X68.17180 Y4.74037
X68.16708 Y4.82219
X68.09680 Y5.10644
X68.00376 Y5.21784
X67.78486 Y5.33224
X67.69370 Y5.34621
X67.38608 Y5.34461
X67.28103 Y5.31771
X67.11654 Y5.23953
X67.04763 Y5.18922
X66.91809 Y4.99607
X66.87272 Y4.88271
X66.76350 Y4.71053
X66.63569 Y4.59473
X66.55522 Y4.54868
X66.75812 Y4.19580
X66.79401 Y4.09257
X66.79632 Y4.01439
X66.77752 Y3.93844
X66.73053 Y3.85734
X66.67394 Y3.80326
X66.60501 Y3.76643
X66.51311 Y3.74708
X66.42007 Y3.75704
X66.32131 Y3.80390
X66.23798 Y3.89674
X65.98050 Y4.34456
X65.92870 Y3.96311
X65.89772 Y3.89123
X65.82479 Y3.80979
X65.71273 Y3.75544
X65.58827 Y3.75137
X65.47288 Y3.79826
X65.38652 Y3.88808
X65.35009 Y3.97441
X65.34323 Y4.08348
X65.53074 Y5.58347
X65.56355 Y5.68624
X65.64202 Y5.78078
X65.72236 Y5.82643
X65.81303 Y5.84542
X66.42469 Y5.84423
X66.51852 Y5.82066
X66.69937 Y5.72368
X66.85319 Y5.55823
X66.92997 Y5.36780
X66.94956 Y5.27217
X66.91809 Y4.99607
G04 P0 ( dwell for no time -- G64 should not smooth over this point )
G00 Z5.00000 ( retract )

G00 X66.06998 Y5.06054 ( rapid move to begin. )
F50.00000
G01 Z-0.05000
G04 P0 ( dwell for no time -- G64 should not smooth over this point )
F100.00000
G01 X66.06998 Y5.06054
X66.23450 Y5.06054
X66.28654 Y5.08503
X66.33358 Y5.14913
X66.33729 Y5.23966
X66.09322 Y5.24629
X66.06998 Y5.06054
G04 P0 ( dwell for no time -- G64 should not smooth over this point )
G00 Z5.00000 ( retract )

G00 X68.11064 Y5.07100 ( rapid move to begin. )
F50.00000
G01 Z-0.05000
G04 P0 ( dwell for no time -- G64 should not smooth over this point )
F100.00000
G01 X68.11064 Y5.07100
X68.13251 Y5.16318
X68.20391 Y5.26542
X68.29621 Y5.32389
X68.38753 Y5.34507
X68.51095 Y5.32785
X68.63802 Y5.23908
X68.68633 Y5.15891
X68.74054 Y4.94367
X68.89603 Y5.24174
X68.98105 Y5.31053
X69.05430 Y5.33783
X69.16347 Y5.34352
X69.29372 Y5.29244
X69.37099 Y5.21512
X69.41821 Y5.09973
X69.41737 Y4.99046
X69.39326 Y4.91599
X68.91112 Y3.91599
X68.82446 Y3.80951
X68.71470 Y3.75594
X68.62311 Y3.74723
X68.53332 Y3.76666
X68.45367 Y3.81241
X68.37584 Y3.90664
X68.17180 Y4.74037
X68.16708 Y4.82219
G04 P0 ( dwell for no time -- G64 should not smooth over this point )
G00 Z5.00000 ( retract )

G00 X71.78313 Y4.12295 ( rapid move to begin. )
F50.00000
G01 Z-0.05000
G04 P0 ( dwell for no time -- G64 should not smooth over this point )
F100.00000
G01 X71.78313 Y4.12295
X71.74932 Y4.20936
X71.66115 Y4.29752
X71.54490 Y4.34213
X71.40926 Y4.34622
X71.55463 Y5.50905
X71.54086 Y5.64195
X71.48135 Y5.74476
X71.38653 Y5.81639
X71.27129 Y5.84550
X71.15371 Y5.82752
X71.05242 Y5.76519
X70.86842 Y5.53880
X70.75968 Y5.44210
X70.58150 Y5.34649
X70.49296 Y5.21911
X70.47589 Y5.14284
X70.48000 Y5.06465
X70.51076 Y4.97621
X70.55615 Y4.91233
X70.61694 Y4.86311
X70.70335 Y4.82678
X70.79667 Y4.81893
X70.86540 Y4.83245
X70.80464 Y4.34622
X70.56342 Y4.33562
X70.42910 Y4.25813
X70.37398 Y4.18223
X70.34503 Y4.09318
X70.34256 Y4.01487
X70.36123 Y3.93895
X70.45242 Y3.81342
X70.51892 Y3.77220
X70.59392 Y3.75041
X71.49806 Y3.74627
X71.57551 Y3.75691
X71.68650 Y3.81342
X71.76494 Y3.91030
X71.79636 Y4.01487
X71.78531 Y4.17995
X71.84294 Y4.30344
X71.99570 Y4.44047
X72.06839 Y4.47512
X72.13781 Y4.48729
X72.24040 Y4.47733
X72.34314 Y4.42564
X72.47309 Y4.28000
X72.51594 Y4.17190
X72.51434 Y4.05546
X72.46860 Y3.94858
X72.31101 Y3.80060
X72.20057 Y3.75297
X72.07845 Y3.75292
X71.97286 Y3.79826
X71.85262 Y3.92016
X71.79600 Y4.01850
G04 P0 ( dwell for no time -- G64 should not smooth over this point )
G00 Z5.00000 ( retract )

G00 X72.55638 Y4.59907 ( rapid move to begin. )
F50.00000
G01 Z-0.05000
G04 P0 ( dwell for no time -- G64 should not smooth over this point )
F100.00000
G01 X72.55638 Y4.59907
X72.60855 Y5.04659
X72.72595 Y5.36547
X72.86689 Y5.59676
X72.99432 Y5.71213
X73.25092 Y5.83562
X73.49564 Y5.84423
X73.59026 Y5.82051
X73.76928 Y5.72452
X73.90926 Y5.57918
X74.01256 Y5.33214
X74.05455 Y5.01256
X74.00999 Y4.58048
X73.85892 Y4.17200
X73.74467 Y3.99509
X73.60075 Y3.86730
X73.37045 Y3.75907
X73.11470 Y3.74830
X72.99788 Y3.78256
X72.81967 Y3.88340
X72.68726 Y4.03474
X72.60520 Y4.24246
X72.55638 Y4.59907
G04 P0 ( dwell for no time -- G64 should not smooth over this point )
G00 Z5.00000 ( retract )

G00 X73.15747 Y4.61769 ( rapid move to begin. )
F50.00000
G01 Z-0.05000
G04 P0 ( dwell for no time -- G64 should not smooth over this point )
F100.00000
G01 X73.15747 Y4.61769
X73.18416 Y4.40431
X73.21665 Y4.34622
X73.28437 Y4.38467
X73.33486 Y4.46549
X73.41901 Y4.68988
X73.45467 Y4.97484
X73.42798 Y5.18825
X73.39628 Y5.24626
X73.32778 Y5.20786
X73.27728 Y5.12704
X73.19313 Y4.90265
X73.15747 Y4.61769
G04 P0 ( dwell for no time -- G64 should not smooth over this point )
G00 Z5.00000 ( retract )

G00 X70.66735 Y37.23817 ( rapid move to begin. )
F50.00000
G01 Z-0.05000
G04 P0 ( dwell for no time -- G64 should not smooth over this point )
F100.00000
G01 X70.66735 Y37.23817
X70.66809 Y38.01699
X70.96682 Y38.73642
X71.51808 Y39.28671
X72.23809 Y39.58424
X73.01691 Y39.58351
X73.73633 Y39.28478
X74.28663 Y38.73352
X74.58416 Y38.01351
X74.58342 Y37.23469
X74.28470 Y36.51526
X73.73344 Y35.96495
X73.01345 Y35.66744
X72.23461 Y35.66817
X71.51518 Y35.96690
X70.96489 Y36.51816
X70.66735 Y37.23817
G04 P0 ( dwell for no time -- G64 should not smooth over this point )
G00 Z5.00000 ( retract )

G00 X34.43621 Y15.63159 ( rapid move to begin. )
F50.00000
G01 Z-0.05000
G04 P0 ( dwell for no time -- G64 should not smooth over this point )
F100.00000
G01 X34.43621 Y15.63159
X34.46603 Y15.68160
X34.60581 Y15.69402
X34.68749 Y15.73225
X35.10873 Y16.15348
X35.14103 Y16.21388
X35.15937 Y16.31228
X35.15937 Y16.98180
X36.06039 Y17.88279
X37.67154 Y17.88279
X37.72891 Y17.89422
X37.79622 Y17.94946
X37.82152 Y18.03278
X37.82152 Y19.73275
X37.81009 Y19.79015
X37.77758 Y19.83882
X37.72891 Y19.87133
X37.67154 Y19.88273
X35.67154 Y19.88273
X35.61414 Y19.87133
X35.56547 Y19.83882
X35.53296 Y19.79015
X35.52155 Y19.73275
X35.52155 Y18.12152
X34.65567 Y17.24832
X34.61012 Y17.11025
X34.60941 Y16.42620
X34.44909 Y16.26590
X34.43624 Y16.28157
G04 P0 ( dwell for no time -- G64 should not smooth over this point )
G00 Z5.00000 ( retract )

G00 X32.76420 Y15.63159 ( rapid move to begin. )
F50.00000
G01 Z-0.05000
G04 P0 ( dwell for no time -- G64 should not smooth over this point )
F100.00000
G01 X32.76420 Y15.63159
X34.43621 Y15.63159
X34.46603 Y15.58155
X35.48091 Y15.58155
X35.48091 Y16.94891
X35.49232 Y17.00631
X35.54756 Y17.07362
X35.63090 Y17.09889
X37.63090 Y17.09889
X37.68827 Y17.08749
X37.75558 Y17.03225
X37.78088 Y16.94891
X37.78088 Y15.24894
X37.76945 Y15.19156
X37.71421 Y15.12425
X37.63090 Y15.09895
X36.01667 Y15.09895
X35.93694 Y15.04993
X35.83854 Y15.03159
X34.46603 Y15.03159
X34.43624 Y14.98158
G04 P0 ( dwell for no time -- G64 should not smooth over this point )
G00 Z5.00000 ( retract )

G00 X32.76418 Y14.98158 ( rapid move to begin. )
F50.00000
G01 Z-0.05000
G04 P0 ( dwell for no time -- G64 should not smooth over this point )
F100.00000
G01 X32.76418 Y14.98158
X32.73665 Y14.93898
X32.72524 Y14.88158
X32.72524 Y14.43159
X32.73665 Y14.37421
X32.76916 Y14.32555
X32.81782 Y14.29303
X32.87523 Y14.28160
X33.32524 Y14.28160
X33.33210 Y14.13974
X33.39021 Y14.02504
X34.35071 Y13.06449
X34.40766 Y13.02672
X34.52625 Y12.99946
X35.52155 Y12.99946
X35.52442 Y12.39520
X35.56547 Y12.31841
X35.61414 Y12.28590
X35.67154 Y12.27447
X37.67154 Y12.27447
X37.75485 Y12.29977
X37.81009 Y12.36708
X37.82152 Y12.42446
X37.82152 Y14.12443
X37.81009 Y14.18183
X37.75485 Y14.24914
X37.67154 Y14.27441
X35.64225 Y14.27154
X35.56547 Y14.23050
X35.52442 Y14.15371
X35.52155 Y13.54942
X34.64015 Y13.54942
X33.90797 Y14.28160
X34.35447 Y14.28450
X34.40852 Y14.30690
X34.44990 Y14.34828
X34.47520 Y14.43159
X34.47520 Y14.88158
X34.46377 Y14.93898
X34.43624 Y14.98158
X32.76418 Y14.98158
X32.75051 Y14.99826
X32.72524 Y15.08158
X32.72524 Y15.53156
X32.73665 Y15.58897
X32.76420 Y15.63159
X32.73665 Y15.67421
X32.72524 Y15.73159
X32.72524 Y16.18157
X32.73665 Y16.23898
X32.76418 Y16.28157
G04 P0 ( dwell for no time -- G64 should not smooth over this point )
G00 Z5.00000 ( retract )

G00 X28.53622 Y15.63159 ( rapid move to begin. )
F50.00000
G01 Z-0.05000
G04 P0 ( dwell for no time -- G64 should not smooth over this point )
F100.00000
G01 X28.53622 Y15.63159
X28.56378 Y15.67421
X28.57521 Y15.73159
X28.57521 Y16.18157
X28.56378 Y16.23898
X28.53622 Y16.28157
G04 P0 ( dwell for no time -- G64 should not smooth over this point )
G00 Z5.00000 ( retract )

G00 X26.86422 Y15.63159 ( rapid move to begin. )
F50.00000
G01 Z-0.05000
G04 P0 ( dwell for no time -- G64 should not smooth over this point )
F100.00000
G01 X26.86422 Y15.63159
X28.53622 Y15.63159
X28.56378 Y15.58897
X28.57521 Y15.53156
X28.57521 Y15.08158
X28.56378 Y15.02420
X28.53625 Y14.98158
G04 P0 ( dwell for no time -- G64 should not smooth over this point )
G00 Z5.00000 ( retract )

G00 X26.86419 Y16.28157 ( rapid move to begin. )
F50.00000
G01 Z-0.05000
G04 P0 ( dwell for no time -- G64 should not smooth over this point )
F100.00000
G01 X26.86419 Y16.28157
X26.83521 Y16.23420
X26.60384 Y16.23420
X25.73851 Y17.31317
X25.73854 Y20.55708
X26.85756 Y21.67610
X31.40208 Y21.67610
X31.50734 Y21.69708
X31.59649 Y21.75667
X32.89189 Y23.05207
X32.96357 Y23.17856
X32.97243 Y39.91518
X33.05163 Y39.99291
X33.10141 Y40.07264
X33.13352 Y40.16088
X33.14746 Y40.26956
X33.13352 Y40.37827
X33.10141 Y40.46651
X33.05163 Y40.54624
X32.93670 Y40.64990
G04 P0 ( dwell for no time -- G64 should not smooth over this point )
G00 Z5.00000 ( retract )

G00 X26.86419 Y14.98158 ( rapid move to begin. )
F50.00000
G01 Z-0.05000
G04 P0 ( dwell for no time -- G64 should not smooth over this point )
F100.00000
G01 X26.86419 Y14.98158
X26.83666 Y14.93898
X26.82525 Y14.88158
X26.82812 Y14.40233
X26.86917 Y14.32555
X26.94080 Y14.28607
X26.59678 Y13.94203
X26.59388 Y14.44409
X26.55284 Y14.52087
X26.50417 Y14.55338
X26.44679 Y14.56479
X24.97176 Y14.56479
X24.97176 Y15.34170
X24.95345 Y15.44012
X24.92124 Y15.50042
X24.10504 Y16.32209
X24.10273 Y16.45643
X24.07682 Y16.54667
X24.02419 Y16.64279
X23.94901 Y16.72262
X23.78406 Y16.81033
X23.62881 Y16.82666
X23.50649 Y16.80065
X23.35907 Y16.71274
X23.25620 Y16.57527
X23.21098 Y16.39407
X23.22409 Y16.26964
X23.29610 Y16.11388
X23.37128 Y16.03405
X23.50649 Y15.95602
X23.61309 Y15.93083
X23.71713 Y15.93248
X24.42178 Y15.22783
X24.42178 Y14.56235
X24.34073 Y14.52087
X24.30821 Y14.47220
X24.29681 Y14.41480
X24.29681 Y12.81480
X24.32208 Y12.73149
X24.38939 Y12.67625
X24.44680 Y12.66482
X26.44679 Y12.66482
X26.53010 Y12.69012
X26.57148 Y12.73149
X26.59388 Y12.78554
X26.59678 Y13.33982
X26.73559 Y13.35224
X26.81715 Y13.39037
X27.71395 Y14.28160
X28.42522 Y14.28160
X28.48260 Y14.29303
X28.53127 Y14.32555
X28.56378 Y14.37421
X28.57521 Y14.43159
X28.57521 Y14.88158
X28.56378 Y14.93898
X28.53625 Y14.98158
X26.86419 Y14.98158
X26.83442 Y15.03159
X26.63501 Y15.03159
X26.55185 Y14.88567
X26.49406 Y14.83194
X26.39442 Y14.79064
X25.45718 Y14.78529
X25.35073 Y14.80637
X25.25101 Y14.87733
X25.18523 Y15.00764
X25.17989 Y15.31378
X25.13803 Y15.52445
X25.01891 Y15.70271
X24.36475 Y16.36443
X24.21830 Y16.75061
X24.03336 Y16.93585
X23.79155 Y17.03626
X23.52988 Y17.03651
X23.28787 Y16.93654
X23.10263 Y16.75160
X23.00222 Y16.50979
X23.00197 Y16.24812
X23.10194 Y16.00611
X23.28688 Y15.82084
X23.53240 Y15.71889
X23.60255 Y15.70654
X23.69640 Y15.65554
X24.13219 Y15.22321
X24.20120 Y15.10479
X24.21375 Y15.02544
X24.20809 Y14.73753
X24.17979 Y14.66324
X24.11070 Y14.55679
X24.07634 Y14.38714
X24.07631 Y12.84058
X24.10580 Y12.68392
X24.18520 Y12.56050
X24.30484 Y12.47879
X24.47461 Y12.44437
X26.42088 Y12.44437
X26.57768 Y12.47389
X26.70110 Y12.55329
X26.78286 Y12.67292
X26.81725 Y12.84264
X26.82012 Y13.03870
X26.86813 Y13.16941
X27.01931 Y13.29263
X27.70671 Y13.98003
X27.79657 Y14.04007
X27.87338 Y14.05826
X28.39934 Y14.06113
X28.55614 Y14.09065
X28.67955 Y14.17005
X28.76129 Y14.28968
X28.79568 Y14.45940
X28.78273 Y15.01274
X28.65906 Y15.18351
X28.62799 Y15.30532
X28.66213 Y15.43951
X28.78237 Y15.60057
X28.79566 Y16.15727
X28.77618 Y16.28711
X28.79568 Y16.40779
X28.79566 Y16.80575
X28.76619 Y16.96252
X28.68631 Y17.08665
X28.49568 Y17.22300
X28.44024 Y17.30509
X28.42113 Y17.36758
X28.41671 Y19.22005
X28.43510 Y19.31919
X28.47214 Y19.38576
X28.58768 Y19.47598
X28.69370 Y19.49704
X30.60637 Y19.49704
X30.81641 Y19.53882
X30.99451 Y19.65782
X33.79184 Y22.45515
X33.91084 Y22.63325
X33.95264 Y22.84328
X33.96519 Y23.15199
X34.00365 Y23.23414
X34.05318 Y23.28590
X34.14779 Y23.33734
X34.23748 Y23.35088
X34.32973 Y23.33226
X34.63357 Y23.20330
X34.89524 Y23.20305
X35.14098 Y23.30457
X35.22813 Y23.35982
X35.32714 Y23.37816
X37.62523 Y23.37816
X37.73120 Y23.35710
X37.82114 Y23.29698
X40.14941 Y20.95611
X40.18852 Y20.81486
X40.18852 Y20.38022
X40.17006 Y20.28108
X40.13757 Y20.22035
X40.06538 Y20.14992
X39.96625 Y20.10874
X39.69797 Y20.10338
X39.54059 Y20.07377
X39.41718 Y19.99434
X39.33546 Y19.87473
X39.30110 Y19.70511
X39.30110 Y18.05851
X39.33056 Y17.90187
X39.40996 Y17.77845
X39.54877 Y17.65836
X39.58766 Y17.56577
X39.59396 Y17.49747
X39.57273 Y17.39948
X39.53135 Y17.33275
X39.32739 Y17.15178
X39.27290 Y17.02021
X39.27290 Y16.39892
X39.48093 Y16.39892
X39.48380 Y16.97819
X39.52485 Y17.05498
X39.57351 Y17.08749
X39.63092 Y17.09889
X41.66017 Y17.09602
X41.73696 Y17.05498
X41.77800 Y16.97819
X41.78090 Y16.39892
X41.98893 Y16.39892
X41.98893 Y17.02013
X41.93411 Y17.15246
X41.74829 Y17.35785
X41.71819 Y17.46209
X41.73302 Y17.57997
X41.79919 Y17.68302
X41.92520 Y17.77022
X42.00759 Y17.89087
X42.05809 Y18.21487
X42.14582 Y18.33730
X42.25072 Y18.39089
X42.40038 Y18.39445
X42.51204 Y18.34433
X42.60226 Y18.22881
X42.62337 Y18.12277
X42.62337 Y15.73685
X42.60485 Y15.63761
X42.49527 Y15.43316
X42.41961 Y15.35800
X42.31976 Y15.31673
X42.21173 Y15.31678
X42.13785 Y15.34431
X42.05420 Y15.41188
X42.00732 Y15.48935
X41.98893 Y15.58841
X41.98893 Y15.79895
X41.78090 Y15.79895
X41.77800 Y15.21968
X41.73696 Y15.14289
X41.68829 Y15.11038
X41.63091 Y15.09895
X39.60163 Y15.10185
X39.52485 Y15.14289
X39.48380 Y15.21968
X39.48093 Y15.79895
X39.27290 Y15.79895
X39.27290 Y15.17774
X39.32739 Y15.04617
X39.42807 Y14.94546
X39.52238 Y14.89280
X39.56373 Y14.85145
X39.60514 Y14.78429
X39.62619 Y14.67833
X39.59127 Y14.54635
X39.55017 Y14.48777
X39.36803 Y14.32730
X39.31354 Y14.19573
X39.31354 Y13.57444
X39.52157 Y13.57444
X39.52444 Y14.15371
X39.56549 Y14.23050
X39.61415 Y14.26301
X39.67156 Y14.27441
X41.70081 Y14.27154
X41.77760 Y14.23050
X41.81864 Y14.15371
X41.82154 Y13.57444
X42.02957 Y13.57444
X42.02957 Y14.19565
X41.97503 Y14.32727
X41.87435 Y14.42798
X41.78001 Y14.48064
X41.73866 Y14.52199
X41.69726 Y14.58915
X41.67620 Y14.69517
X41.69726 Y14.80113
X41.73866 Y14.86829
X41.93675 Y15.04853
X42.00594 Y15.14734
X42.13691 Y15.21328
X42.23779 Y15.21449
X42.32294 Y15.18358
X42.38684 Y15.13735
X42.43302 Y15.07337
X42.54818 Y14.80215
X42.73312 Y14.61691
X42.97493 Y14.51650
X43.23660 Y14.51625
X43.47861 Y14.61622
X43.66385 Y14.80116
X43.76426 Y15.04297
X43.76451 Y15.30464
X43.66299 Y15.55041
X43.60777 Y15.63748
X43.58940 Y15.73649
X43.58940 Y18.56592
X43.54762 Y18.77598
X43.42862 Y18.95406
X43.17767 Y19.20504
X42.99954 Y19.32404
X42.78966 Y19.36579
X42.31760 Y19.36869
X42.18694 Y19.41675
X42.12078 Y19.48291
X42.08854 Y19.54304
X42.01476 Y19.86023
X41.93307 Y19.98715
X41.81344 Y20.06889
X41.64310 Y20.10338
X41.38405 Y20.10742
X41.31882 Y20.12731
X41.23566 Y20.18439
X41.17562 Y20.27425
X41.15456 Y20.38022
X41.15456 Y21.10237
X41.11278 Y21.31242
X40.99378 Y21.49050
X38.30087 Y24.18344
X38.12274 Y24.30244
X37.91286 Y24.34419
X35.32750 Y24.34419
X35.22821 Y24.36271
X35.14213 Y24.41709
X34.89643 Y24.51910
X34.63476 Y24.51935
X34.33050 Y24.38996
X34.22963 Y24.37089
X34.08833 Y24.41001
X34.02867 Y24.45735
X33.97370 Y24.54188
X33.95264 Y24.64785
X33.95262 Y40.55219
X33.86438 Y40.91584
X33.88277 Y41.01493
X33.92973 Y41.09250
X34.02201 Y41.16545
X34.14137 Y41.19280
X51.94644 Y41.19036
X52.03437 Y41.16877
X52.13620 Y41.08892
X52.18614 Y40.99351
X52.19861 Y40.91564
X52.18601 Y40.83779
X52.10643 Y40.70995
X51.95530 Y40.63065
X51.76907 Y40.44472
X51.66866 Y40.20291
X51.66841 Y39.94124
X51.76838 Y39.69923
X51.95332 Y39.51399
X52.19513 Y39.41358
X52.45680 Y39.41333
X52.70254 Y39.51485
X52.78969 Y39.57010
X52.88875 Y39.58844
X59.72265 Y39.58600
X59.81051 Y39.56441
X59.89377 Y39.50723
X61.64367 Y37.75390
X61.69046 Y37.67648
X61.70890 Y37.57734
X61.70484 Y17.19503
X61.68485 Y17.12910
X61.62775 Y17.04591
X56.19647 Y11.61808
X56.09779 Y11.56533
X56.01991 Y11.55275
X41.89510 Y11.55275
X41.78905 Y11.57386
X41.70455 Y11.62883
X41.65090 Y11.70185
X41.61829 Y11.83708
X41.63650 Y11.92888
X41.66899 Y11.98966
X41.74013 Y12.05938
X41.87341 Y12.12006
X41.97503 Y12.22166
X42.02957 Y12.35329
X42.02957 Y12.97447
X41.82154 Y12.97447
X41.81864 Y12.39520
X41.77760 Y12.31841
X41.72893 Y12.28590
X41.67155 Y12.27447
X39.64227 Y12.27737
X39.56549 Y12.31841
X39.52444 Y12.39520
X39.52157 Y12.97447
X39.31354 Y12.97447
X39.31354 Y12.35326
X39.36803 Y12.22169
X39.46963 Y12.12006
X39.60285 Y12.05938
X39.69216 Y11.95768
X39.71961 Y11.88377
X39.72088 Y11.78303
X39.70089 Y11.71707
X39.64382 Y11.63391
X39.55398 Y11.57386
X39.44799 Y11.55275
X37.89048 Y11.55570
X37.81327 Y11.57414
X37.72305 Y11.63497
X37.66320 Y11.72583
X37.64299 Y11.83274
X37.66270 Y11.93226
X37.69625 Y11.99299
X37.77009 Y12.06271
X37.92589 Y12.16294
X38.00758 Y12.28255
X38.04199 Y12.45230
X38.04197 Y14.09865
X38.01248 Y14.25542
X37.93260 Y14.37957
X37.73577 Y14.53055
X37.69508 Y14.59839
X37.67540 Y14.69760
X37.68314 Y14.76634
X37.72447 Y14.85872
X37.77928 Y14.91579
X37.88523 Y14.98742
X37.96694 Y15.10703
X38.00135 Y15.27678
X38.00133 Y16.92313
X37.97184 Y17.07990
X37.89244 Y17.20331
X37.75375 Y17.32059
X37.72190 Y17.38198
X37.70481 Y17.47428
X37.71256 Y17.54296
X37.75388 Y17.63534
X37.83183 Y17.71076
X37.92589 Y17.77126
X38.00758 Y17.89087
X38.04199 Y18.06062
X38.04197 Y19.70697
X38.01248 Y19.86374
X37.93308 Y19.98715
X37.81344 Y20.06887
X37.64382 Y20.10323
X35.69724 Y20.10323
X35.54060 Y20.07377
X35.41718 Y19.99434
X35.33547 Y19.87473
X35.30111 Y19.70509
X35.30111 Y18.31014
X35.26196 Y18.16890
X34.56230 Y17.45673
X34.46606 Y17.31269
X34.39565 Y17.24053
X34.26506 Y17.19249
X33.90022 Y17.18960
X33.90022 Y16.98155
X34.35447 Y16.97868
X34.40852 Y16.95627
X34.44990 Y16.91490
X34.47520 Y16.83156
X34.47520 Y16.38157
X34.46377 Y16.32419
X34.43624 Y16.28157
X32.76418 Y16.28157
X32.73665 Y16.32419
X32.72524 Y16.38157
X32.72524 Y16.83156
X32.73665 Y16.88896
X32.76916 Y16.93763
X32.84594 Y16.97868
X33.07706 Y16.98155
X33.07599 Y17.18960
X32.80398 Y17.18960
X32.67241 Y17.13512
X32.57170 Y17.03443
X32.51727 Y16.90301
X32.64378 Y16.78244
X32.68323 Y16.68904
X32.68950 Y16.62010
X32.64919 Y16.48594
X32.51803 Y16.31264
X32.50477 Y16.15612
X32.50474 Y15.75584
X32.52423 Y15.62613
X32.50477 Y15.50550
X32.50474 Y15.10583
X32.52423 Y14.97612
X32.50477 Y14.85552
X32.50474 Y14.45735
X32.53423 Y14.30068
X32.61366 Y14.17726
X32.73327 Y14.09555
X32.90454 Y14.06083
X33.03746 Y14.05552
X33.13581 Y14.01450
X33.21226 Y13.93804
X33.27797 Y13.83967
X34.16537 Y12.95224
X34.34350 Y12.83324
X34.55386 Y12.79139
X35.07118 Y12.78735
X35.13679 Y12.76741
X35.21995 Y12.71033
X35.29219 Y12.58272
X35.33057 Y12.29355
X35.40997 Y12.17013
X35.59580 Y12.03972
X35.67647 Y11.92687
X35.69409 Y11.82801
X35.67253 Y11.72255
X35.61238 Y11.63330
X35.54860 Y11.58748
X35.41711 Y11.55278
X21.25262 Y11.55524
X21.11165 Y11.60828
X20.71284 Y12.00673
X20.67144 Y12.07389
X20.65041 Y12.17983
X20.68948 Y12.32105
X20.78610 Y12.41770
X20.89819 Y12.45392
X21.14680 Y12.45679
X21.14680 Y12.66482
X20.44678 Y12.66482
X20.36344 Y12.69012
X20.32207 Y12.73149
X20.29966 Y12.78554
X20.29679 Y13.31483
X20.08732 Y13.31483
X20.06469 Y13.18275
X20.01269 Y13.10492
X19.93974 Y13.05130
X19.86578 Y13.02377
X19.78689 Y13.02092
X19.67980 Y13.05341
X19.61589 Y13.09959
X18.57551 Y14.13997
X18.50823 Y14.25366
X18.49685 Y14.36070
X18.51844 Y14.44853
X18.57551 Y14.53169
X18.66538 Y14.59174
X18.75849 Y14.61226
X18.93030 Y14.59893
X19.27673 Y14.44030
X19.53921 Y14.44005
X19.75869 Y14.52514
X19.88026 Y14.52133
X19.98844 Y14.46486
X20.04211 Y14.40710
X20.07490 Y14.33545
X20.08839 Y13.91480
X20.29679 Y13.91480
X20.29679 Y14.41480
X20.30820 Y14.47220
X20.34071 Y14.52087
X20.38938 Y14.55338
X20.44678 Y14.56479
X21.14680 Y14.56479
X21.14680 Y14.77284
X20.32831 Y14.77358
X20.26090 Y14.78673
X20.16644 Y14.83827
X20.11269 Y14.89611
X20.07993 Y14.96794
X20.06664 Y15.22770
X19.96634 Y15.47045
X19.78140 Y15.65569
X19.53865 Y15.75648
X19.31607 Y15.77243
X19.21765 Y15.83248
X19.17399 Y15.88579
X19.13685 Y15.97870
X19.13192 Y16.20814
X19.03162 Y16.45089
X18.84668 Y16.63613
X18.60487 Y16.73654
X18.34313 Y16.73679
X18.19349 Y16.67494
X18.08747 Y16.65396
X17.98151 Y16.67512
X17.88181 Y16.74614
X17.82448 Y16.84906
X17.81148 Y16.97941
X17.71079 Y17.22305
X17.45194 Y17.46504
X17.40000 Y17.54284
X17.38003 Y17.60875
X17.38135 Y17.70959
X17.44135 Y17.83207
X17.53375 Y17.90507
X17.65301 Y17.93240
X21.04711 Y17.93240
X21.25714 Y17.97418
X21.43522 Y18.09318
X24.69803 Y21.35599
X24.80181 Y21.42101
X24.94791 Y21.43178
X25.04774 Y21.39045
X25.10549 Y21.33678
X25.14352 Y21.27938
X25.16841 Y21.18499
X25.16557 Y21.10610
X25.13803 Y21.03214
X25.02228 Y20.85370
X24.98053 Y20.64380
X24.98050 Y17.24378
X25.00496 Y17.08081
X25.10377 Y16.89310
X26.13183 Y15.62315
X26.19216 Y15.58155
X26.83440 Y15.58155
X26.86422 Y15.63159
X26.83361 Y15.68424
X26.44524 Y15.68665
X26.36315 Y15.70697
X26.27593 Y15.76793
X25.23714 Y17.06217
X25.20212 Y17.13143
X25.18858 Y17.21665
X25.19259 Y20.71740
X25.21248 Y20.78294
X25.26910 Y20.86538
X26.07984 Y21.67610
X25.68070 Y21.67610
X25.57291 Y21.59492
X25.40900 Y21.54423
X25.29937 Y21.54669
X25.15099 Y21.59492
X25.06087 Y21.65733
X24.99790 Y21.72728
X24.92589 Y21.88304
X24.91197 Y21.99172
X24.91936 Y22.06983
X24.94527 Y22.16007
X24.99790 Y22.25619
X25.06087 Y22.32614
X25.15099 Y22.38855
X25.29937 Y22.43678
X25.39330 Y22.44006
X25.48586 Y22.42373
X25.60006 Y22.37287
X25.67415 Y22.31501
X25.74433 Y22.22606
X31.28816 Y22.22606
X32.42250 Y23.36040
X32.42247 Y39.55463
X32.37571 Y39.47172
X32.31274 Y39.40177
X32.16532 Y39.31386
X32.05872 Y39.28867
X31.96461 Y39.28867
X31.80071 Y39.33936
X31.69946 Y39.41290
X31.60772 Y39.53924
X31.56908 Y39.65808
X31.56695 Y39.79400
X31.49484 Y39.88366
X31.46238 Y40.01048
X31.46238 Y40.49816
X31.49718 Y40.62938
X31.54330 Y40.69303
X31.98897 Y41.13530
X32.08221 Y41.18605
X32.14947 Y41.19915
X33.14891 Y41.19748
X33.23611 Y41.17599
X33.31861 Y41.11934
X33.66405 Y40.77390
X33.72366 Y40.68473
X33.74459 Y40.57944
X33.74218 Y22.79159
X33.72067 Y22.70401
X33.66405 Y22.62157
X30.82811 Y19.78563
X30.76487 Y19.73991
X30.63370 Y19.70506
X28.20869 Y19.70506
X28.20866 Y17.62376
X28.22479 Y17.52203
X28.20864 Y17.44474
X28.20803 Y16.98155
X28.45448 Y16.97868
X28.50854 Y16.95627
X28.54991 Y16.91490
X28.57521 Y16.83156
X28.57521 Y16.38157
X28.56378 Y16.32419
X28.53622 Y16.28157
X26.86419 Y16.28157
X26.83666 Y16.32419
X26.82525 Y16.38157
X26.82525 Y16.83156
X26.83666 Y16.88896
X26.86917 Y16.93763
X26.91784 Y16.97014
X26.97524 Y16.98155
X27.65873 Y16.98155
X27.65870 Y19.63247
X26.78728 Y18.76105
X26.77844 Y18.59628
X26.71499 Y18.45371
X26.63125 Y18.36069
X26.49604 Y18.28266
X26.37374 Y18.25663
X26.21847 Y18.27298
X26.05352 Y18.36069
X25.96978 Y18.45371
X25.90633 Y18.59628
X25.89322 Y18.72071
X25.93844 Y18.90191
X26.03018 Y19.02825
X26.18873 Y19.12729
X26.29533 Y19.15248
X26.39935 Y19.15083
X27.42302 Y20.17450
X27.54951 Y20.24618
X30.51973 Y20.25500
X33.19466 Y22.92990
X33.19463 Y40.46557
X33.01030 Y40.64990
X32.72882 Y40.68391
X32.48999 Y40.65854
X32.38526 Y40.59285
X32.33342 Y40.53403
X32.28079 Y40.43791
X32.24749 Y40.26956
X32.28493 Y40.09181
X32.16532 Y40.15849
X32.01234 Y40.18450
X32.01234 Y40.38429
X32.27792 Y40.64993
X32.45824 Y40.64990
G04 P0 ( dwell for no time -- G64 should not smooth over this point )
G00 Z5.00000 ( retract )

G00 X21.74678 Y14.56479 ( rapid move to begin. )
F50.00000
G01 Z-0.05000
G04 P0 ( dwell for no time -- G64 should not smooth over this point )
F100.00000
G01 X21.74678 Y14.56479
X21.74678 Y14.77284
X22.51800 Y14.77284
X22.64957 Y14.71836
X22.75025 Y14.61765
X22.80476 Y14.48600
X22.80479 Y13.91480
X22.59676 Y13.91480
X22.59387 Y14.44409
X22.57146 Y14.49814
X22.53009 Y14.53951
X22.44678 Y14.56479
X21.74678 Y14.56479
G04 P0 ( dwell for no time -- G64 should not smooth over this point )
G00 Z5.00000 ( retract )

G00 X21.74678 Y12.45679 ( rapid move to begin. )
F50.00000
G01 Z-0.05000
G04 P0 ( dwell for no time -- G64 should not smooth over this point )
F100.00000
G01 X21.74678 Y12.45679
X21.74678 Y12.66482
X22.44678 Y12.66482
X22.53009 Y12.69012
X22.57146 Y12.73149
X22.59387 Y12.78554
X22.59676 Y13.31483
X22.80479 Y13.31483
X22.80479 Y12.74366
X22.75025 Y12.61201
X22.64957 Y12.51132
X22.51792 Y12.45679
X21.74678 Y12.45679
G04 P0 ( dwell for no time -- G64 should not smooth over this point )
G00 Z5.00000 ( retract )

G00 X17.37119 Y13.82087 ( rapid move to begin. )
F50.00000
G01 Z-0.05000
G04 P0 ( dwell for no time -- G64 should not smooth over this point )
F100.00000
G01 X17.37119 Y13.82087
X17.82268 Y13.82085
X20.76822 Y10.87531
X20.85740 Y10.81570
X20.96268 Y10.79474
X56.33472 Y10.79474
X56.43998 Y10.81572
X56.50642 Y10.85669
X62.38637 Y16.73255
X62.44299 Y16.81500
X62.46290 Y16.88058
X62.46691 Y37.89212
X62.44598 Y37.99741
X62.38637 Y38.08658
X60.20705 Y40.26590
X60.08053 Y40.33758
X53.64232 Y40.34609
G04 P0 ( dwell for no time -- G64 should not smooth over this point )
G00 Z5.00000 ( retract )

G00 X19.04785 Y19.87080 ( rapid move to begin. )
F50.00000
G01 Z-0.05000
G04 P0 ( dwell for no time -- G64 should not smooth over this point )
F100.00000
G01 X19.04785 Y19.87080
X19.34640 Y19.87080
X19.35821 Y20.00747
X19.43022 Y20.16323
X19.50540 Y20.24306
X19.64061 Y20.32109
X19.74721 Y20.34628
X19.85684 Y20.34382
X20.00523 Y20.29559
X20.09534 Y20.23318
X20.19821 Y20.09571
X20.23685 Y19.97687
X20.23685 Y19.82068
X20.19821 Y19.70184
X20.10647 Y19.57550
X20.03238 Y19.51764
X19.91818 Y19.46678
X19.73593 Y19.45317
X19.62870 Y19.36491
G04 P0 ( dwell for no time -- G64 should not smooth over this point )
G00 Z5.00000 ( retract )

G00 X25.17755 Y24.33802 ( rapid move to begin. )
F50.00000
G01 Z-0.05000
G04 P0 ( dwell for no time -- G64 should not smooth over this point )
F100.00000
G01 X25.17755 Y24.33802
X28.16647 Y24.34297
X28.29733 Y24.39885
X28.35299 Y24.45928
X28.38550 Y24.52365
X28.60902 Y25.17389
X28.62398 Y25.26324
X28.62395 Y26.97807
X28.58776 Y27.16316
X28.58776 Y33.63508
X28.55154 Y33.82050
G04 P0 ( dwell for no time -- G64 should not smooth over this point )
G00 Z5.00000 ( retract )

G00 X28.07402 Y25.49756 ( rapid move to begin. )
F50.00000
G01 Z-0.05000
G04 P0 ( dwell for no time -- G64 should not smooth over this point )
F100.00000
G01 X28.07402 Y25.49756
X28.11870 Y25.75514
X28.08075 Y26.01409
G04 P0 ( dwell for no time -- G64 should not smooth over this point )
G00 Z5.00000 ( retract )

G00 X28.11539 Y25.83992 ( rapid move to begin. )
F50.00000
G01 Z-0.05000
G04 P0 ( dwell for no time -- G64 should not smooth over this point )
F100.00000
G01 X28.11539 Y25.83992
X28.11870 Y25.77721
X28.11870 Y25.75514
G04 P0 ( dwell for no time -- G64 should not smooth over this point )
G00 Z5.00000 ( retract )

G00 X28.18055 Y24.34442 ( rapid move to begin. )
F50.00000
G01 Z-0.05000
G04 P0 ( dwell for no time -- G64 should not smooth over this point )
F100.00000
G01 X28.18055 Y24.34442
X29.10884 Y24.34442
X29.16114 Y24.39672
X29.16114 Y26.64173
X28.68502 Y26.92740
X28.62395 Y26.97807
G04 P0 ( dwell for no time -- G64 should not smooth over this point )
G00 Z5.00000 ( retract )

G00 X29.24521 Y27.76260 ( rapid move to begin. )
F50.00000
G01 Z-0.05000
G04 P0 ( dwell for no time -- G64 should not smooth over this point )
F100.00000
G01 X29.24521 Y27.76260
X29.27851 Y27.59428
X29.33114 Y27.49816
X29.38298 Y27.43934
X29.48423 Y27.36580
X29.64813 Y27.31511
X29.81910 Y27.33062
X29.98405 Y27.41833
X30.06779 Y27.51135
X30.13777 Y27.68452
X30.14435 Y27.77835
X30.11186 Y27.93095
X30.05923 Y28.02707
X29.97015 Y28.11701
X29.97018 Y38.54533
X30.60848 Y39.18364
X30.72804 Y39.18445
X30.87643 Y39.23268
X30.97767 Y39.30622
X31.06941 Y39.43256
X31.10152 Y39.52080
X31.11546 Y39.62948
X31.10152 Y39.73819
X31.06941 Y39.82643
X30.97767 Y39.95277
X30.90358 Y40.01063
X30.81912 Y40.05181
X30.71252 Y40.07700
X30.61841 Y40.07700
X30.51181 Y40.05181
X30.35326 Y39.95277
X30.30142 Y39.89395
X30.24879 Y39.79783
X30.22288 Y39.70759
X30.22055 Y39.57345
X29.50074 Y38.85366
X29.44112 Y38.76446
X29.42309 Y38.68841
X29.42022 Y28.11701
X29.34102 Y28.03928
X29.29124 Y27.95955
X29.25913 Y27.87131
X29.24521 Y27.76260
G04 P0 ( dwell for no time -- G64 should not smooth over this point )
G00 Z5.00000 ( retract )

G00 X34.31505 Y23.86116 ( rapid move to begin. )
F50.00000
G01 Z-0.05000
G04 P0 ( dwell for no time -- G64 should not smooth over this point )
F100.00000
G01 X34.31505 Y23.86116
X34.34835 Y23.69284
X34.40098 Y23.59672
X34.45282 Y23.53790
X34.55407 Y23.46436
X34.71797 Y23.41367
X34.81208 Y23.41367
X34.91868 Y23.43886
X35.05389 Y23.51689
X35.12056 Y23.58621
X37.82614 Y23.58618
X40.39657 Y21.01578
X40.39657 Y19.88273
X39.64227 Y19.87986
X39.56549 Y19.83882
X39.52444 Y19.76203
X39.52157 Y18.03278
X39.54684 Y17.94946
X39.61415 Y17.89422
X39.67156 Y17.88279
X41.70081 Y17.88569
X41.77760 Y17.92673
X41.81864 Y18.00352
X41.82154 Y18.60778
X42.70294 Y18.60778
X42.83142 Y18.47933
X42.83142 Y15.52877
X42.74234 Y15.43883
X42.68971 Y15.34271
X42.65722 Y15.19011
X42.66380 Y15.09628
X42.70244 Y14.97744
X42.79418 Y14.85110
X42.86827 Y14.79324
X42.98247 Y14.74238
X43.07505 Y14.72603
X43.23030 Y14.74238
X43.34450 Y14.79324
X43.41859 Y14.85110
X43.47043 Y14.90992
X43.52306 Y15.00604
X43.55638 Y15.17436
X43.54244 Y15.28307
X43.51033 Y15.37131
X43.46055 Y15.45104
X43.38138 Y15.52877
X43.38138 Y18.59320
X43.34653 Y18.72442
X43.30081 Y18.78766
X43.01125 Y19.07722
X42.88473 Y19.14890
X41.82154 Y19.15744
X41.82154 Y19.46211
X41.86088 Y19.55599
X41.86551 Y19.64433
X41.84392 Y19.72482
X41.79624 Y19.81609
X41.72893 Y19.87133
X41.60333 Y19.88906
X40.94653 Y19.88273
X40.94653 Y21.12965
X40.92822 Y21.22807
X40.89591 Y21.28847
X38.11550 Y24.07117
X38.02180 Y24.12235
X37.94004 Y24.13614
X35.12056 Y24.13614
X35.05389 Y24.20546
X34.91868 Y24.28349
X34.81208 Y24.30868
X34.71797 Y24.30868
X34.55407 Y24.25799
X34.45282 Y24.18445
X34.40098 Y24.12563
X34.34835 Y24.02951
X34.31505 Y23.86116
G04 P0 ( dwell for no time -- G64 should not smooth over this point )
G00 Z5.00000 ( retract )

G00 X28.58672 Y33.65677 ( rapid move to begin. )
F50.00000
G01 Z-0.05000
G04 P0 ( dwell for no time -- G64 should not smooth over this point )
F100.00000
G01 X28.58672 Y33.65677
X28.58776 Y33.63508
G04 P0 ( dwell for no time -- G64 should not smooth over this point )
G00 Z5.00000 ( retract )

G00 X32.44170 Y39.72245 ( rapid move to begin. )
F50.00000
G01 Z-0.05000
G04 P0 ( dwell for no time -- G64 should not smooth over this point )
F100.00000
G01 X32.44170 Y39.72245
X32.44170 Y39.74990
G04 P0 ( dwell for no time -- G64 should not smooth over this point )
G00 Z5.00000 ( retract )

G00 X32.28493 Y40.09181 ( rapid move to begin. )
F50.00000
G01 Z-0.05000
G04 P0 ( dwell for no time -- G64 should not smooth over this point )
F100.00000
G01 X32.28493 Y40.09181
X32.42334 Y39.91561
X32.44170 Y39.72245
X32.42247 Y39.55463
G04 P0 ( dwell for no time -- G64 should not smooth over this point )
G00 Z5.00000 ( retract )

G00 X5.26665 Y5.35053 ( rapid move to begin. )
F50.00000
G01 Z-0.05000
G04 P0 ( dwell for no time -- G64 should not smooth over this point )
F100.00000
G01 X5.26665 Y5.35053
X5.32019 Y5.42963
X5.42265 Y5.50049
X5.52949 Y5.52391
X5.65214 Y5.50151
X5.71981 Y5.46224
X5.78455 Y5.39435
X5.89525 Y5.11591
X5.97594 Y5.33941
X6.02522 Y5.41931
X6.12415 Y5.49478
X6.26116 Y5.52391
X6.36776 Y5.50052
X6.44749 Y5.45137
X6.52313 Y5.35226
X6.54754 Y5.26201
G04 P0 ( dwell for no time -- G64 should not smooth over this point )
G00 Z5.00000 ( retract )

G00 X5.26665 Y5.09224 ( rapid move to begin. )
F50.00000
G01 Z-0.05000
G04 P0 ( dwell for no time -- G64 should not smooth over this point )
F100.00000
G01 X5.26665 Y5.09224
X5.25263 Y5.23146
X5.26665 Y5.35053
X5.26667 Y5.72404
X5.24074 Y5.84603
X5.16738 Y5.94700
X5.07399 Y6.00372
X4.93528 Y6.02239
X4.83071 Y5.99097
X4.76596 Y5.94700
X4.71542 Y5.88718
X4.67732 Y5.80153
X4.66672 Y5.72404
X4.66754 Y4.20837
X4.71542 Y4.06095
X4.76596 Y4.00113
X4.83071 Y3.95716
X4.95100 Y3.92491
X5.07399 Y3.94441
X5.16738 Y4.00113
X5.24074 Y4.10210
X5.26667 Y4.22404
X5.26665 Y5.09224
X5.61864 Y4.10903
X5.66634 Y4.03080
X5.76210 Y3.95569
X5.84945 Y3.92800
X5.97096 Y3.93423
X6.05511 Y3.97070
X6.14274 Y4.05526
X6.52842 Y5.10509
X6.56324 Y5.00489
X6.61419 Y4.93842
X6.56804 Y4.87893
X6.46664 Y4.67248
X6.45422 Y4.41533
X6.47058 Y4.33621
X6.55552 Y4.16135
X6.62999 Y4.06781
X6.84300 Y3.95102
X6.96669 Y3.92407
X7.49806 Y3.92574
X7.60263 Y3.95716
X7.67853 Y4.01228
X7.74073 Y4.10210
X7.76583 Y4.20824
X7.76667 Y5.00976
X7.73972 Y5.13346
X7.66354 Y5.28678
X7.60733 Y5.36476
X7.52938 Y5.42094
X7.37726 Y5.49615
X7.06314 Y5.40268
X6.95605 Y5.41121
X6.76487 Y5.45853
X6.64963 Y5.39635
X6.58282 Y5.33057
X6.54823 Y5.26930
X6.52842 Y5.10509
X6.53025 Y5.12384
G04 P0 ( dwell for no time -- G64 should not smooth over this point )
G00 Z5.00000 ( retract )

G00 X4.25154 Y3.19460 ( rapid move to begin. )
F50.00000
G01 Z-0.05000
G04 P0 ( dwell for no time -- G64 should not smooth over this point )
F100.00000
G01 X4.25154 Y3.19460
X4.25154 Y6.46064
X31.11044 Y6.46064
X31.11044 Y3.19460
X4.25154 Y3.19460

G04 P0 ( dwell for no time -- G64 should not smooth over this point )
G00 Z10.000 ( retract )

M5 ( Spindle off. )
G04 P1.000000M9 ( Coolant off. )
M2 ( Program end. )

