( pcb2gcode 1.3.2 )
( Software-independent Gcode )

G94 ( Millimeters per minute feed rate. )
G21 ( Units == Millimeters. )

G90 ( Absolute coordinates. )
S10000 ( RPM spindle speed. )
G64 P0.01000 ( set maximum deviation from commanded toolpath )
F600.00000 ( Feedrate. )

F600.00000 ( Feedrate. )
M3 ( Spindle on clockwise. )
G04 P1.00000
G04 P0 ( dwell for no time -- G64 should not smooth over this point )
G00 Z5.00000 ( retract )

G00 X0.12579 Y1.62582 ( rapid move to begin. )
G01 Z-2.50000 F300.00000 ( plunge. )
G04 P0 ( dwell for no time -- G64 should not smooth over this point )
F600.00000
G01 X0.12579 Y1.62582
X0.12579 Y41.62582
X0.15459 Y41.91848
X0.23996 Y42.19986
X0.37857 Y42.45919
X0.56511 Y42.68650
X0.79241 Y42.87304
X1.05175 Y43.01164
X1.33313 Y43.09701
X1.62579 Y43.12582
X37.37579 Y43.12582
Z-0.60000
X40.87579 Y43.12582
Z-2.50000 F300.00000
F600.00000
G01 X76.62579 Y43.12582
X76.91842 Y43.09701
X77.19980 Y43.01164
X77.45914 Y42.87304
X77.68644 Y42.68650
X77.87298 Y42.45919
X78.01159 Y42.19986
X78.09696 Y41.91848
X78.12578 Y41.62582
X78.12578 Y1.62582
X78.09696 Y1.33319
X78.01159 Y1.05181
X77.87298 Y0.79248
X77.68644 Y0.56517
X77.45914 Y0.37863
X77.19980 Y0.24003
X76.91842 Y0.15466
X76.62579 Y0.12583
X40.87579 Y0.12583
Z-0.60000
X37.37579 Y0.12583
Z-2.50000 F300.00000
F600.00000
G01 X1.62579 Y0.12583
X1.33313 Y0.15466
X1.05175 Y0.24003
X0.79241 Y0.37863
X0.56511 Y0.56517
X0.37857 Y0.79248
X0.23996 Y1.05181
X0.15459 Y1.33319
X0.12579 Y1.62582

G04 P0 ( dwell for no time -- G64 should not smooth over this point )
G00 Z10.000 ( retract )

M5 ( Spindle off. )
G04 P1.000000M9 ( Coolant off. )
M2 ( Program end. )

