( pcb2gcode 1.3.2 )
( Software-independent Gcode )

G94 ( Millimeters per minute feed rate. )
G21 ( Units == Millimeters. )

G90 ( Absolute coordinates. )
S10000 ( RPM spindle speed. )
G64 P0.01000 ( set maximum deviation from commanded toolpath )
F600.00000 ( Feedrate. )

F600.00000 ( Feedrate. )
M3 ( Spindle on clockwise. )
G04 P1.00000
G04 P0 ( dwell for no time -- G64 should not smooth over this point )
G00 Z5.00000 ( retract )

G00 X95.60232 Y68.85010 ( rapid move to begin. )
F300.00000
G01 Z-0.05000
G04 P0 ( dwell for no time -- G64 should not smooth over this point )
F600.00000
G01 X95.60232 Y68.85010
X95.54365 Y68.82365
X95.50981 Y68.78286
X95.60232 Y68.85010
G04 P0 ( dwell for no time -- G64 should not smooth over this point )
G00 Z5.00000 ( retract )

G00 X94.91924 Y68.19859 ( rapid move to begin. )
F300.00000
G01 Z-0.05000
G04 P0 ( dwell for no time -- G64 should not smooth over this point )
F600.00000
G01 X94.91924 Y68.19859
X94.83506 Y68.08512
X94.79950 Y67.99122
X94.91924 Y68.19859
G04 P0 ( dwell for no time -- G64 should not smooth over this point )
G00 Z5.00000 ( retract )

G00 X94.47540 Y67.13572 ( rapid move to begin. )
F300.00000
G01 Z-0.05000
G04 P0 ( dwell for no time -- G64 should not smooth over this point )
F600.00000
G01 X94.47540 Y67.13572
X94.46407 Y67.02782
X94.46186 Y67.09996
X94.47540 Y67.13572
G04 P0 ( dwell for no time -- G64 should not smooth over this point )
G00 Z5.00000 ( retract )

G00 X94.51073 Y66.02785 ( rapid move to begin. )
F300.00000
G01 Z-0.05000
G04 P0 ( dwell for no time -- G64 should not smooth over this point )
F600.00000
G01 X94.51073 Y66.02785
X94.49354 Y66.06605
X94.49303 Y66.08236
X94.51073 Y66.02785
G04 P0 ( dwell for no time -- G64 should not smooth over this point )
G00 Z5.00000 ( retract )

G00 X94.91916 Y65.12653 ( rapid move to begin. )
F300.00000
G01 Z-0.05000
G04 P0 ( dwell for no time -- G64 should not smooth over this point )
F600.00000
G01 X94.91916 Y65.12653
X94.91538 Y65.12968
X94.90839 Y65.14520
X94.91916 Y65.12653
G04 P0 ( dwell for no time -- G64 should not smooth over this point )
G00 Z5.00000 ( retract )

G00 X95.70092 Y64.40329 ( rapid move to begin. )
F300.00000
G01 Z-0.05000
G04 P0 ( dwell for no time -- G64 should not smooth over this point )
F600.00000
G01 X95.70092 Y64.40329
X95.55599 Y64.48650
X95.50989 Y64.54208
X95.70092 Y64.40329
G04 P0 ( dwell for no time -- G64 should not smooth over this point )
G00 Z5.00000 ( retract )

G00 X96.69028 Y64.04944 ( rapid move to begin. )
F300.00000
G01 Z-0.05000
G04 P0 ( dwell for no time -- G64 should not smooth over this point )
F600.00000
G01 X96.69028 Y64.04944
X96.63910 Y64.04787
X96.56422 Y64.07624
X96.69028 Y64.04944
G04 P0 ( dwell for no time -- G64 should not smooth over this point )
G00 Z5.00000 ( retract )

G00 X97.73422 Y64.10715 ( rapid move to begin. )
F300.00000
G01 Z-0.05000
G04 P0 ( dwell for no time -- G64 should not smooth over this point )
F600.00000
G01 X97.73422 Y64.10715
X97.67298 Y64.07957
X97.59287 Y64.07711
X97.73422 Y64.10715
G04 P0 ( dwell for no time -- G64 should not smooth over this point )
G00 Z5.00000 ( retract )

G00 X98.64316 Y64.54215 ( rapid move to begin. )
F300.00000
G01 Z-0.05000
G04 P0 ( dwell for no time -- G64 should not smooth over this point )
F600.00000
G01 X98.64316 Y64.54215
X98.60935 Y64.50141
X98.55073 Y64.47500
X98.64316 Y64.54215
G04 P0 ( dwell for no time -- G64 should not smooth over this point )
G00 Z5.00000 ( retract )

G00 X99.24491 Y68.17921 ( rapid move to begin. )
F300.00000
G01 Z-0.05000
G04 P0 ( dwell for no time -- G64 should not smooth over this point )
F600.00000
G01 X99.24491 Y68.17921
X99.23762 Y68.19539
X99.23368 Y68.19866
X99.24491 Y68.17921
G04 P0 ( dwell for no time -- G64 should not smooth over this point )
G00 Z5.00000 ( retract )

G00 X92.12051 Y42.80537 ( rapid move to begin. )
F300.00000
G01 Z-0.05000
G04 P0 ( dwell for no time -- G64 should not smooth over this point )
F600.00000
G01 X92.12051 Y42.80537
X92.11096 Y42.80026
X92.08285 Y42.79173
X92.05356 Y42.78881
G04 P0 ( dwell for no time -- G64 should not smooth over this point )
G00 Z5.00000 ( retract )

G00 X92.05356 Y42.28878 ( rapid move to begin. )
F300.00000
G01 Z-0.05000
G04 P0 ( dwell for no time -- G64 should not smooth over this point )
F600.00000
G01 X92.05356 Y42.28878
X91.25356 Y42.28878
X91.18671 Y42.27235
X91.18673 Y42.30532
X91.25356 Y42.28878
G04 P0 ( dwell for no time -- G64 should not smooth over this point )
G00 Z5.00000 ( retract )

G00 X92.12051 Y42.27220 ( rapid move to begin. )
F300.00000
G01 Z-0.05000
G04 P0 ( dwell for no time -- G64 should not smooth over this point )
F600.00000
G01 X92.12051 Y42.27220
X92.05356 Y42.28878
X92.12051 Y42.30537
G04 P0 ( dwell for no time -- G64 should not smooth over this point )
G00 Z5.00000 ( retract )

G00 X92.05356 Y41.78878 ( rapid move to begin. )
F300.00000
G01 Z-0.05000
G04 P0 ( dwell for no time -- G64 should not smooth over this point )
F600.00000
G01 X92.05356 Y41.78878
X91.25356 Y41.78878
X91.18671 Y41.77235
X91.18673 Y41.80529
X91.25356 Y41.78878
G04 P0 ( dwell for no time -- G64 should not smooth over this point )
G00 Z5.00000 ( retract )

G00 X92.12051 Y41.77220 ( rapid move to begin. )
F300.00000
G01 Z-0.05000
G04 P0 ( dwell for no time -- G64 should not smooth over this point )
F600.00000
G01 X92.12051 Y41.77220
X92.05356 Y41.78878
X92.12051 Y41.80534
G04 P0 ( dwell for no time -- G64 should not smooth over this point )
G00 Z5.00000 ( retract )

G00 X92.05356 Y41.28878 ( rapid move to begin. )
F300.00000
G01 Z-0.05000
G04 P0 ( dwell for no time -- G64 should not smooth over this point )
F600.00000
G01 X92.05356 Y41.28878
X91.25356 Y41.28878
X91.18671 Y41.27235
X91.18673 Y41.30529
X91.25356 Y41.28878
G04 P0 ( dwell for no time -- G64 should not smooth over this point )
G00 Z5.00000 ( retract )

G00 X92.12051 Y41.27220 ( rapid move to begin. )
F300.00000
G01 Z-0.05000
G04 P0 ( dwell for no time -- G64 should not smooth over this point )
F600.00000
G01 X92.12051 Y41.27220
X92.05356 Y41.28878
X92.12051 Y41.30535
G04 P0 ( dwell for no time -- G64 should not smooth over this point )
G00 Z5.00000 ( retract )

G00 X92.12051 Y40.80535 ( rapid move to begin. )
F300.00000
G01 Z-0.05000
G04 P0 ( dwell for no time -- G64 should not smooth over this point )
F600.00000
G01 X92.12051 Y40.80535
X92.17101 Y40.89163
X92.18175 Y40.95775
X92.17972 Y41.13880
X92.11891 Y41.28663
X92.17101 Y41.39163
X92.18175 Y41.45775
X92.17972 Y41.63880
X92.11891 Y41.78662
X92.17101 Y41.89163
X92.18175 Y41.95774
X92.17972 Y42.13880
X92.11891 Y42.28662
X92.17101 Y42.39163
X92.18175 Y42.45777
X92.17972 Y42.63882
X92.11891 Y42.78662
X92.18000 Y42.93884
X92.16979 Y43.18792
X92.14155 Y43.22927
X92.09814 Y43.25700
X92.03476 Y43.26701
X91.27393 Y43.26701
X91.20451 Y43.25505
X91.16316 Y43.22678
X91.13543 Y43.18342
X91.12745 Y42.93882
X91.13847 Y42.88632
X91.19618 Y42.80026
X91.25356 Y42.78881
X92.05356 Y42.78881
X92.12051 Y42.77225
G04 P0 ( dwell for no time -- G64 should not smooth over this point )
G00 Z5.00000 ( retract )

G00 X92.12051 Y40.77220 ( rapid move to begin. )
F300.00000
G01 Z-0.05000
G04 P0 ( dwell for no time -- G64 should not smooth over this point )
F600.00000
G01 X92.12051 Y40.77220
X92.16870 Y40.69133
X92.17972 Y40.63880
X92.18175 Y40.45775
X92.17104 Y40.39176
X92.11843 Y40.28879
X91.76954 Y40.28907
X92.05356 Y40.28881
X92.11991 Y40.30502
G04 P0 ( dwell for no time -- G64 should not smooth over this point )
G00 Z5.00000 ( retract )

G00 X92.05356 Y40.78879 ( rapid move to begin. )
F300.00000
G01 Z-0.05000
G04 P0 ( dwell for no time -- G64 should not smooth over this point )
F600.00000
G01 X92.05356 Y40.78879
X92.12051 Y40.77220
X92.12051 Y40.80535
X92.05356 Y40.78879
X91.25356 Y40.78879
X91.18671 Y40.77235
X91.18673 Y40.80530
X91.25356 Y40.78879
G04 P0 ( dwell for no time -- G64 should not smooth over this point )
G00 Z5.00000 ( retract )

G00 X91.73535 Y40.29458 ( rapid move to begin. )
F300.00000
G01 Z-0.05000
G04 P0 ( dwell for no time -- G64 should not smooth over this point )
F600.00000
G01 X91.73535 Y40.29458
X91.76954 Y40.28907
X91.25356 Y40.28881
X91.18679 Y40.30527
X91.18844 Y40.28879
X91.53616 Y40.28884
G04 P0 ( dwell for no time -- G64 should not smooth over this point )
G00 Z5.00000 ( retract )

G00 X91.77104 Y39.78879 ( rapid move to begin. )
F300.00000
G01 Z-0.05000
G04 P0 ( dwell for no time -- G64 should not smooth over this point )
F600.00000
G01 X91.77104 Y39.78879
X92.11876 Y39.78884
X92.12049 Y39.77225
X92.05356 Y39.78879
X91.53893 Y39.80131
X91.08379 Y39.80126
X90.98483 Y39.78876
X79.02669 Y39.78328
X78.95613 Y39.76801
X78.86034 Y39.70164
X77.29697 Y38.14320
X77.26837 Y38.12293
X77.12220 Y38.11384
X77.06233 Y38.09377
X76.96771 Y38.04985
X76.91219 Y38.00058
X76.84937 Y37.93172
X76.78516 Y37.77713
X76.78529 Y37.60982
X76.86901 Y37.43253
X76.96835 Y37.33733
X77.06235 Y37.29387
X77.14823 Y37.27099
X77.28994 Y37.27381
X77.44445 Y37.33781
X77.56052 Y37.45300
X77.58892 Y37.50904
X77.62720 Y37.61135
X77.63482 Y37.75554
X77.67310 Y37.80558
X79.09606 Y39.23027
X79.15788 Y39.28089
X79.18559 Y39.28533
X83.47080 Y39.28810
X83.59704 Y39.26382
X84.41083 Y39.26385
X84.54989 Y39.28881
X90.98483 Y39.28881
X91.08381 Y39.27632
X91.53885 Y39.27632
X91.76791 Y39.28952
G04 P0 ( dwell for no time -- G64 should not smooth over this point )
G00 Z5.00000 ( retract )

G00 X92.12049 Y39.77225 ( rapid move to begin. )
F300.00000
G01 Z-0.05000
G04 P0 ( dwell for no time -- G64 should not smooth over this point )
F600.00000
G01 X92.12049 Y39.77225
X92.16870 Y39.69133
X92.17972 Y39.63880
X92.18175 Y39.45775
X92.17104 Y39.39176
X92.11843 Y39.28879
X91.76921 Y39.28925
X92.05356 Y39.28881
X92.11991 Y39.30502
G04 P0 ( dwell for no time -- G64 should not smooth over this point )
G00 Z5.00000 ( retract )

G00 X91.18679 Y40.30527 ( rapid move to begin. )
F300.00000
G01 Z-0.05000
G04 P0 ( dwell for no time -- G64 should not smooth over this point )
F600.00000
G01 X91.18679 Y40.30527
X91.13847 Y40.38627
X91.12539 Y40.45925
X91.13619 Y40.68607
X91.18671 Y40.77235
G04 P0 ( dwell for no time -- G64 should not smooth over this point )
G00 Z5.00000 ( retract )

G00 X91.18673 Y40.80530 ( rapid move to begin. )
F300.00000
G01 Z-0.05000
G04 P0 ( dwell for no time -- G64 should not smooth over this point )
F600.00000
G01 X91.18673 Y40.80530
X91.13845 Y40.88632
X91.12539 Y40.95922
X91.13619 Y41.18607
X91.18671 Y41.27235
G04 P0 ( dwell for no time -- G64 should not smooth over this point )
G00 Z5.00000 ( retract )

G00 X91.18673 Y41.30529 ( rapid move to begin. )
F300.00000
G01 Z-0.05000
G04 P0 ( dwell for no time -- G64 should not smooth over this point )
F600.00000
G01 X91.18673 Y41.30529
X91.13847 Y41.38632
X91.12539 Y41.45924
X91.13619 Y41.68607
X91.18671 Y41.77235
G04 P0 ( dwell for no time -- G64 should not smooth over this point )
G00 Z5.00000 ( retract )

G00 X91.18673 Y41.80529 ( rapid move to begin. )
F300.00000
G01 Z-0.05000
G04 P0 ( dwell for no time -- G64 should not smooth over this point )
F600.00000
G01 X91.18673 Y41.80529
X91.13847 Y41.88632
X91.12539 Y41.95924
X91.13619 Y42.18606
X91.18671 Y42.27235
G04 P0 ( dwell for no time -- G64 should not smooth over this point )
G00 Z5.00000 ( retract )

G00 X91.18673 Y42.30532 ( rapid move to begin. )
F300.00000
G01 Z-0.05000
G04 P0 ( dwell for no time -- G64 should not smooth over this point )
F600.00000
G01 X91.18673 Y42.30532
X91.13847 Y42.38632
X91.12539 Y42.45927
X91.13619 Y42.68606
X91.18671 Y42.77235
G04 P0 ( dwell for no time -- G64 should not smooth over this point )
G00 Z5.00000 ( retract )

G00 X91.25356 Y42.78881 ( rapid move to begin. )
F300.00000
G01 Z-0.05000
G04 P0 ( dwell for no time -- G64 should not smooth over this point )
F600.00000
G01 X91.25356 Y42.78881
X91.18671 Y42.77235
X91.18673 Y42.80532
G04 P0 ( dwell for no time -- G64 should not smooth over this point )
G00 Z5.00000 ( retract )

G00 X91.77104 Y38.78879 ( rapid move to begin. )
F300.00000
G01 Z-0.05000
G04 P0 ( dwell for no time -- G64 should not smooth over this point )
F600.00000
G01 X91.77104 Y38.78879
X91.53896 Y38.80131
X91.08379 Y38.80131
X90.98483 Y38.78881
X84.59140 Y38.78881
X84.45192 Y38.81358
G04 P0 ( dwell for no time -- G64 should not smooth over this point )
G00 Z5.00000 ( retract )

G00 X92.05356 Y38.28879 ( rapid move to begin. )
F300.00000
G01 Z-0.05000
G04 P0 ( dwell for no time -- G64 should not smooth over this point )
F600.00000
G01 X92.05356 Y38.28879
X84.24014 Y38.28882
X84.12724 Y38.30174
X84.06285 Y38.33050
X83.95604 Y38.32834
X83.84944 Y38.35353
X83.76498 Y38.39471
X83.66826 Y38.47769
X83.64718 Y38.38953
X83.58495 Y38.31378
X84.08451 Y38.31378
G04 P0 ( dwell for no time -- G64 should not smooth over this point )
G00 Z5.00000 ( retract )

G00 X92.12051 Y38.27220 ( rapid move to begin. )
F300.00000
G01 Z-0.05000
G04 P0 ( dwell for no time -- G64 should not smooth over this point )
F600.00000
G01 X92.12051 Y38.27220
X92.05356 Y38.28879
X92.12051 Y38.30535
G04 P0 ( dwell for no time -- G64 should not smooth over this point )
G00 Z5.00000 ( retract )

G00 X92.12051 Y37.80535 ( rapid move to begin. )
F300.00000
G01 Z-0.05000
G04 P0 ( dwell for no time -- G64 should not smooth over this point )
F600.00000
G01 X92.12051 Y37.80535
X92.17098 Y37.89161
X92.18175 Y37.95775
X92.17972 Y38.13880
X92.11891 Y38.28663
X92.18000 Y38.43880
X92.16870 Y38.69133
X92.11876 Y38.78884
X91.77104 Y38.78879
X92.05356 Y38.78879
X92.12049 Y38.77225
G04 P0 ( dwell for no time -- G64 should not smooth over this point )
G00 Z5.00000 ( retract )

G00 X92.12051 Y37.77223 ( rapid move to begin. )
F300.00000
G01 Z-0.05000
G04 P0 ( dwell for no time -- G64 should not smooth over this point )
F600.00000
G01 X92.12051 Y37.77223
X92.16872 Y37.69128
X92.17972 Y37.63880
X92.18175 Y37.45775
X92.17104 Y37.39179
X92.11843 Y37.28879
X91.76918 Y37.28925
X92.05356 Y37.28882
X92.11988 Y37.30500
G04 P0 ( dwell for no time -- G64 should not smooth over this point )
G00 Z5.00000 ( retract )

G00 X92.05356 Y37.78879 ( rapid move to begin. )
F300.00000
G01 Z-0.05000
G04 P0 ( dwell for no time -- G64 should not smooth over this point )
F600.00000
G01 X92.05356 Y37.78879
X92.12051 Y37.77223
X92.12051 Y37.80535
X92.05356 Y37.78879
X90.54869 Y37.78122
X90.48112 Y37.76382
X90.44056 Y37.73327
X90.19352 Y37.48620
X80.13113 Y37.48620
X80.20233 Y37.58219
X80.20936 Y37.68971
X80.29026 Y37.61747
X80.37472 Y37.57629
X80.48132 Y37.55110
X80.57543 Y37.55110
X80.68203 Y37.57629
X80.76649 Y37.61747
X80.84058 Y37.67533
X80.91050 Y37.76382
X90.48112 Y37.76382
G04 P0 ( dwell for no time -- G64 should not smooth over this point )
G00 Z5.00000 ( retract )

G00 X91.77111 Y36.78882 ( rapid move to begin. )
F300.00000
G01 Z-0.05000
G04 P0 ( dwell for no time -- G64 should not smooth over this point )
F600.00000
G01 X91.77111 Y36.78882
X91.53888 Y36.80132
X90.70563 Y36.79674
X90.56530 Y36.93708
X90.55814 Y37.00556
X90.56530 Y37.10439
X90.74178 Y37.28089
X91.53883 Y37.27632
X91.76791 Y37.28953
G04 P0 ( dwell for no time -- G64 should not smooth over this point )
G00 Z5.00000 ( retract )

G00 X92.05356 Y36.28879 ( rapid move to begin. )
F300.00000
G01 Z-0.05000
G04 P0 ( dwell for no time -- G64 should not smooth over this point )
F600.00000
G01 X92.05356 Y36.28879
X90.52537 Y36.29484
X90.42707 Y36.32578
X90.23401 Y36.51661
X90.22451 Y36.41684
X90.19946 Y36.36385
X90.15024 Y36.31381
X90.44495 Y36.31381
G04 P0 ( dwell for no time -- G64 should not smooth over this point )
G00 Z5.00000 ( retract )

G00 X92.12051 Y36.27223 ( rapid move to begin. )
F300.00000
G01 Z-0.05000
G04 P0 ( dwell for no time -- G64 should not smooth over this point )
F600.00000
G01 X92.12051 Y36.27223
X92.05356 Y36.28879
X92.12051 Y36.30536
G04 P0 ( dwell for no time -- G64 should not smooth over this point )
G00 Z5.00000 ( retract )

G00 X92.05356 Y35.78880 ( rapid move to begin. )
F300.00000
G01 Z-0.05000
G04 P0 ( dwell for no time -- G64 should not smooth over this point )
F600.00000
G01 X92.05356 Y35.78880
X71.26214 Y35.79004
X71.13295 Y35.81381
X71.09236 Y35.84440
X69.91736 Y37.01935
X69.85386 Y37.01686
X69.90936 Y36.93507
X69.92384 Y36.85590
X69.90948 Y36.77680
X69.85363 Y36.69433
X70.01403 Y36.66832
X70.17258 Y36.56929
X70.22442 Y36.51046
X70.27705 Y36.41435
X70.30296 Y36.32410
X70.30674 Y36.20378
X70.69673 Y35.81379
X71.13295 Y35.81381
G04 P0 ( dwell for no time -- G64 should not smooth over this point )
G00 Z5.00000 ( retract )

G00 X92.12051 Y35.77223 ( rapid move to begin. )
F300.00000
G01 Z-0.05000
G04 P0 ( dwell for no time -- G64 should not smooth over this point )
F600.00000
G01 X92.12051 Y35.77223
X92.05356 Y35.78880
X92.12051 Y35.80536
G04 P0 ( dwell for no time -- G64 should not smooth over this point )
G00 Z5.00000 ( retract )

G00 X92.05356 Y35.28880 ( rapid move to begin. )
F300.00000
G01 Z-0.05000
G04 P0 ( dwell for no time -- G64 should not smooth over this point )
F600.00000
G01 X92.05356 Y35.28880
X70.58281 Y35.28882
X70.42899 Y35.31379
X70.21771 Y35.51506
X70.20926 Y35.41661
X70.17928 Y35.35781
X70.13527 Y35.31379
X70.42899 Y35.31379
G04 P0 ( dwell for no time -- G64 should not smooth over this point )
G00 Z5.00000 ( retract )

G00 X92.12051 Y35.27224 ( rapid move to begin. )
F300.00000
G01 Z-0.05000
G04 P0 ( dwell for no time -- G64 should not smooth over this point )
F600.00000
G01 X92.12051 Y35.27224
X92.05356 Y35.28880
X92.12051 Y35.30536
G04 P0 ( dwell for no time -- G64 should not smooth over this point )
G00 Z5.00000 ( retract )

G00 X92.12051 Y34.80536 ( rapid move to begin. )
F300.00000
G01 Z-0.05000
G04 P0 ( dwell for no time -- G64 should not smooth over this point )
F600.00000
G01 X92.12051 Y34.80536
X92.17101 Y34.89162
X92.18175 Y34.95776
X92.17972 Y35.13881
X92.11891 Y35.28654
X92.17101 Y35.39162
X92.18175 Y35.45776
X92.17972 Y35.63881
X92.11891 Y35.78653
X92.17101 Y35.89161
X92.18175 Y35.95776
X92.17972 Y36.13881
X92.11891 Y36.28653
X92.18000 Y36.43883
X92.17972 Y36.63881
X92.11876 Y36.78884
X91.77111 Y36.78882
X92.05356 Y36.78879
X92.12049 Y36.77226
G04 P0 ( dwell for no time -- G64 should not smooth over this point )
G00 Z5.00000 ( retract )

G00 X92.12051 Y34.77224 ( rapid move to begin. )
F300.00000
G01 Z-0.05000
G04 P0 ( dwell for no time -- G64 should not smooth over this point )
F600.00000
G01 X92.12051 Y34.77224
X92.16872 Y34.69131
X92.17972 Y34.63881
X92.18175 Y34.45776
X92.17104 Y34.39180
X92.11843 Y34.28880
X91.76916 Y34.28926
X92.05356 Y34.28882
X92.11988 Y34.30500
G04 P0 ( dwell for no time -- G64 should not smooth over this point )
G00 Z5.00000 ( retract )

G00 X92.05356 Y34.78880 ( rapid move to begin. )
F300.00000
G01 Z-0.05000
G04 P0 ( dwell for no time -- G64 should not smooth over this point )
F600.00000
G01 X92.05356 Y34.78880
X92.12051 Y34.77224
X92.12051 Y34.80536
X92.05356 Y34.78880
X65.25265 Y34.79281
X65.16065 Y34.81382
X65.12004 Y34.84442
X62.07204 Y37.89448
X62.07115 Y37.82262
X62.02888 Y37.72976
X61.96261 Y37.67251
X61.88115 Y37.64444
X61.96688 Y37.55694
X62.01951 Y37.46083
X62.04542 Y37.37058
X62.05042 Y37.26174
X64.49837 Y34.81379
X65.16065 Y34.81382
G04 P0 ( dwell for no time -- G64 should not smooth over this point )
G00 Z5.00000 ( retract )

G00 X91.77111 Y33.78882 ( rapid move to begin. )
F300.00000
G01 Z-0.05000
G04 P0 ( dwell for no time -- G64 should not smooth over this point )
F600.00000
G01 X91.77111 Y33.78882
X92.11876 Y33.78885
X92.12049 Y33.77224
X92.05356 Y33.78880
X91.53888 Y33.80132
X91.08379 Y33.80132
X90.98483 Y33.78882
X81.98574 Y33.78913
X81.91551 Y33.79810
X81.82833 Y33.86937
X81.65163 Y33.95814
X81.62534 Y34.00257
X81.60819 Y34.08867
X81.62523 Y34.17478
X81.67395 Y34.24780
X81.72648 Y34.27457
X81.83311 Y34.28926
X90.98483 Y34.28885
X91.08381 Y34.27635
X91.53883 Y34.27633
X91.76916 Y34.28926
G04 P0 ( dwell for no time -- G64 should not smooth over this point )
G00 Z5.00000 ( retract )

G00 X92.12049 Y33.77224 ( rapid move to begin. )
F300.00000
G01 Z-0.05000
G04 P0 ( dwell for no time -- G64 should not smooth over this point )
F600.00000
G01 X92.12049 Y33.77224
X92.16870 Y33.69136
X92.17972 Y33.63881
X92.18175 Y33.45776
X92.17104 Y33.39180
X92.11843 Y33.28880
X91.76903 Y33.28928
X92.05356 Y33.28883
X92.11988 Y33.30501
G04 P0 ( dwell for no time -- G64 should not smooth over this point )
G00 Z5.00000 ( retract )

G00 X91.77109 Y32.78880 ( rapid move to begin. )
F300.00000
G01 Z-0.05000
G04 P0 ( dwell for no time -- G64 should not smooth over this point )
F600.00000
G01 X91.77109 Y32.78880
X91.53888 Y32.80132
X91.08379 Y32.80132
X90.98483 Y32.78883
X81.94995 Y32.78883
X81.84373 Y32.80346
X81.79092 Y32.82972
X81.74213 Y32.90272
X81.72521 Y32.98141
X81.75213 Y33.09365
X81.95597 Y33.27768
X82.04980 Y33.28880
X90.98483 Y33.28880
X91.08381 Y33.27633
X91.53888 Y33.27633
X91.76903 Y33.28928
G04 P0 ( dwell for no time -- G64 should not smooth over this point )
G00 Z5.00000 ( retract )

G00 X92.12051 Y32.30536 ( rapid move to begin. )
F300.00000
G01 Z-0.05000
G04 P0 ( dwell for no time -- G64 should not smooth over this point )
F600.00000
G01 X92.12051 Y32.30536
X92.17101 Y32.39162
X92.18175 Y32.61855
X92.16870 Y32.69137
X92.11876 Y32.78885
X91.77109 Y32.78880
X92.05356 Y32.78880
X92.12049 Y32.77224
G04 P0 ( dwell for no time -- G64 should not smooth over this point )
G00 Z5.00000 ( retract )

G00 X92.12051 Y32.27224 ( rapid move to begin. )
F300.00000
G01 Z-0.05000
G04 P0 ( dwell for no time -- G64 should not smooth over this point )
F600.00000
G01 X92.12051 Y32.27224
X92.16872 Y32.19132
X92.17972 Y32.13882
X92.18175 Y31.95776
X92.17104 Y31.89180
X92.11843 Y31.78880
X91.76903 Y31.78929
X92.05356 Y31.78883
X92.11988 Y31.80501
G04 P0 ( dwell for no time -- G64 should not smooth over this point )
G00 Z5.00000 ( retract )

G00 X92.05356 Y32.28880 ( rapid move to begin. )
F300.00000
G01 Z-0.05000
G04 P0 ( dwell for no time -- G64 should not smooth over this point )
F600.00000
G01 X92.05356 Y32.28880
X92.12051 Y32.27224
X92.12051 Y32.30536
X92.05356 Y32.28880
X20.12089 Y32.28883
X19.99429 Y32.30554
X19.92648 Y32.34440
X19.14276 Y33.12807
X19.03872 Y33.12642
X18.91327 Y33.15997
X19.75945 Y32.31380
X19.96707 Y32.31380
G04 P0 ( dwell for no time -- G64 should not smooth over this point )
G00 Z5.00000 ( retract )

G00 X91.77111 Y31.28883 ( rapid move to begin. )
F300.00000
G01 Z-0.05000
G04 P0 ( dwell for no time -- G64 should not smooth over this point )
F600.00000
G01 X91.77111 Y31.28883
X91.53891 Y31.30133
X91.08379 Y31.30133
X90.98483 Y31.28883
X19.91754 Y31.28883
X19.83798 Y31.29675
X19.77532 Y31.34821
X19.64187 Y31.48662
X19.59546 Y31.56338
X17.47139 Y33.68743
X17.61368 Y33.68179
X19.45111 Y31.84440
X19.54027 Y31.78482
X19.64553 Y31.76384
X19.81754 Y31.78880
X90.98483 Y31.78880
X91.08381 Y31.77633
X91.53888 Y31.77633
X91.76903 Y31.78929
G04 P0 ( dwell for no time -- G64 should not smooth over this point )
G00 Z5.00000 ( retract )

G00 X92.12051 Y30.80537 ( rapid move to begin. )
F300.00000
G01 Z-0.05000
G04 P0 ( dwell for no time -- G64 should not smooth over this point )
F600.00000
G01 X92.12051 Y30.80537
X92.17101 Y30.89162
X92.18175 Y31.11855
X92.16870 Y31.19137
X92.11876 Y31.28886
X91.77111 Y31.28883
X92.05356 Y31.28880
X92.12049 Y31.27224
G04 P0 ( dwell for no time -- G64 should not smooth over this point )
G00 Z5.00000 ( retract )

G00 X92.12051 Y30.77224 ( rapid move to begin. )
F300.00000
G01 Z-0.05000
G04 P0 ( dwell for no time -- G64 should not smooth over this point )
F600.00000
G01 X92.12051 Y30.77224
X92.16872 Y30.69132
X92.17972 Y30.63882
X92.18175 Y30.45777
X92.17104 Y30.39180
X92.11843 Y30.28881
X91.76903 Y30.28929
X92.05356 Y30.28883
X92.11988 Y30.30501
G04 P0 ( dwell for no time -- G64 should not smooth over this point )
G00 Z5.00000 ( retract )

G00 X92.05356 Y30.78881 ( rapid move to begin. )
F300.00000
G01 Z-0.05000
G04 P0 ( dwell for no time -- G64 should not smooth over this point )
F600.00000
G01 X92.05356 Y30.78881
X92.12051 Y30.77224
X92.12051 Y30.80537
X92.05356 Y30.78881
X19.73112 Y30.78883
X19.60453 Y30.80554
X19.53671 Y30.84441
X16.08968 Y34.29139
X15.94739 Y34.29703
X19.43064 Y30.81382
X19.57730 Y30.81382
G04 P0 ( dwell for no time -- G64 should not smooth over this point )
G00 Z5.00000 ( retract )

G00 X91.76903 Y30.28929 ( rapid move to begin. )
F300.00000
G01 Z-0.05000
G04 P0 ( dwell for no time -- G64 should not smooth over this point )
F600.00000
G01 X91.76903 Y30.28929
X91.53888 Y30.27633
X91.08381 Y30.27633
X90.98483 Y30.28881
X67.51411 Y30.28810
X67.39095 Y30.26386
X66.92239 Y30.26384
X66.97553 Y30.20095
X66.99796 Y30.14690
X67.00654 Y30.08904
X66.98366 Y29.99285
X67.12392 Y30.02683
X67.20233 Y30.02602
X67.30893 Y30.00082
X67.51157 Y29.81708
X67.57606 Y29.66254
X67.57997 Y29.56536
X67.57622 Y29.49526
X67.51200 Y29.34065
X67.38048 Y29.21512
X67.23840 Y29.15825
X67.09293 Y29.14941
X67.02529 Y29.09498
X64.00840 Y26.07810
X63.88877 Y26.00581
X63.79781 Y25.99214
X50.37305 Y25.99097
X50.28773 Y25.98114
X50.17831 Y25.88536
X50.08288 Y25.84099
X50.02304 Y25.82095
X49.90780 Y25.81676
X49.79545 Y25.84101
X49.66439 Y25.91609
X49.58288 Y26.00240
X49.51839 Y26.15696
X49.51826 Y26.32427
X49.58468 Y26.48175
X49.70081 Y26.59699
X49.82012 Y26.65003
X49.90782 Y26.66514
X50.02233 Y26.66113
X50.08288 Y26.64091
X50.17762 Y26.59702
X50.28771 Y26.50078
X50.37305 Y26.49097
X63.71089 Y26.49887
X66.67172 Y29.44850
X66.72653 Y29.51677
X66.73415 Y29.66102
X66.79859 Y29.81642
X66.98366 Y29.99285
G04 P0 ( dwell for no time -- G64 should not smooth over this point )
G00 Z5.00000 ( retract )

G00 X92.05356 Y29.78881 ( rapid move to begin. )
F300.00000
G01 Z-0.05000
G04 P0 ( dwell for no time -- G64 should not smooth over this point )
F600.00000
G01 X92.05356 Y29.78881
X91.08379 Y29.80130
X90.98483 Y29.78881
X70.52376 Y29.78764
X70.44449 Y29.77720
X70.31329 Y29.70171
X64.05979 Y23.44821
X63.99791 Y23.39753
X63.93299 Y23.39034
X26.50754 Y23.39532
X26.43073 Y23.44821
X21.95187 Y27.92706
X21.89706 Y27.99529
X21.88926 Y28.14080
X21.79759 Y28.36135
X21.82015 Y28.45449
X21.86726 Y28.51962
X22.02109 Y28.55554
X30.18142 Y28.56102
X30.23347 Y28.57258
X30.31309 Y28.62815
X30.98444 Y29.29148
X31.01612 Y29.31253
X31.19336 Y29.31068
X31.27926 Y29.33349
X31.37393 Y29.37745
X31.49000 Y29.49264
X31.55648 Y29.65020
X31.55632 Y29.81736
X31.44431 Y30.05769
G04 P0 ( dwell for no time -- G64 should not smooth over this point )
G00 Z5.00000 ( retract )

G00 X92.12051 Y29.30537 ( rapid move to begin. )
F300.00000
G01 Z-0.05000
G04 P0 ( dwell for no time -- G64 should not smooth over this point )
F600.00000
G01 X92.12051 Y29.30537
X92.17101 Y29.39165
X92.18000 Y29.43885
X92.17972 Y29.63882
X92.11876 Y29.78883
X92.05356 Y29.78881
X92.12049 Y29.77225
G04 P0 ( dwell for no time -- G64 should not smooth over this point )
G00 Z5.00000 ( retract )

G00 X92.12051 Y29.27220 ( rapid move to begin. )
F300.00000
G01 Z-0.05000
G04 P0 ( dwell for no time -- G64 should not smooth over this point )
F600.00000
G01 X92.12051 Y29.27220
X92.16870 Y29.19132
X92.17972 Y29.13880
X92.18000 Y28.93880
X92.11843 Y28.78881
X92.05356 Y28.78881
X92.11988 Y28.80499
G04 P0 ( dwell for no time -- G64 should not smooth over this point )
G00 Z5.00000 ( retract )

G00 X92.05356 Y29.28878 ( rapid move to begin. )
F300.00000
G01 Z-0.05000
G04 P0 ( dwell for no time -- G64 should not smooth over this point )
F600.00000
G01 X92.05356 Y29.28878
X92.12051 Y29.27220
X92.12051 Y29.30537
X92.05356 Y29.28878
X71.03620 Y29.28761
X70.93404 Y29.27212
X70.86615 Y29.23326
X64.40487 Y22.77196
X26.08074 Y22.77196
X26.12905 Y22.82202
X26.15410 Y22.87500
X26.16319 Y22.97330
X26.27376 Y22.88857
X26.36134 Y22.86705
X64.13401 Y22.86751
X64.21000 Y22.88557
X64.29918 Y22.94518
X70.61784 Y29.26387
X70.90677 Y29.26387
G04 P0 ( dwell for no time -- G64 should not smooth over this point )
G00 Z5.00000 ( retract )

G00 X91.76791 Y28.78952 ( rapid move to begin. )
F300.00000
G01 Z-0.05000
G04 P0 ( dwell for no time -- G64 should not smooth over this point )
F600.00000
G01 X91.76791 Y28.78952
X91.53885 Y28.77631
X91.08381 Y28.77631
X90.98483 Y28.78881
X71.16739 Y28.78088
X64.70944 Y22.33414
X64.61376 Y22.26784
X64.49898 Y22.24699
X25.51148 Y22.24699
X25.39672 Y22.26784
X25.30104 Y22.33409
X21.99912 Y25.63428
X21.94971 Y25.67215
X21.80506 Y25.68084
X21.74369 Y25.70131
X21.64969 Y25.74480
X21.59355 Y25.79448
X21.53112 Y25.86270
X21.46663 Y26.01726
X21.46650 Y26.18457
X21.53292 Y26.34205
X21.64905 Y26.45729
X21.80356 Y26.52128
X21.97057 Y26.52143
X22.12513 Y26.45772
X22.24369 Y26.33982
X22.30841 Y26.18450
X22.31616 Y26.03949
X22.37097 Y25.97126
X25.53665 Y22.80559
X25.59850 Y22.75491
X25.65339 Y22.74821
X25.96662 Y22.74821
X26.08074 Y22.77196
G04 P0 ( dwell for no time -- G64 should not smooth over this point )
G00 Z5.00000 ( retract )

G00 X92.05356 Y28.78881 ( rapid move to begin. )
F300.00000
G01 Z-0.05000
G04 P0 ( dwell for no time -- G64 should not smooth over this point )
F600.00000
G01 X92.05356 Y28.78881
X91.77121 Y28.78881
G04 P0 ( dwell for no time -- G64 should not smooth over this point )
G00 Z5.00000 ( retract )

G00 X90.10629 Y36.30035 ( rapid move to begin. )
F300.00000
G01 Z-0.05000
G04 P0 ( dwell for no time -- G64 should not smooth over this point )
F600.00000
G01 X90.10629 Y36.30035
X90.15024 Y36.31381
X90.02702 Y36.28956
X71.44850 Y36.29004
X71.39363 Y36.29674
X71.33176 Y36.34742
X70.32742 Y37.35346
X70.28914 Y37.40347
X70.28139 Y37.54846
X70.25355 Y37.62593
X70.21667 Y37.70378
X70.15424 Y37.77200
X70.06173 Y37.84045
X69.94355 Y37.88539
X69.89173 Y37.88943
X69.74134 Y37.87429
X69.63514 Y37.82859
X69.58558 Y37.79011
X69.50590 Y37.70601
X69.47753 Y37.64998
X69.43948 Y37.54853
X69.43570 Y37.47835
X69.43961 Y37.38122
X69.52333 Y37.20393
X69.62302 Y37.10845
X69.85386 Y37.01686
G04 P0 ( dwell for no time -- G64 should not smooth over this point )
G00 Z5.00000 ( retract )

G00 X90.22026 Y36.54419 ( rapid move to begin. )
F300.00000
G01 Z-0.05000
G04 P0 ( dwell for no time -- G64 should not smooth over this point )
F600.00000
G01 X90.22026 Y36.54419
X90.23401 Y36.51661
X90.07823 Y36.73525
X90.03238 Y36.93624
X90.01099 Y36.93624
X90.03238 Y36.91737
G04 P0 ( dwell for no time -- G64 should not smooth over this point )
G00 Z5.00000 ( retract )

G00 X90.01099 Y36.93624 ( rapid move to begin. )
F300.00000
G01 Z-0.05000
G04 P0 ( dwell for no time -- G64 should not smooth over this point )
F600.00000
G01 X90.01099 Y36.93624
X89.87109 Y36.96121
X79.58554 Y36.96123
X79.47078 Y36.98206
X79.40959 Y37.02153
X79.14289 Y37.26725
X78.99743 Y37.27619
X78.85531 Y37.33291
X78.80581 Y37.37149
X78.72430 Y37.45780
X78.66568 Y37.59451
X78.65968 Y37.77967
X78.72389 Y37.93426
X78.84223 Y38.05239
X78.99674 Y38.11638
X79.16375 Y38.11653
X79.31831 Y38.05282
X79.43512 Y37.93720
X79.50136 Y37.78038
X79.50934 Y37.63461
X79.67256 Y37.46916
X79.99174 Y37.46123
X80.13113 Y37.48620
G04 P0 ( dwell for no time -- G64 should not smooth over this point )
G00 Z5.00000 ( retract )

G00 X84.43280 Y38.84906 ( rapid move to begin. )
F300.00000
G01 Z-0.05000
G04 P0 ( dwell for no time -- G64 should not smooth over this point )
F600.00000
G01 X84.43280 Y38.84906
X84.44956 Y38.81538
X84.32508 Y39.09003
X84.34204 Y39.17484
X84.41431 Y39.26529
G04 P0 ( dwell for no time -- G64 should not smooth over this point )
G00 Z5.00000 ( retract )

G00 X84.32642 Y39.08678 ( rapid move to begin. )
F300.00000
G01 Z-0.05000
G04 P0 ( dwell for no time -- G64 should not smooth over this point )
F600.00000
G01 X84.32642 Y39.08678
X84.24121 Y39.15699
X84.15675 Y39.19816
X84.05015 Y39.22336
X83.97174 Y39.22417
X83.79213 Y39.17266
X83.67971 Y39.08671
X83.66399 Y39.17502
X83.59704 Y39.26382
G04 P0 ( dwell for no time -- G64 should not smooth over this point )
G00 Z5.00000 ( retract )

G00 X83.67971 Y39.08671 ( rapid move to begin. )
F300.00000
G01 Z-0.05000
G04 P0 ( dwell for no time -- G64 should not smooth over this point )
F600.00000
G01 X83.67971 Y39.08671
X83.58822 Y38.87766
X83.57842 Y38.78899
X83.58233 Y38.69186
X83.66826 Y38.47769
G04 P0 ( dwell for no time -- G64 should not smooth over this point )
G00 Z5.00000 ( retract )

G00 X83.58124 Y38.31236 ( rapid move to begin. )
F300.00000
G01 Z-0.05000
G04 P0 ( dwell for no time -- G64 should not smooth over this point )
F600.00000
G01 X83.58124 Y38.31236
X83.44555 Y38.28882
X80.90964 Y38.28915
X80.84010 Y38.29796
X80.75366 Y38.36207
X80.61155 Y38.41879
X80.44454 Y38.41864
X80.30314 Y38.36199
X80.23451 Y38.30538
X80.17169 Y38.23652
X80.10748 Y38.08193
X80.10761 Y37.91462
X80.20936 Y37.68971
G04 P0 ( dwell for no time -- G64 should not smooth over this point )
G00 Z5.00000 ( retract )

G00 X83.92487 Y41.03346 ( rapid move to begin. )
F300.00000
G01 Z-0.05000
G04 P0 ( dwell for no time -- G64 should not smooth over this point )
F600.00000
G01 X83.92487 Y41.03346
X83.91512 Y41.14845
X83.85591 Y41.28630
X83.78413 Y41.37453
X83.77517 Y41.45556
X83.77517 Y59.96269
X83.76282 Y60.04666
X83.74652 Y60.09733
X83.68070 Y60.19073
X78.86987 Y65.00156
X78.76598 Y65.07332
X78.67340 Y65.09262
X16.84002 Y65.08830
X16.77657 Y65.07329
X16.67269 Y65.00154
X3.29951 Y51.62836
X3.22775 Y51.52448
X3.20845 Y51.43199
X3.20502 Y36.62435
X3.19608 Y36.54343
X3.12389 Y36.45458
X3.06514 Y36.31734
X3.05536 Y36.20238
X3.05925 Y36.13154
X3.09720 Y36.03078
X3.12549 Y35.97470
X3.20525 Y35.89067
X3.25475 Y35.85209
X3.36100 Y35.80650
X3.51134 Y35.79136
X3.56390 Y35.79553
X3.68135 Y35.84036
X3.77388 Y35.90876
X3.83674 Y35.97767
X3.86288 Y36.03076
X3.90096 Y36.13228
X3.90471 Y36.20238
X3.89496 Y36.31737
X3.83575 Y36.45522
X3.76397 Y36.54345
X3.75501 Y36.62448
X3.76293 Y51.30279
X16.99824 Y64.53809
X78.51854 Y64.54195
X78.54432 Y64.53812
X78.60614 Y64.48744
X83.21657 Y59.86487
X83.22518 Y41.45546
X83.21624 Y41.37451
X83.14405 Y41.28566
X83.08530 Y41.14842
X83.07552 Y41.03346
X83.07941 Y40.96262
X83.11736 Y40.86186
X83.14390 Y40.80806
X83.20633 Y40.73984
X83.29882 Y40.67141
X83.41705 Y40.62645
X83.46882 Y40.62242
X83.61921 Y40.63753
X83.72538 Y40.68322
X83.77496 Y40.72170
X83.85464 Y40.80580
X83.88304 Y40.86184
X83.92112 Y40.96336
X83.92487 Y41.03346
G04 P0 ( dwell for no time -- G64 should not smooth over this point )
G00 Z5.00000 ( retract )

G00 X81.48360 Y34.26472 ( rapid move to begin. )
F300.00000
G01 Z-0.05000
G04 P0 ( dwell for no time -- G64 should not smooth over this point )
F600.00000
G01 X81.48360 Y34.26472
X81.36176 Y34.28854
X64.36007 Y34.29439
X64.28956 Y34.30965
X64.19380 Y34.37597
X61.74247 Y36.82555
X61.68776 Y36.86670
X61.52035 Y36.87213
X61.45913 Y36.89255
X61.36513 Y36.93604
X61.30899 Y36.98572
X61.24656 Y37.05394
X61.20968 Y37.13179
X61.18189 Y37.20914
X61.17567 Y37.37876
X61.13762 Y37.43070
X59.75106 Y38.80751
X51.07155 Y38.81541
X50.98621 Y38.80560
X50.87681 Y38.70982
X50.78138 Y38.66545
X50.72154 Y38.64541
X50.60632 Y38.64122
X50.51864 Y38.65638
X50.39995 Y38.70893
X50.28313 Y38.82458
X50.21689 Y38.98142
X50.21676 Y39.14873
X50.28097 Y39.30332
X50.36286 Y39.39031
X50.49393 Y39.46537
X50.60630 Y39.48960
X50.72083 Y39.48559
X50.78138 Y39.46537
X50.87612 Y39.42148
X50.98621 Y39.32524
X51.07152 Y39.31541
X59.85787 Y39.31348
X59.95284 Y39.29460
X60.04854 Y39.22831
X61.51169 Y37.76624
X61.56498 Y37.72478
X61.68563 Y37.71292
X61.88115 Y37.64444
X61.86530 Y37.64876
G04 P0 ( dwell for no time -- G64 should not smooth over this point )
G00 Z5.00000 ( retract )

G00 X81.69491 Y34.26472 ( rapid move to begin. )
F300.00000
G01 Z-0.05000
G04 P0 ( dwell for no time -- G64 should not smooth over this point )
F600.00000
G01 X81.69491 Y34.26472
X81.48360 Y34.26472
X81.54169 Y34.20127
X81.56902 Y34.12565
X81.56778 Y34.04501
X81.52778 Y33.95687
X81.65163 Y33.95814
G04 P0 ( dwell for no time -- G64 should not smooth over this point )
G00 Z5.00000 ( retract )

G00 X81.52778 Y33.95687 ( rapid move to begin. )
F300.00000
G01 Z-0.05000
G04 P0 ( dwell for no time -- G64 should not smooth over this point )
F600.00000
G01 X81.52778 Y33.95687
X81.35178 Y33.86904
X81.29623 Y33.81974
X81.23341 Y33.75088
X81.16920 Y33.59629
X81.16933 Y33.42898
X81.23382 Y33.27445
X81.42739 Y33.09467
G04 P0 ( dwell for no time -- G64 should not smooth over this point )
G00 Z5.00000 ( retract )

G00 X81.36936 Y32.81379 ( rapid move to begin. )
F300.00000
G01 Z-0.05000
G04 P0 ( dwell for no time -- G64 should not smooth over this point )
F600.00000
G01 X81.36936 Y32.81379
X81.23052 Y32.78883
X20.30730 Y32.78883
X20.22775 Y32.79675
X20.18418 Y32.83084
X19.55937 Y33.45494
X19.51515 Y33.51240
X19.50656 Y33.65796
X19.47895 Y33.73465
X19.44207 Y33.81250
X19.37964 Y33.88072
X19.28713 Y33.94917
X19.16895 Y33.99411
X19.11713 Y33.99815
X19.00194 Y33.99396
X18.84743 Y33.92997
X18.72909 Y33.81184
X18.64116 Y33.63267
X18.64319 Y33.49584
X18.67024 Y33.40300
X18.78645 Y33.26226
X18.91327 Y33.15997
G04 P0 ( dwell for no time -- G64 should not smooth over this point )
G00 Z5.00000 ( retract )

G00 X81.81091 Y32.81379 ( rapid move to begin. )
F300.00000
G01 Z-0.05000
G04 P0 ( dwell for no time -- G64 should not smooth over this point )
F600.00000
G01 X81.81091 Y32.81379
X81.36936 Y32.81379
X81.41767 Y32.86391
X81.45122 Y32.94511
X81.45117 Y33.03282
X81.42739 Y33.09467
X81.54304 Y33.06546
X81.63715 Y33.06546
X81.74375 Y33.09065
X81.79011 Y33.12601
G04 P0 ( dwell for no time -- G64 should not smooth over this point )
G00 Z5.00000 ( retract )

G00 X70.19615 Y35.55567 ( rapid move to begin. )
F300.00000
G01 Z-0.05000
G04 P0 ( dwell for no time -- G64 should not smooth over this point )
F600.00000
G01 X70.19615 Y35.55567
X70.21771 Y35.51506
X70.14631 Y35.62136
X69.93504 Y35.81872
X69.77725 Y35.82585
X69.62267 Y35.88956
X69.50410 Y36.00746
X69.43961 Y36.16202
X69.43948 Y36.32933
X69.50590 Y36.48681
X69.62239 Y36.60236
X69.85363 Y36.69433
G04 P0 ( dwell for no time -- G64 should not smooth over this point )
G00 Z5.00000 ( retract )

G00 X70.13527 Y35.31379 ( rapid move to begin. )
F300.00000
G01 Z-0.05000
G04 P0 ( dwell for no time -- G64 should not smooth over this point )
F600.00000
G01 X70.13527 Y35.31379
X69.99643 Y35.28882
X65.42133 Y35.29675
X60.55129 Y40.16054
X60.53488 Y40.18320
X60.52698 Y40.26301
X60.53267 Y40.98726
X60.53711 Y41.00966
X60.63368 Y41.11863
X60.69182 Y41.25467
X60.69774 Y41.44052
X60.63325 Y41.59506
X60.55172 Y41.68137
X60.47831 Y41.73173
X60.36013 Y41.77667
X60.24562 Y41.78068
X60.15792 Y41.76557
X60.05172 Y41.71987
X59.92027 Y41.59440
X59.85606 Y41.43981
X59.85228 Y41.36963
X59.85619 Y41.27250
X59.89414 Y41.17174
X60.02124 Y40.98736
X60.02695 Y40.09628
X60.04781 Y39.98137
X60.11502 Y39.88645
X61.99246 Y38.00840
X62.07204 Y37.89448
G04 P0 ( dwell for no time -- G64 should not smooth over this point )
G00 Z5.00000 ( retract )

G00 X67.43481 Y30.27730 ( rapid move to begin. )
F300.00000
G01 Z-0.05000
G04 P0 ( dwell for no time -- G64 should not smooth over this point )
F600.00000
G01 X67.43481 Y30.27730
X67.38104 Y30.25723
X67.31660 Y30.16069
X67.30527 Y30.07402
X67.32666 Y29.99295
G04 P0 ( dwell for no time -- G64 should not smooth over this point )
G00 Z5.00000 ( retract )

G00 X66.92239 Y30.26384 ( rapid move to begin. )
F300.00000
G01 Z-0.05000
G04 P0 ( dwell for no time -- G64 should not smooth over this point )
F600.00000
G01 X66.92239 Y30.26384
X66.78155 Y30.28881
X61.94798 Y30.28317
X61.87435 Y30.26336
X61.80671 Y30.17479
X61.79439 Y30.12734
X61.85344 Y29.94448
X61.85360 Y29.77720
X61.78938 Y29.62259
X61.72652 Y29.55368
X61.67105 Y29.50445
X61.55169 Y29.45137
X61.46398 Y29.43628
X61.31077 Y29.44205
X61.09782 Y29.30857
X60.98362 Y29.28787
X50.15773 Y29.27994
X48.88390 Y28.00611
X48.87628 Y25.43316
X48.88616 Y25.35844
X48.98189 Y25.25092
X49.04676 Y25.09562
X49.04692 Y24.92834
X49.00884 Y24.82682
X48.98044 Y24.77078
X48.86437 Y24.65559
X48.70986 Y24.59159
X48.59462 Y24.58740
X48.50696 Y24.60256
X48.38827 Y24.65511
X48.27145 Y24.77076
X48.23282 Y24.85089
X48.20521 Y24.92760
X48.20508 Y25.09491
X48.26968 Y25.25026
X48.36581 Y25.35841
X48.37496 Y25.41866
X48.37597 Y28.09313
X48.39683 Y28.20791
X48.46310 Y28.30359
X49.86027 Y29.70077
X49.95596 Y29.76704
X50.07061 Y29.78787
X60.82139 Y29.78817
X60.91517 Y29.80212
X60.98885 Y29.86323
X61.07191 Y30.12901
X61.13158 Y30.19485
X61.22169 Y30.25726
X61.40130 Y30.28632
X61.62886 Y30.26384
X61.87552 Y30.26384
G04 P0 ( dwell for no time -- G64 should not smooth over this point )
G00 Z5.00000 ( retract )

G00 X61.79439 Y30.12734 ( rapid move to begin. )
F300.00000
G01 Z-0.05000
G04 P0 ( dwell for no time -- G64 should not smooth over this point )
F600.00000
G01 X61.79439 Y30.12734
X61.73373 Y30.19485
X61.62886 Y30.26384
G04 P0 ( dwell for no time -- G64 should not smooth over this point )
G00 Z5.00000 ( retract )

G00 X61.23648 Y30.26384 ( rapid move to begin. )
F300.00000
G01 Z-0.05000
G04 P0 ( dwell for no time -- G64 should not smooth over this point )
F600.00000
G01 X61.23648 Y30.26384
X60.98865 Y30.26384
X61.04534 Y30.20130
X61.07191 Y30.12901
G04 P0 ( dwell for no time -- G64 should not smooth over this point )
G00 Z5.00000 ( retract )

G00 X60.98865 Y30.26384 ( rapid move to begin. )
F300.00000
G01 Z-0.05000
G04 P0 ( dwell for no time -- G64 should not smooth over this point )
F600.00000
G01 X60.98865 Y30.26384
X60.85075 Y30.28881
X31.66420 Y30.28881
X31.55726 Y30.27402
X31.50438 Y30.24712
X31.45574 Y30.17336
X31.44192 Y30.06229
X31.28919 Y30.15576
X31.18259 Y30.18096
X31.10418 Y30.18177
X30.92457 Y30.13026
X30.82590 Y30.05442
X30.81998 Y30.16107
X30.74794 Y30.26386
X31.52503 Y30.26384
G04 P0 ( dwell for no time -- G64 should not smooth over this point )
G00 Z5.00000 ( retract )

G00 X65.40827 Y48.80586 ( rapid move to begin. )
F300.00000
G01 Z-0.05000
G04 P0 ( dwell for no time -- G64 should not smooth over this point )
F600.00000
G01 X65.40827 Y48.80586
X65.40436 Y48.90304
X65.32064 Y49.08031
X65.20886 Y49.18247
X65.10261 Y49.22806
X65.01490 Y49.24323
X64.89974 Y49.23904
X64.83985 Y49.21897
X64.74450 Y49.17465
X64.63500 Y49.07884
X64.54968 Y49.06901
X23.60391 Y49.06784
X23.48916 Y49.04818
X23.39347 Y48.98191
X6.83585 Y32.42429
X6.76813 Y32.36983
X6.62277 Y32.36099
X6.56209 Y32.34067
X6.46747 Y32.29675
X6.41195 Y32.24748
X6.34913 Y32.17862
X6.28492 Y32.02403
X6.28505 Y31.85672
X6.36877 Y31.67943
X6.46811 Y31.58423
X6.58680 Y31.53168
X6.64799 Y31.51789
X6.78970 Y31.52071
X6.93102 Y31.57732
X6.99968 Y31.63394
X7.06254 Y31.70285
X7.08868 Y31.75594
X7.12696 Y31.85825
X7.13458 Y32.00244
X7.18942 Y32.07077
X23.69093 Y48.56108
X64.54970 Y48.56901
X64.63502 Y48.55920
X64.74513 Y48.46296
X64.83987 Y48.41907
X64.90045 Y48.39885
X65.01490 Y48.39484
X65.06746 Y48.39901
X65.18491 Y48.44384
X65.27744 Y48.51224
X65.34030 Y48.58115
X65.36644 Y48.63424
X65.40452 Y48.73576
X65.40827 Y48.80586
G04 P0 ( dwell for no time -- G64 should not smooth over this point )
G00 Z5.00000 ( retract )

G00 X30.82590 Y30.05442 ( rapid move to begin. )
F300.00000
G01 Z-0.05000
G04 P0 ( dwell for no time -- G64 should not smooth over this point )
F600.00000
G01 X30.82590 Y30.05442
X30.71464 Y29.81687
X30.71487 Y29.61466
X30.69519 Y29.58398
X30.13357 Y29.01434
X30.07152 Y28.96346
X30.01658 Y28.95678
X11.78209 Y28.95556
X11.67935 Y28.96915
X11.57292 Y29.08043
X11.49949 Y29.13079
X11.38131 Y29.17573
X11.26678 Y29.17974
X11.21430 Y29.17558
X11.09680 Y29.13074
X11.00427 Y29.06232
X10.94145 Y28.99346
X10.91529 Y28.94032
X10.87724 Y28.83887
X10.87346 Y28.76869
X10.87737 Y28.67156
X10.96109 Y28.49427
X11.07287 Y28.39211
X11.17912 Y28.34652
X11.26678 Y28.33136
X11.38202 Y28.33555
X11.49947 Y28.38038
X11.57308 Y28.43042
X11.67925 Y28.54212
X11.78194 Y28.55554
X20.91537 Y28.55554
X21.06310 Y28.52399
X21.11690 Y28.45508
X21.13750 Y28.35968
X21.25733 Y28.45386
X21.43694 Y28.50537
X21.51535 Y28.50456
X21.62195 Y28.47936
X21.70641 Y28.43819
X21.79759 Y28.36135
G04 P0 ( dwell for no time -- G64 should not smooth over this point )
G00 Z5.00000 ( retract )

G00 X30.74794 Y30.26386 ( rapid move to begin. )
F300.00000
G01 Z-0.05000
G04 P0 ( dwell for no time -- G64 should not smooth over this point )
F600.00000
G01 X30.74794 Y30.26386
X30.60715 Y30.28881
X19.29292 Y30.29429
X19.22180 Y30.30966
X19.12612 Y30.37593
X16.53885 Y32.96315
X16.45331 Y33.02802
X16.39737 Y33.04669
X16.31132 Y33.02957
X16.26108 Y32.99947
X16.18455 Y32.89368
X16.21714 Y32.72479
X16.21742 Y32.55596
X16.15320 Y32.40135
X16.05607 Y32.29266
X16.04454 Y31.88482
X16.02455 Y31.79035
X15.98666 Y31.72932
X14.05930 Y29.79412
X13.96317 Y29.72894
X13.84871 Y29.70816
X6.37258 Y29.70697
X6.25782 Y29.72782
X6.16214 Y29.79407
X5.46344 Y30.49277
X5.39717 Y30.58845
X5.37631 Y30.70321
X5.37631 Y34.05758
X5.35132 Y34.19698
X5.35132 Y34.29368
X5.37631 Y34.43165
X5.37631 Y37.21937
X5.39714 Y37.33413
X5.46468 Y37.43880
X5.46941 Y37.58597
X5.53379 Y37.74122
X5.65213 Y37.85935
X5.83265 Y37.92610
X5.97365 Y37.92349
X6.12821 Y37.85978
X6.24677 Y37.74188
X6.31126 Y37.58734
X6.31142 Y37.42006
X6.24720 Y37.26545
X6.12846 Y37.14696
X5.91144 Y37.05496
X5.88782 Y36.99756
X5.91144 Y37.05496
G04 P0 ( dwell for no time -- G64 should not smooth over this point )
G00 Z5.00000 ( retract )

G00 X26.16319 Y22.97330 ( rapid move to begin. )
F300.00000
G01 Z-0.05000
G04 P0 ( dwell for no time -- G64 should not smooth over this point )
F600.00000
G01 X26.16319 Y22.97330
X26.08339 Y23.08841
X21.59833 Y27.57347
X21.53061 Y27.62795
X21.38596 Y27.63664
X21.26694 Y27.68185
X21.13125 Y27.79577
X21.04753 Y27.97306
X21.04362 Y28.07019
X21.04740 Y28.14035
X21.13750 Y28.35968
G04 P0 ( dwell for no time -- G64 should not smooth over this point )
G00 Z5.00000 ( retract )

G00 X21.88174 Y28.53057 ( rapid move to begin. )
F300.00000
G01 Z-0.05000
G04 P0 ( dwell for no time -- G64 should not smooth over this point )
F600.00000
G01 X21.88174 Y28.53057
X21.05421 Y28.53057
X21.02269 Y28.54103
G04 P0 ( dwell for no time -- G64 should not smooth over this point )
G00 Z5.00000 ( retract )

G00 X19.67801 Y31.76384 ( rapid move to begin. )
F300.00000
G01 Z-0.05000
G04 P0 ( dwell for no time -- G64 should not smooth over this point )
F600.00000
G01 X19.67801 Y31.76384
X19.60971 Y31.67494
X19.59694 Y31.55980
G04 P0 ( dwell for no time -- G64 should not smooth over this point )
G00 Z5.00000 ( retract )

G00 X18.67024 Y33.40300 ( rapid move to begin. )
F300.00000
G01 Z-0.05000
G04 P0 ( dwell for no time -- G64 should not smooth over this point )
F600.00000
G01 X18.67024 Y33.40300
X18.48256 Y33.59068
X18.56636 Y33.59558
X18.64116 Y33.63267
G04 P0 ( dwell for no time -- G64 should not smooth over this point )
G00 Z5.00000 ( retract )

G00 X18.45312 Y33.60544 ( rapid move to begin. )
F300.00000
G01 Z-0.05000
G04 P0 ( dwell for no time -- G64 should not smooth over this point )
F600.00000
G01 X18.45312 Y33.60544
X18.48256 Y33.59068
X18.36646 Y33.67145
X17.99859 Y34.04737
X17.98500 Y34.07341
X17.97748 Y34.21168
X17.89376 Y34.38895
X17.79443 Y34.48412
X17.61454 Y34.55049
X17.47286 Y34.54768
X17.31835 Y34.48369
X17.20001 Y34.36558
X17.11701 Y34.22088
X17.05511 Y34.19243
X16.97124 Y34.18758
X17.11543 Y34.04338
X17.17621 Y33.94425
X17.27340 Y33.83040
X17.47139 Y33.68743
G04 P0 ( dwell for no time -- G64 should not smooth over this point )
G00 Z5.00000 ( retract )

G00 X17.11749 Y34.22156 ( rapid move to begin. )
F300.00000
G01 Z-0.05000
G04 P0 ( dwell for no time -- G64 should not smooth over this point )
F600.00000
G01 X17.11749 Y34.22156
X17.11543 Y34.04338
G04 P0 ( dwell for no time -- G64 should not smooth over this point )
G00 Z5.00000 ( retract )

G00 X16.97124 Y34.18758 ( rapid move to begin. )
F300.00000
G01 Z-0.05000
G04 P0 ( dwell for no time -- G64 should not smooth over this point )
F600.00000
G01 X16.97124 Y34.18758
X16.85523 Y34.26830
X16.47459 Y34.65697
X16.46100 Y34.68301
X16.45348 Y34.82128
X16.36976 Y34.99855
X16.27043 Y35.09372
X16.11587 Y35.15743
X15.94886 Y35.15728
X15.80746 Y35.10063
X15.67822 Y34.97805
X15.59301 Y34.83048
X15.53111 Y34.80203
X15.44724 Y34.79718
X15.59143 Y34.65301
X15.65221 Y34.55385
X15.74940 Y34.44000
X15.94739 Y34.29703
G04 P0 ( dwell for no time -- G64 should not smooth over this point )
G00 Z5.00000 ( retract )

G00 X16.42285 Y33.04384 ( rapid move to begin. )
F300.00000
G01 Z-0.05000
G04 P0 ( dwell for no time -- G64 should not smooth over this point )
F600.00000
G01 X16.42285 Y33.04384
X14.55044 Y34.91623
X14.44640 Y34.91458
X14.33980 Y34.93977
X14.18125 Y35.03881
X14.08951 Y35.16515
X14.05087 Y35.28400
X14.05087 Y35.44018
X14.07726 Y35.53154
X14.25473 Y35.71790
X14.40962 Y35.78212
X14.57663 Y35.78227
X14.71874 Y35.72555
X14.83052 Y35.62339
X14.87630 Y35.54686
X14.91424 Y35.44612
X14.92176 Y35.30785
X14.93535 Y35.28181
X15.33123 Y34.87790
X15.44724 Y34.79718
G04 P0 ( dwell for no time -- G64 should not smooth over this point )
G00 Z5.00000 ( retract )

G00 X16.18622 Y32.83620 ( rapid move to begin. )
F300.00000
G01 Z-0.05000
G04 P0 ( dwell for no time -- G64 should not smooth over this point )
F600.00000
G01 X16.18622 Y32.83620
X16.16052 Y32.90366
X16.08534 Y32.98349
X16.00743 Y33.03602
X15.85905 Y33.08425
X15.74942 Y33.08672
X15.67256 Y33.07120
X15.55836 Y33.02035
X15.48427 Y32.96249
X15.43243 Y32.90366
X15.37980 Y32.80755
X15.34647 Y32.63920
X15.36042 Y32.53051
X15.39253 Y32.44227
X15.44231 Y32.36254
X15.52148 Y32.28481
X15.52148 Y31.99871
X13.75473 Y30.23194
X12.30264 Y30.23194
X12.35098 Y30.28208
X12.37602 Y30.33514
X12.38336 Y30.44862
X12.48052 Y30.39825
X12.60282 Y30.37222
X12.75809 Y30.38858
X12.87229 Y30.43943
X12.99822 Y30.55612
X13.05085 Y30.65223
X13.07676 Y30.74248
X13.08189 Y36.15245
X14.43088 Y37.50142
X14.43086 Y37.43919
X14.45877 Y37.36380
X14.51203 Y37.30076
X14.55887 Y37.28732
X14.99971 Y37.27701
X15.05465 Y37.28371
X15.09829 Y37.31788
X16.44454 Y38.66415
X16.48279 Y38.71411
X16.49041 Y38.85836
X16.52869 Y38.96062
X16.55706 Y39.01665
X16.67319 Y39.13189
X16.82770 Y39.19588
X16.96938 Y39.19869
X17.11289 Y39.15109
X17.18630 Y39.10073
X17.26608 Y39.01670
X17.29438 Y38.96062
X17.33232 Y38.85988
X17.33623 Y38.76270
X17.33248 Y38.69260
X17.29440 Y38.59108
X17.26600 Y38.53504
X17.18632 Y38.45094
X17.13674 Y38.41246
X17.03057 Y38.36677
X16.84911 Y38.34675
X16.79979 Y38.30896
X15.31701 Y36.83563
X15.25648 Y36.79664
X15.14170 Y36.77579
X14.53451 Y36.76718
X13.83210 Y36.07592
X13.79126 Y36.02489
X13.78333 Y35.94531
X13.78455 Y35.71110
X13.80868 Y35.59550
X13.86474 Y35.54468
X13.93251 Y35.51669
X13.99090 Y35.51100
X14.07759 Y35.53190
G04 P0 ( dwell for no time -- G64 should not smooth over this point )
G00 Z5.00000 ( retract )

G00 X15.59349 Y34.83116 ( rapid move to begin. )
F300.00000
G01 Z-0.05000
G04 P0 ( dwell for no time -- G64 should not smooth over this point )
F600.00000
G01 X15.59349 Y34.83116
X15.59143 Y34.65301
G04 P0 ( dwell for no time -- G64 should not smooth over this point )
G00 Z5.00000 ( retract )

G00 X14.51203 Y37.30076 ( rapid move to begin. )
F300.00000
G01 Z-0.05000
G04 P0 ( dwell for no time -- G64 should not smooth over this point )
F600.00000
G01 X14.51203 Y37.30076
X14.36664 Y37.29390
X14.25214 Y37.23599
X13.33911 Y36.32636
X13.27930 Y36.23698
X13.26124 Y36.16098
X13.25834 Y32.26716
X13.17917 Y32.18944
X13.12939 Y32.10971
X13.09728 Y32.02147
X13.08333 Y31.91276
X13.11666 Y31.74443
X13.16929 Y31.64832
X13.22113 Y31.58949
X13.32237 Y31.51596
X13.48628 Y31.46526
X13.65725 Y31.48078
X13.74429 Y31.51596
X13.83441 Y31.57836
X13.93728 Y31.71583
X13.98249 Y31.89703
X13.97592 Y31.99086
X13.93728 Y32.10971
X13.88750 Y32.18944
X13.80833 Y32.26716
X13.80688 Y35.60010
G04 P0 ( dwell for no time -- G64 should not smooth over this point )
G00 Z5.00000 ( retract )

G00 X14.43088 Y37.50142 ( rapid move to begin. )
F300.00000
G01 Z-0.05000
G04 P0 ( dwell for no time -- G64 should not smooth over this point )
F600.00000
G01 X14.43088 Y37.50142
X14.51135 Y37.61724
X23.32449 Y46.43038
X23.41755 Y46.49924
X23.60020 Y46.48984
X23.68791 Y46.50493
X23.80727 Y46.55801
X23.86274 Y46.60724
X23.92560 Y46.67615
X23.95174 Y46.72924
X23.98982 Y46.83076
X23.99357 Y46.90086
X23.98966 Y46.99804
X23.96205 Y47.07473
X23.92517 Y47.15258
X23.86274 Y47.22080
X23.77023 Y47.28925
X23.65205 Y47.33419
X23.60020 Y47.33823
X23.44984 Y47.32309
X23.33053 Y47.27005
X23.27501 Y47.22078
X23.21219 Y47.15192
X23.14016 Y46.96584
X23.08649 Y46.89947
X12.64493 Y36.45623
X12.59629 Y36.39283
X12.55689 Y36.24653
X12.55568 Y31.35761
X12.53566 Y31.25413
X12.39586 Y31.17664
X12.27749 Y31.05848
X12.21328 Y30.90389
X12.20950 Y30.83371
X12.21341 Y30.73658
X12.25136 Y30.63582
X12.38336 Y30.44862
G04 P0 ( dwell for no time -- G64 should not smooth over this point )
G00 Z5.00000 ( retract )

G00 X12.30264 Y30.23194 ( rapid move to begin. )
F300.00000
G01 Z-0.05000
G04 P0 ( dwell for no time -- G64 should not smooth over this point )
F600.00000
G01 X12.30264 Y30.23194
X12.16383 Y30.20697
X6.51449 Y30.20819
X6.45960 Y30.21489
X6.41604 Y30.24900
X5.93491 Y30.72840
X5.88424 Y30.79025
X5.87631 Y30.86981
X5.87631 Y36.90373
X5.88782 Y36.99756
G04 P0 ( dwell for no time -- G64 should not smooth over this point )
G00 Z5.00000 ( retract )

G00 X5.36481 Y34.33777 ( rapid move to begin. )
F300.00000
G01 Z-0.05000
G04 P0 ( dwell for no time -- G64 should not smooth over this point )
F600.00000
G01 X5.36481 Y34.33777
X5.35048 Y34.29096
X5.30100 Y34.24445
X5.35132 Y34.19700
G04 P0 ( dwell for no time -- G64 should not smooth over this point )
G00 Z5.00000 ( retract )

G00 X5.02587 Y34.22327 ( rapid move to begin. )
F300.00000
G01 Z-0.05000
G04 P0 ( dwell for no time -- G64 should not smooth over this point )
F600.00000
G01 X5.02587 Y34.22327
X5.05170 Y34.24483
X5.00923 Y34.30231
X5.02587 Y34.22327
X4.96044 Y34.05954
X4.91431 Y33.98324
X4.80250 Y33.88110
X4.66118 Y33.82449
X4.49417 Y33.82433
X4.33954 Y33.88804
X4.22547 Y33.97783
X4.11846 Y33.97861
X4.02770 Y33.91031
X3.79877 Y33.68138
X3.74810 Y33.61951
X3.74139 Y33.56457
X3.74139 Y17.06564
X3.74810 Y17.01075
X3.79877 Y16.94890
X6.70852 Y14.05033
X61.53328 Y14.04241
X61.61288 Y14.05033
X61.65649 Y14.08447
X61.98161 Y14.41284
X62.00213 Y14.44187
X62.01001 Y14.58693
X62.03772 Y14.66433
X62.07419 Y14.74152
X62.13703 Y14.81040
X62.22957 Y14.87880
X62.34704 Y14.92364
X62.39957 Y14.92780
X62.51405 Y14.92379
X62.63226 Y14.87885
X62.70566 Y14.82849
X62.78542 Y14.74446
X62.85166 Y14.58764
X62.84577 Y14.40179
X62.78760 Y14.26575
X62.66927 Y14.14761
X62.51478 Y14.08361
X62.36873 Y14.07385
X61.89510 Y13.61701
X61.81468 Y13.56326
X61.69990 Y13.54241
X6.62150 Y13.54241
X6.50674 Y13.56326
X6.41106 Y13.62951
X3.32730 Y16.71327
X3.26103 Y16.80895
X3.24137 Y16.92383
X3.24213 Y33.72632
X3.26103 Y33.82131
X3.32730 Y33.91699
X3.83293 Y34.41991
X3.93677 Y34.47953
X4.22902 Y34.50368
X4.33895 Y34.60053
X4.45826 Y34.65357
X4.51947 Y34.66728
X4.66047 Y34.66467
X4.81503 Y34.60096
X4.93362 Y34.48303
X5.00923 Y34.30231
G04 P0 ( dwell for no time -- G64 should not smooth over this point )
G00 Z5.00000 ( retract )

G00 X5.00616 Y7.01870 ( rapid move to begin. )
F300.00000
G01 Z-0.05000
G04 P0 ( dwell for no time -- G64 should not smooth over this point )
F600.00000
G01 X5.00616 Y7.01870
X4.93090 Y7.04720
X4.87947 Y7.04562
X5.00616 Y7.01870
G04 P0 ( dwell for no time -- G64 should not smooth over this point )
G00 Z5.00000 ( retract )

G00 X3.97736 Y7.01796 ( rapid move to begin. )
F300.00000
G01 Z-0.05000
G04 P0 ( dwell for no time -- G64 should not smooth over this point )
F600.00000
G01 X3.97736 Y7.01796
X3.89702 Y7.01550
X3.83560 Y6.98784
X3.97736 Y7.01796
G04 P0 ( dwell for no time -- G64 should not smooth over this point )
G00 Z5.00000 ( retract )

G00 X3.01932 Y6.62010 ( rapid move to begin. )
F300.00000
G01 Z-0.05000
G04 P0 ( dwell for no time -- G64 should not smooth over this point )
F600.00000
G01 X3.01932 Y6.62010
X2.96065 Y6.59365
X2.92681 Y6.55286
X3.01932 Y6.62010
G04 P0 ( dwell for no time -- G64 should not smooth over this point )
G00 Z5.00000 ( retract )

G00 X6.06029 Y6.55276 ( rapid move to begin. )
F300.00000
G01 Z-0.05000
G04 P0 ( dwell for no time -- G64 should not smooth over this point )
F600.00000
G01 X6.06029 Y6.55276
X6.01401 Y6.60856
X5.86882 Y6.69188
X6.06029 Y6.55276
G04 P0 ( dwell for no time -- G64 should not smooth over this point )
G00 Z5.00000 ( retract )

G00 X6.66188 Y5.94923 ( rapid move to begin. )
F300.00000
G01 Z-0.05000
G04 P0 ( dwell for no time -- G64 should not smooth over this point )
F600.00000
G01 X6.66188 Y5.94923
X6.65462 Y5.96539
X6.65068 Y5.96866
X6.66188 Y5.94923
G04 P0 ( dwell for no time -- G64 should not smooth over this point )
G00 Z5.00000 ( retract )

G00 X7.07697 Y5.01248 ( rapid move to begin. )
F300.00000
G01 Z-0.05000
G04 P0 ( dwell for no time -- G64 should not smooth over this point )
F600.00000
G01 X7.07697 Y5.01248
X7.07646 Y5.02901
X7.05901 Y5.06775
X7.07697 Y5.01248
G04 P0 ( dwell for no time -- G64 should not smooth over this point )
G00 Z5.00000 ( retract )

G00 X7.10816 Y3.99513 ( rapid move to begin. )
F300.00000
G01 Z-0.05000
G04 P0 ( dwell for no time -- G64 should not smooth over this point )
F600.00000
G01 X7.10816 Y3.99513
X7.10593 Y4.06775
X7.09452 Y3.95909
X7.10816 Y3.99513
G04 P0 ( dwell for no time -- G64 should not smooth over this point )
G00 Z5.00000 ( retract )

G00 X6.77055 Y3.10397 ( rapid move to begin. )
F300.00000
G01 Z-0.05000
G04 P0 ( dwell for no time -- G64 should not smooth over this point )
F600.00000
G01 X6.77055 Y3.10397
X6.73494 Y3.00997
X6.65073 Y2.89646
X6.77055 Y3.10397
G04 P0 ( dwell for no time -- G64 should not smooth over this point )
G00 Z5.00000 ( retract )

G00 X6.06016 Y2.31215 ( rapid move to begin. )
F300.00000
G01 Z-0.05000
G04 P0 ( dwell for no time -- G64 should not smooth over this point )
F600.00000
G01 X6.06016 Y2.31215
X6.02635 Y2.27141
X5.96770 Y2.24500
X6.06016 Y2.31215
G04 P0 ( dwell for no time -- G64 should not smooth over this point )
G00 Z5.00000 ( retract )

G00 X2.33616 Y2.89653 ( rapid move to begin. )
F300.00000
G01 Z-0.05000
G04 P0 ( dwell for no time -- G64 should not smooth over this point )
F600.00000
G01 X2.33616 Y2.89653
X2.33238 Y2.89968
X2.32537 Y2.91523
X2.33616 Y2.89653
G04 P0 ( dwell for no time -- G64 should not smooth over this point )
G00 Z5.00000 ( retract )

G00 X37.25324 Y4.42150 ( rapid move to begin. )
F300.00000
G01 Z-0.05000
G04 P0 ( dwell for no time -- G64 should not smooth over this point )
F600.00000
G01 X37.25324 Y4.42150
X37.25324 Y6.85007
X37.23297 Y6.95738
X37.18613 Y7.03856
X37.11638 Y7.10137
X37.03086 Y7.13942
X36.87572 Y7.13942
X36.74143 Y7.06188
X36.67922 Y6.97206
X36.65743 Y6.89706
X36.65329 Y4.49231
X36.56391 Y4.31352
X36.48987 Y4.23948
X36.31105 Y4.15007
X35.88123 Y4.15007
X35.70242 Y4.23948
X35.62837 Y4.31350
X35.53894 Y4.49236
X35.53894 Y6.85007
X35.52835 Y6.92756
X35.45085 Y7.06188
X35.31656 Y7.13942
X35.16142 Y7.13942
X35.03828 Y7.07303
X34.96493 Y6.97206
X34.93902 Y6.84997
X34.94082 Y4.39833
X34.97107 Y4.28662
X35.13838 Y3.96059
X35.36998 Y3.73712
X35.72467 Y3.56270
X35.81085 Y3.55012
X36.42830 Y3.55373
X36.51600 Y3.58180
X36.82230 Y3.73712
X37.03907 Y3.94296
X37.23030 Y4.30877
X37.25324 Y4.42150
G04 P0 ( dwell for no time -- G64 should not smooth over this point )
G00 Z5.00000 ( retract )

G00 X39.96751 Y3.85007 ( rapid move to begin. )
F300.00000
G01 Z-0.05000
G04 P0 ( dwell for no time -- G64 should not smooth over this point )
F600.00000
G01 X39.96751 Y3.85007
X39.96576 Y5.44451
X39.93548 Y5.55642
X39.76062 Y5.89211
X39.65885 Y5.97555
X39.37315 Y6.11839
X39.28516 Y6.14649
X38.76428 Y6.14649
X38.58359 Y6.07204
X38.48918 Y6.12975
X38.35047 Y6.14842
X38.27455 Y6.12975
X38.19339 Y6.08296
X38.10780 Y5.97207
X38.08186 Y5.85007
X38.08186 Y3.85007
X38.10218 Y3.74281
X38.14902 Y3.66163
X38.27455 Y3.57044
X38.41326 Y3.55178
X38.48918 Y3.57044
X38.57033 Y3.61723
X38.65593 Y3.72813
X38.68181 Y3.85007
X38.68184 Y5.44011
X38.88118 Y5.55010
X39.16825 Y5.55012
X39.30111 Y5.48367
X39.36756 Y5.35078
X39.36756 Y3.85007
X39.37820 Y3.77263
X39.41630 Y3.68698
X39.47909 Y3.61723
X39.56024 Y3.57044
X39.65186 Y3.55094
X39.74513 Y3.56077
X39.83065 Y3.59882
X39.90040 Y3.66163
X39.94724 Y3.74281
X39.96751 Y3.85007
G04 P0 ( dwell for no time -- G64 should not smooth over this point )
G00 Z5.00000 ( retract )

G00 X41.39608 Y3.85007 ( rapid move to begin. )
F300.00000
G01 Z-0.05000
G04 P0 ( dwell for no time -- G64 should not smooth over this point )
F600.00000
G01 X41.39608 Y3.85007
X41.39199 Y5.89693
X41.34739 Y6.01321
X41.28460 Y6.08296
X41.17370 Y6.13943
X41.06474 Y6.14842
X40.96017 Y6.11700
X40.89542 Y6.07303
X40.82920 Y5.98606
X40.80027 Y5.89706
X40.80027 Y3.80311
X40.84487 Y3.68698
X40.90766 Y3.61723
X41.01856 Y3.56077
X41.12753 Y3.55178
X41.23210 Y3.58320
X41.30799 Y3.63831
X41.37020 Y3.72813
X41.39608 Y3.85007
G04 P0 ( dwell for no time -- G64 should not smooth over this point )
G00 Z5.00000 ( retract )

G00 X43.96707 Y5.85708 ( rapid move to begin. )
F300.00000
G01 Z-0.05000
G04 P0 ( dwell for no time -- G64 should not smooth over this point )
F600.00000
G01 X43.96707 Y5.85708
X43.95541 Y5.93455
X43.90575 Y6.03178
X43.85084 Y6.08761
X43.78302 Y6.12652
X43.69183 Y6.14867
X43.59849 Y6.14159
X43.51172 Y6.10592
X43.45053 Y6.05716
X43.38510 Y5.95101
X42.95328 Y4.74194
X42.52148 Y5.95101
X42.46618 Y6.04534
X42.33827 Y6.13272
X42.21459 Y6.14865
X42.06860 Y6.09647
X42.01035 Y6.04428
X41.96827 Y5.97829
X41.93987 Y5.87280
X41.95653 Y5.74918
X42.67080 Y3.74918
X42.72432 Y3.65688
X42.82013 Y3.58172
X42.93799 Y3.55091
X43.05826 Y3.56950
X43.16125 Y3.63448
X43.21670 Y3.70743
X43.95005 Y5.74918
X43.96707 Y5.85708
G04 P0 ( dwell for no time -- G64 should not smooth over this point )
G00 Z5.00000 ( retract )

G00 X45.78208 Y5.37890 ( rapid move to begin. )
F300.00000
G01 Z-0.05000
G04 P0 ( dwell for no time -- G64 should not smooth over this point )
F600.00000
G01 X45.78208 Y5.37890
X45.72968 Y5.48367
X45.59681 Y5.55012
X45.16689 Y5.55010
X45.03399 Y5.48365
X44.96755 Y5.35071
X44.96752 Y5.21601
X45.78208 Y5.37890
G04 P0 ( dwell for no time -- G64 should not smooth over this point )
G00 Z5.00000 ( retract )

G00 X46.39610 Y5.13663 ( rapid move to begin. )
F300.00000
G01 Z-0.05000
G04 P0 ( dwell for no time -- G64 should not smooth over this point )
F600.00000
G01 X46.39610 Y5.13663
X46.37829 Y5.03498
X46.33689 Y4.95744
X46.27476 Y4.89526
X46.19737 Y4.85378
X44.96752 Y4.60417
X44.96755 Y4.34946
X45.03402 Y4.21652
X45.16696 Y4.15007
X45.59676 Y4.15007
X45.83343 Y4.26750
X45.92421 Y4.29112
X46.01781 Y4.28548
X46.11855 Y4.24329
X46.20608 Y4.15444
X46.25144 Y4.02198
X46.22602 Y3.86905
X46.14029 Y3.75843
X45.73630 Y3.55901
X45.07263 Y3.55193
X44.96201 Y3.58180
X44.67629 Y3.72465
X44.58269 Y3.79922
X44.39927 Y4.14454
X44.37121 Y4.23239
X44.36760 Y5.42127
X44.39018 Y5.53353
X44.54177 Y5.84070
X44.61667 Y5.93496
X45.02752 Y6.14118
X45.66755 Y6.15004
X45.77959 Y6.12749
X46.10801 Y5.96307
X46.20910 Y5.86198
X46.38723 Y5.49023
X46.39610 Y5.13663
G04 P0 ( dwell for no time -- G64 should not smooth over this point )
G00 Z5.00000 ( retract )

G00 X48.53813 Y5.83440 ( rapid move to begin. )
F300.00000
G01 Z-0.05000
G04 P0 ( dwell for no time -- G64 should not smooth over this point )
F600.00000
G01 X48.53813 Y5.83440
X48.52832 Y5.92767
X48.47186 Y6.03856
X48.40211 Y6.10135
X48.28583 Y6.14595
X47.90671 Y6.14641
X47.62662 Y6.02213
X47.51781 Y6.11700
X47.42876 Y6.14595
X47.35045 Y6.14842
X47.21875 Y6.10138
X47.13059 Y6.01321
X47.09249 Y5.92756
X47.08184 Y5.85007
X47.08184 Y3.85007
X47.11492 Y3.71413
X47.21875 Y3.59882
X47.35045 Y3.55178
X47.48916 Y3.57044
X47.59371 Y3.63831
X47.67120 Y3.77263
X47.68179 Y3.85007
X47.68182 Y5.20780
X47.77125 Y5.38670
X47.84527 Y5.46071
X48.02403 Y5.55010
X48.28596 Y5.55424
X48.40211 Y5.59884
X48.49027 Y5.68700
X48.53813 Y5.83440
G04 P0 ( dwell for no time -- G64 should not smooth over this point )
G00 Z5.00000 ( retract )

G00 X50.68181 Y4.41990 ( rapid move to begin. )
F300.00000
G01 Z-0.05000
G04 P0 ( dwell for no time -- G64 should not smooth over this point )
F600.00000
G01 X50.68181 Y4.41990
X50.67813 Y4.23171
X50.65890 Y4.16597
X50.46670 Y3.79920
X50.37313 Y3.72465
X50.06599 Y3.57309
X49.97638 Y3.55190
X49.33571 Y3.55371
X49.24773 Y3.58180
X48.90912 Y3.75840
X48.85515 Y3.81505
X48.81197 Y3.89813
X48.79949 Y4.03765
X48.85243 Y4.16717
X48.97224 Y4.26567
X49.06256 Y4.29064
X49.17160 Y4.28327
X49.45268 Y4.15007
X49.88247 Y4.15007
X50.01542 Y4.21654
X50.08186 Y4.34946
X50.01539 Y4.48365
X49.88247 Y4.55012
X49.52469 Y4.55010
X49.43383 Y4.56422
X49.10554 Y4.72429
X48.99223 Y4.82249
X48.81039 Y5.18738
X48.79614 Y5.42150
X48.82309 Y5.54519
X48.99924 Y5.88746
X49.08347 Y5.96269
X49.38982 Y6.11801
X49.50104 Y6.14827
X49.95268 Y6.15004
X50.03901 Y6.13752
X50.43767 Y5.93143
X50.51171 Y5.83117
X50.53716 Y5.67824
X50.49182 Y5.54583
X50.39078 Y5.44900
X50.30356 Y5.41471
X50.20996 Y5.40907
X50.11920 Y5.43267
X49.88252 Y5.55010
X49.59545 Y5.55010
X49.46256 Y5.48365
X49.39609 Y5.34946
X49.46259 Y5.21652
X49.59583 Y5.14992
X50.02202 Y5.14118
X50.41476 Y4.95033
X50.50764 Y4.84070
X50.65923 Y4.53354
X50.68181 Y4.41990
G04 P0 ( dwell for no time -- G64 should not smooth over this point )
G00 Z5.00000 ( retract )

G00 X51.96751 Y3.85007 ( rapid move to begin. )
F300.00000
G01 Z-0.05000
G04 P0 ( dwell for no time -- G64 should not smooth over this point )
F600.00000
G01 X51.96751 Y3.85007
X51.96342 Y5.89693
X51.91882 Y6.01321
X51.85603 Y6.08296
X51.74513 Y6.13943
X51.63617 Y6.14842
X51.53159 Y6.11700
X51.46685 Y6.07303
X51.40063 Y5.98606
X51.37170 Y5.89706
X51.37170 Y3.80311
X51.41630 Y3.68698
X51.47909 Y3.61723
X51.58999 Y3.56077
X51.69895 Y3.55178
X51.80353 Y3.58320
X51.87942 Y3.63831
X51.94163 Y3.72813
X51.96751 Y3.85007
G04 P0 ( dwell for no time -- G64 should not smooth over this point )
G00 Z5.00000 ( retract )

G00 X54.08188 Y4.17834 ( rapid move to begin. )
F300.00000
G01 Z-0.05000
G04 P0 ( dwell for no time -- G64 should not smooth over this point )
F600.00000
G01 X54.08188 Y4.17834
X54.08188 Y5.52188
X54.02537 Y5.55010
X53.59547 Y5.55010
X53.41671 Y5.46071
X53.34267 Y5.38667
X53.25326 Y5.20786
X53.25326 Y4.49231
X53.34264 Y4.31352
X53.41671 Y4.23948
X53.59552 Y4.15007
X54.02532 Y4.15005
X54.08188 Y4.17834
G04 P0 ( dwell for no time -- G64 should not smooth over this point )
G00 Z5.00000 ( retract )

G00 X54.68180 Y3.85007 ( rapid move to begin. )
F300.00000
G01 Z-0.05000
G04 P0 ( dwell for no time -- G64 should not smooth over this point )
F600.00000
G01 X54.68180 Y3.85007
X54.68099 Y6.86574
X54.65592 Y6.97206
X54.58257 Y7.07303
X54.45943 Y7.13942
X54.35046 Y7.14842
X54.24589 Y7.11700
X54.18114 Y7.07303
X54.13060 Y7.01321
X54.09250 Y6.92756
X54.08186 Y6.15004
X53.52468 Y6.15004
X53.42255 Y6.13191
X53.06380 Y5.95073
X52.84030 Y5.71911
X52.67589 Y5.39068
X52.65509 Y5.30176
X52.65509 Y4.39841
X52.68536 Y4.28662
X52.86751 Y3.94296
X53.08427 Y3.73712
X53.43380 Y3.56422
X53.52468 Y3.55010
X54.09611 Y3.55010
X54.23857 Y3.58741
X54.35046 Y3.55178
X54.45943 Y3.56077
X54.54495 Y3.59882
X54.61470 Y3.66163
X54.66153 Y3.74281
X54.68180 Y3.85007
G04 P0 ( dwell for no time -- G64 should not smooth over this point )
G00 Z5.00000 ( retract )

G00 X56.79618 Y4.17834 ( rapid move to begin. )
F300.00000
G01 Z-0.05000
G04 P0 ( dwell for no time -- G64 should not smooth over this point )
F600.00000
G01 X56.79618 Y4.17834
X56.79615 Y4.69295
X56.16689 Y4.69295
X56.03400 Y4.62650
X55.96753 Y4.49356
X55.96753 Y4.34946
X56.03402 Y4.21652
X56.16697 Y4.15007
X56.73961 Y4.15005
X56.79618 Y4.17834
G04 P0 ( dwell for no time -- G64 should not smooth over this point )
G00 Z5.00000 ( retract )

G00 X57.39610 Y3.85025 ( rapid move to begin. )
F300.00000
G01 Z-0.05000
G04 P0 ( dwell for no time -- G64 should not smooth over this point )
F600.00000
G01 X57.39610 Y3.85025
X57.37022 Y3.72813
X57.30801 Y3.63831
X57.23212 Y3.58320
X57.11182 Y3.55094
X57.01858 Y3.56077
X56.95287 Y3.58741
X56.81040 Y3.55010
X56.07304 Y3.55190
X55.98414 Y3.57271
X55.67698 Y3.72429
X55.59831 Y3.78083
X55.54213 Y3.85881
X55.39928 Y4.14454
X55.36941 Y4.25472
X55.36760 Y4.56348
X55.38170 Y4.65525
X55.58274 Y5.04390
X55.67629 Y5.11840
X56.01048 Y5.28037
X56.09613 Y5.29289
X56.73961 Y5.29289
X56.79615 Y5.32119
X56.79615 Y5.35073
X56.72968 Y5.48367
X56.59681 Y5.55012
X56.16689 Y5.55010
X55.88587 Y5.41690
X55.77672 Y5.40958
X55.68650 Y5.43453
X55.56671 Y5.53305
X55.52953 Y5.60191
X55.51226 Y5.67824
X55.53771 Y5.83117
X55.61175 Y5.93143
X55.67629 Y5.97555
X56.02752 Y6.14118
X56.69110 Y6.14827
X56.80171 Y6.11839
X57.08741 Y5.97555
X57.17357 Y5.91047
X57.36407 Y5.55642
X57.39254 Y5.46777
X57.39610 Y3.85025
G04 P0 ( dwell for no time -- G64 should not smooth over this point )
G00 Z5.00000 ( retract )

G00 X59.51045 Y4.17834 ( rapid move to begin. )
F300.00000
G01 Z-0.05000
G04 P0 ( dwell for no time -- G64 should not smooth over this point )
F600.00000
G01 X59.51045 Y4.17834
X59.51042 Y5.52188
X59.45396 Y5.55010
X59.02404 Y5.55010
X58.84527 Y5.46071
X58.77125 Y5.38670
X58.68182 Y5.20780
X58.68180 Y4.49236
X58.77123 Y4.31350
X58.84527 Y4.23948
X59.02411 Y4.15007
X59.45388 Y4.15005
X59.51045 Y4.17834
G04 P0 ( dwell for no time -- G64 should not smooth over this point )
G00 Z5.00000 ( retract )

G00 X60.11037 Y3.85007 ( rapid move to begin. )
F300.00000
G01 Z-0.05000
G04 P0 ( dwell for no time -- G64 should not smooth over this point )
F600.00000
G01 X60.11037 Y3.85007
X60.10956 Y6.86574
X60.08449 Y6.97206
X60.01113 Y7.07303
X59.88799 Y7.13942
X59.77903 Y7.14842
X59.67445 Y7.11700
X59.60971 Y7.07303
X59.55916 Y7.01321
X59.52106 Y6.92756
X59.51042 Y6.15004
X58.95327 Y6.15004
X58.85114 Y6.13191
X58.49236 Y5.95073
X58.26892 Y5.71918
X58.10448 Y5.39071
X58.08365 Y5.30181
X58.08365 Y4.39841
X58.11393 Y4.28662
X58.29607 Y3.94296
X58.51284 Y3.73712
X58.86242 Y3.56422
X58.95327 Y3.55010
X59.52469 Y3.55010
X59.66714 Y3.58741
X59.77903 Y3.55178
X59.88799 Y3.56077
X59.97351 Y3.59882
X60.04326 Y3.66163
X60.09010 Y3.74281
X60.11037 Y3.85007
G04 P0 ( dwell for no time -- G64 should not smooth over this point )
G00 Z5.00000 ( retract )

G00 X64.51046 Y4.17834 ( rapid move to begin. )
F300.00000
G01 Z-0.05000
G04 P0 ( dwell for no time -- G64 should not smooth over this point )
F600.00000
G01 X64.51046 Y4.17834
X64.51046 Y5.52188
X64.45395 Y5.55010
X64.02403 Y5.55010
X63.84529 Y5.46074
X63.77124 Y5.38667
X63.68184 Y5.20786
X63.68181 Y4.49234
X63.77124 Y4.31347
X63.84526 Y4.23948
X64.02410 Y4.15007
X64.45390 Y4.15005
X64.51046 Y4.17834
G04 P0 ( dwell for no time -- G64 should not smooth over this point )
G00 Z5.00000 ( retract )

G00 X65.11038 Y3.85007 ( rapid move to begin. )
F300.00000
G01 Z-0.05000
G04 P0 ( dwell for no time -- G64 should not smooth over this point )
F600.00000
G01 X65.11038 Y3.85007
X65.10957 Y6.86574
X65.08450 Y6.97206
X65.01115 Y7.07303
X64.88801 Y7.13942
X64.77904 Y7.14842
X64.67447 Y7.11700
X64.60972 Y7.07303
X64.55918 Y7.01321
X64.52108 Y6.92756
X64.51044 Y6.15004
X63.95326 Y6.15004
X63.85113 Y6.13191
X63.49235 Y5.95073
X63.26888 Y5.71911
X63.10447 Y5.39068
X63.08367 Y5.30176
X63.08367 Y4.39841
X63.11394 Y4.28662
X63.29606 Y3.94296
X63.51283 Y3.73712
X63.86241 Y3.56422
X63.95326 Y3.55010
X64.52468 Y3.55010
X64.66715 Y3.58741
X64.77904 Y3.55178
X64.88801 Y3.56077
X64.97353 Y3.59882
X65.04328 Y3.66163
X65.09011 Y3.74281
X65.11038 Y3.85007
G04 P0 ( dwell for no time -- G64 should not smooth over this point )
G00 Z5.00000 ( retract )

G00 X67.21063 Y5.37892 ( rapid move to begin. )
F300.00000
G01 Z-0.05000
G04 P0 ( dwell for no time -- G64 should not smooth over this point )
F600.00000
G01 X67.21063 Y5.37892
X67.15826 Y5.48367
X67.02537 Y5.55010
X66.59547 Y5.55010
X66.46258 Y5.48365
X66.39608 Y5.35068
X66.39608 Y5.21601
X67.21063 Y5.37892
G04 P0 ( dwell for no time -- G64 should not smooth over this point )
G00 Z5.00000 ( retract )

G00 X67.82465 Y5.13663 ( rapid move to begin. )
F300.00000
G01 Z-0.05000
G04 P0 ( dwell for no time -- G64 should not smooth over this point )
F600.00000
G01 X67.82465 Y5.13663
X67.80685 Y5.03498
X67.76545 Y4.95744
X67.70332 Y4.89526
X67.62592 Y4.85378
X66.39608 Y4.60417
X66.39608 Y4.34951
X66.46260 Y4.21652
X66.59552 Y4.15005
X67.02534 Y4.15007
X67.26202 Y4.26750
X67.35280 Y4.29112
X67.44640 Y4.28548
X67.54713 Y4.24329
X67.63466 Y4.15444
X67.68003 Y4.02198
X67.65460 Y3.86905
X67.56887 Y3.75843
X67.23027 Y3.58180
X67.14256 Y3.55373
X66.52514 Y3.55012
X66.39057 Y3.58180
X66.10487 Y3.72465
X66.01127 Y3.79922
X65.82783 Y4.14454
X65.79976 Y4.23239
X65.79616 Y5.42127
X65.82783 Y5.55566
X65.97071 Y5.84138
X66.04526 Y5.93496
X66.41272 Y6.12749
X66.50167 Y6.14827
X67.11965 Y6.14827
X67.23027 Y6.11839
X67.53659 Y5.96307
X67.63768 Y5.86198
X67.81579 Y5.49023
X67.82465 Y5.13663
G04 P0 ( dwell for no time -- G64 should not smooth over this point )
G00 Z5.00000 ( retract )

G00 X71.82429 Y3.85244 ( rapid move to begin. )
F300.00000
G01 Z-0.05000
G04 P0 ( dwell for no time -- G64 should not smooth over this point )
F600.00000
G01 X71.82429 Y3.85244
X71.80890 Y3.94484
X71.75637 Y4.04067
X71.67250 Y4.11068
X71.46259 Y4.21652
X71.39612 Y4.34946
X71.39610 Y6.85007
X71.38550 Y6.92756
X71.34740 Y7.01321
X71.25924 Y7.10137
X71.12754 Y7.14842
X71.01858 Y7.13942
X70.93305 Y7.10137
X70.86331 Y7.03856
X70.82208 Y6.97206
X70.79699 Y6.86587
X70.80506 Y4.20997
X70.97070 Y3.85881
X71.02269 Y3.78518
X71.08347 Y3.73750
X71.43430 Y3.56450
X71.57395 Y3.55419
X71.70260 Y3.60905
X71.78530 Y3.70235
X71.82429 Y3.85244
G04 P0 ( dwell for no time -- G64 should not smooth over this point )
G00 Z5.00000 ( retract )

G00 X73.65332 Y4.17834 ( rapid move to begin. )
F300.00000
G01 Z-0.05000
G04 P0 ( dwell for no time -- G64 should not smooth over this point )
F600.00000
G01 X73.65332 Y4.17834
X73.65329 Y4.69295
X73.02403 Y4.69295
X72.89114 Y4.62650
X72.82467 Y4.49356
X72.82467 Y4.34946
X72.89117 Y4.21652
X73.02411 Y4.15007
X73.59675 Y4.15005
X73.65332 Y4.17834
G04 P0 ( dwell for no time -- G64 should not smooth over this point )
G00 Z5.00000 ( retract )

G00 X74.25324 Y3.85007 ( rapid move to begin. )
F300.00000
G01 Z-0.05000
G04 P0 ( dwell for no time -- G64 should not smooth over this point )
F600.00000
G01 X74.25324 Y3.85007
X74.25149 Y5.44451
X74.22159 Y5.55566
X74.07872 Y5.84138
X74.02253 Y5.91936
X73.94455 Y5.97555
X73.65886 Y6.11839
X73.54824 Y6.14827
X72.88466 Y6.14118
X72.53343 Y5.97555
X72.46889 Y5.93143
X72.39485 Y5.83117
X72.36940 Y5.67824
X72.38667 Y5.60191
X72.42386 Y5.53305
X72.54364 Y5.43453
X72.63386 Y5.40958
X72.74301 Y5.41690
X73.02403 Y5.55010
X73.45395 Y5.55012
X73.58682 Y5.48367
X73.65329 Y5.35073
X73.65329 Y5.32119
X73.59657 Y5.29282
X72.90694 Y5.28931
X72.81916 Y5.26125
X72.53343 Y5.11840
X72.43988 Y5.04390
X72.23732 Y4.65012
X72.22472 Y4.27865
X72.24733 Y4.16666
X72.39891 Y3.85950
X72.45545 Y3.78083
X72.53343 Y3.72465
X72.81916 Y3.58180
X72.90696 Y3.55373
X73.66719 Y3.55012
X73.81001 Y3.58741
X73.87572 Y3.56077
X73.96896 Y3.55094
X74.08926 Y3.58320
X74.16515 Y3.63831
X74.22736 Y3.72813
X74.25324 Y3.85007
G04 P0 ( dwell for no time -- G64 should not smooth over this point )
G00 Z5.00000 ( retract )

G00 X79.39527 Y3.83440 ( rapid move to begin. )
F300.00000
G01 Z-0.05000
G04 P0 ( dwell for no time -- G64 should not smooth over this point )
F600.00000
G01 X79.39527 Y3.83440
X79.38546 Y3.92767
X79.32900 Y4.03857
X79.25925 Y4.10136
X79.17360 Y4.13946
X77.96751 Y4.15005
X77.96342 Y6.89693
X77.94163 Y6.97206
X77.90040 Y7.03856
X77.80353 Y7.11700
X77.68323 Y7.14923
X77.53159 Y7.11700
X77.46685 Y7.07303
X77.41630 Y7.01321
X77.37820 Y6.92756
X77.36756 Y6.85007
X77.36756 Y3.85007
X77.37693 Y3.77725
X77.41059 Y3.69605
X77.51351 Y3.59313
X77.65278 Y3.55084
X79.11190 Y3.55094
X79.21810 Y3.57603
X79.31907 Y3.64939
X79.37579 Y3.74278
X79.39527 Y3.83440
G04 P0 ( dwell for no time -- G64 should not smooth over this point )
G00 Z5.00000 ( retract )

G00 X81.08188 Y4.17834 ( rapid move to begin. )
F300.00000
G01 Z-0.05000
G04 P0 ( dwell for no time -- G64 should not smooth over this point )
F600.00000
G01 X81.08188 Y4.17834
X81.08185 Y4.69295
X80.45262 Y4.69295
X80.31973 Y4.62650
X80.25323 Y4.49353
X80.25323 Y4.34951
X80.31975 Y4.21652
X80.45267 Y4.15005
X81.02531 Y4.15005
X81.08188 Y4.17834
G04 P0 ( dwell for no time -- G64 should not smooth over this point )
G00 Z5.00000 ( retract )

G00 X81.68180 Y3.85025 ( rapid move to begin. )
F300.00000
G01 Z-0.05000
G04 P0 ( dwell for no time -- G64 should not smooth over this point )
F600.00000
G01 X81.68180 Y3.85025
X81.65592 Y3.72813
X81.59371 Y3.63831
X81.51782 Y3.58320
X81.39752 Y3.55094
X81.30428 Y3.56077
X81.23857 Y3.58741
X81.09577 Y3.55012
X80.33552 Y3.55373
X80.24772 Y3.58180
X79.96202 Y3.72465
X79.88404 Y3.78083
X79.82750 Y3.85950
X79.67589 Y4.16666
X79.65328 Y4.27865
X79.66588 Y4.65012
X79.86847 Y5.04390
X79.96202 Y5.11840
X80.24772 Y5.26125
X80.33550 Y5.28931
X81.02513 Y5.29282
X81.08185 Y5.32119
X81.08185 Y5.35078
X81.01541 Y5.48367
X80.88251 Y5.55010
X80.45262 Y5.55010
X80.17159 Y5.41690
X80.06245 Y5.40958
X79.97223 Y5.43453
X79.85244 Y5.53305
X79.81526 Y5.60191
X79.79798 Y5.67824
X79.82344 Y5.83117
X79.89748 Y5.93143
X80.24772 Y6.11839
X80.33547 Y6.14646
X80.95282 Y6.15004
X81.08742 Y6.11839
X81.37314 Y5.97555
X81.45112 Y5.91936
X81.50730 Y5.84138
X81.65015 Y5.55566
X81.67824 Y5.46777
X81.68180 Y3.85025
G04 P0 ( dwell for no time -- G64 should not smooth over this point )
G00 Z5.00000 ( retract )

G00 X83.58177 Y2.55719 ( rapid move to begin. )
F300.00000
G01 Z-0.05000
G04 P0 ( dwell for no time -- G64 should not smooth over this point )
F600.00000
G01 X83.58177 Y2.55719
X93.05330 Y2.55719
X93.05330 Y7.55723
X34.42464 Y7.55723
X34.42464 Y2.55719
X83.54842 Y2.55457
X83.65886 Y2.58180
X83.94456 Y2.72465
X84.02343 Y2.78175
X84.19701 Y2.96090
X84.38723 Y3.35289
X84.39528 Y5.86574
X84.37021 Y5.97207
X84.32899 Y6.03856
X84.25924 Y6.10138
X84.17372 Y6.13943
X84.06475 Y6.14842
X83.95287 Y6.11278
X83.81040 Y6.15004
X83.23897 Y6.15004
X83.11538 Y6.12317
X82.77806 Y5.95073
X82.59922 Y5.77737
X82.54177 Y5.69782
X82.38170 Y5.36955
X82.36760 Y5.27834
X82.37121 Y4.37522
X82.39927 Y4.28739
X82.58269 Y3.94207
X82.77806 Y3.74946
X83.12630 Y3.57306
X83.21548 Y3.55193
X83.79615 Y3.55015
X83.79615 Y3.49229
X83.70679 Y3.31355
X83.63275 Y3.23951
X83.45388 Y3.15005
X83.16696 Y3.15005
X82.93021 Y3.26752
X82.82386 Y3.29264
X82.68652 Y3.26567
X82.56671 Y3.16717
X82.52485 Y3.08343
X82.51086 Y2.99066
X82.52625 Y2.89813
X82.56943 Y2.81505
X82.67697 Y2.72429
X83.03915 Y2.55719
G04 P0 ( dwell for no time -- G64 should not smooth over this point )
G00 Z5.00000 ( retract )

G00 X83.79617 Y4.17834 ( rapid move to begin. )
F300.00000
G01 Z-0.05000
G04 P0 ( dwell for no time -- G64 should not smooth over this point )
F600.00000
G01 X83.79617 Y4.17834
X83.79617 Y5.52188
X83.73966 Y5.55010
X83.30974 Y5.55010
X83.13100 Y5.46074
X83.05696 Y5.38667
X82.96755 Y5.20786
X82.96752 Y4.49234
X83.05696 Y4.31347
X83.13097 Y4.23948
X83.30981 Y4.15007
X83.73961 Y4.15005
X83.79617 Y4.17834
G04 P0 ( dwell for no time -- G64 should not smooth over this point )
G00 Z5.00000 ( retract )

G00 X87.11036 Y3.85007 ( rapid move to begin. )
F300.00000
G01 Z-0.05000
G04 P0 ( dwell for no time -- G64 should not smooth over this point )
F600.00000
G01 X87.11036 Y3.85007
X87.11036 Y5.85007
X87.09010 Y5.95738
X87.04326 Y6.03856
X86.91773 Y6.12975
X86.77902 Y6.14842
X86.64732 Y6.10138
X86.54349 Y5.98606
X86.51042 Y5.85007
X86.51044 Y4.26003
X86.31105 Y4.15007
X86.02411 Y4.15007
X85.89116 Y4.21652
X85.82469 Y4.34946
X85.82467 Y5.85007
X85.80440 Y5.95738
X85.72543 Y6.07303
X85.60229 Y6.13943
X85.47781 Y6.14595
X85.33625 Y6.08296
X85.25065 Y5.97207
X85.22556 Y5.86587
X85.22655 Y4.25543
X85.25642 Y4.14454
X85.43983 Y3.79922
X85.53343 Y3.72465
X85.88456 Y3.55901
X86.42835 Y3.55376
X86.60871 Y3.62815
X86.70310 Y3.57044
X86.82609 Y3.55094
X86.94638 Y3.58320
X87.02228 Y3.63831
X87.08448 Y3.72813
X87.11036 Y3.85007
G04 P0 ( dwell for no time -- G64 should not smooth over this point )
G00 Z5.00000 ( retract )

G00 X89.82466 Y3.85025 ( rapid move to begin. )
F300.00000
G01 Z-0.05000
G04 P0 ( dwell for no time -- G64 should not smooth over this point )
F600.00000
G01 X89.82466 Y3.85025
X89.80439 Y3.74281
X89.75755 Y3.66163
X89.68780 Y3.59882
X89.60228 Y3.56077
X89.50901 Y3.55094
X89.41740 Y3.57044
X89.33624 Y3.61723
X89.27345 Y3.68698
X89.23535 Y3.77263
X89.22471 Y3.85007
X89.22471 Y5.35078
X89.15827 Y5.48367
X89.02537 Y5.55010
X88.73833 Y5.55010
X88.53894 Y5.44011
X88.53894 Y3.85007
X88.51305 Y3.72813
X88.42746 Y3.61723
X88.34630 Y3.57044
X88.27038 Y3.55178
X88.13167 Y3.57044
X88.00615 Y3.66163
X87.95931 Y3.74281
X87.93899 Y3.85007
X87.93899 Y5.85007
X87.96492 Y5.97207
X88.05052 Y6.08296
X88.13167 Y6.12975
X88.20759 Y6.14842
X88.34630 Y6.12975
X88.44072 Y6.07204
X88.62111 Y6.14644
X89.11912 Y6.14829
X89.21981 Y6.12314
X89.51600 Y5.97555
X89.60960 Y5.90097
X89.79301 Y5.55566
X89.82110 Y5.46777
X89.82466 Y3.85025
G04 P0 ( dwell for no time -- G64 should not smooth over this point )
G00 Z5.00000 ( retract )

G00 X91.93903 Y4.17834 ( rapid move to begin. )
F300.00000
G01 Z-0.05000
G04 P0 ( dwell for no time -- G64 should not smooth over this point )
F600.00000
G01 X91.93903 Y4.17834
X91.93901 Y4.69295
X91.30975 Y4.69295
X91.17685 Y4.62650
X91.11038 Y4.49356
X91.11038 Y4.34946
X91.17688 Y4.21652
X91.30982 Y4.15007
X91.88247 Y4.15005
X91.93903 Y4.17834
G04 P0 ( dwell for no time -- G64 should not smooth over this point )
G00 Z5.00000 ( retract )

G00 X92.53895 Y3.85007 ( rapid move to begin. )
F300.00000
G01 Z-0.05000
G04 P0 ( dwell for no time -- G64 should not smooth over this point )
F600.00000
G01 X92.53895 Y3.85007
X92.53720 Y5.44451
X92.50731 Y5.55566
X92.36443 Y5.84138
X92.30825 Y5.91936
X92.22958 Y5.97590
X91.92245 Y6.12749
X91.80997 Y6.15004
X91.19263 Y6.14646
X91.10487 Y6.11839
X90.75460 Y5.93143
X90.68056 Y5.83117
X90.65511 Y5.67824
X90.67238 Y5.60191
X90.70957 Y5.53305
X90.82936 Y5.43453
X90.91958 Y5.40958
X91.02872 Y5.41690
X91.30975 Y5.55010
X91.73967 Y5.55012
X91.87253 Y5.48367
X91.93901 Y5.35073
X91.93901 Y5.32119
X91.88229 Y5.29282
X91.17030 Y5.28403
X90.80860 Y5.11261
X90.70995 Y5.02556
X90.52468 Y4.65566
X90.51043 Y4.56435
X90.51043 Y4.27865
X90.54213 Y4.14454
X90.68498 Y3.85881
X90.73698 Y3.78518
X90.79776 Y3.73750
X91.10411 Y3.58218
X91.19268 Y3.55373
X91.95290 Y3.55012
X92.09572 Y3.58741
X92.16143 Y3.56077
X92.25468 Y3.55094
X92.37497 Y3.58320
X92.45087 Y3.63831
X92.51307 Y3.72813
X92.53895 Y3.85007
G04 P0 ( dwell for no time -- G64 should not smooth over this point )
G00 Z5.00000 ( retract )

G00 X94.47543 Y4.84230 ( rapid move to begin. )
F300.00000
G01 Z-0.05000
G04 P0 ( dwell for no time -- G64 should not smooth over this point )
F600.00000
G01 X94.47543 Y4.84230
X94.46405 Y4.73415
X94.46184 Y4.80643
X94.47543 Y4.84230
G04 P0 ( dwell for no time -- G64 should not smooth over this point )
G00 Z5.00000 ( retract )

G00 X94.91924 Y5.90509 ( rapid move to begin. )
F300.00000
G01 Z-0.05000
G04 P0 ( dwell for no time -- G64 should not smooth over this point )
F600.00000
G01 X94.91924 Y5.90509
X94.83506 Y5.79160
X94.79950 Y5.69769
X94.91924 Y5.90509
G04 P0 ( dwell for no time -- G64 should not smooth over this point )
G00 Z5.00000 ( retract )

G00 X95.60232 Y6.55660 ( rapid move to begin. )
F300.00000
G01 Z-0.05000
G04 P0 ( dwell for no time -- G64 should not smooth over this point )
F600.00000
G01 X95.60232 Y6.55660
X95.54365 Y6.53015
X95.50981 Y6.48936
X95.60232 Y6.55660
G04 P0 ( dwell for no time -- G64 should not smooth over this point )
G00 Z5.00000 ( retract )

G00 X96.56036 Y6.95446 ( rapid move to begin. )
F300.00000
G01 Z-0.05000
G04 P0 ( dwell for no time -- G64 should not smooth over this point )
F600.00000
G01 X96.56036 Y6.95446
X96.48002 Y6.95200
X96.41860 Y6.92434
X96.56036 Y6.95446
G04 P0 ( dwell for no time -- G64 should not smooth over this point )
G00 Z5.00000 ( retract )

G00 X97.58916 Y6.95520 ( rapid move to begin. )
F300.00000
G01 Z-0.05000
G04 P0 ( dwell for no time -- G64 should not smooth over this point )
F600.00000
G01 X97.58916 Y6.95520
X97.51390 Y6.98370
X97.46247 Y6.98212
X97.58916 Y6.95520
G04 P0 ( dwell for no time -- G64 should not smooth over this point )
G00 Z5.00000 ( retract )

G00 X98.64329 Y6.48926 ( rapid move to begin. )
F300.00000
G01 Z-0.05000
G04 P0 ( dwell for no time -- G64 should not smooth over this point )
F600.00000
G01 X98.64329 Y6.48926
X98.59701 Y6.54506
X98.45182 Y6.62838
X98.64329 Y6.48926
G04 P0 ( dwell for no time -- G64 should not smooth over this point )
G00 Z5.00000 ( retract )

G00 X99.24491 Y5.88571 ( rapid move to begin. )
F300.00000
G01 Z-0.05000
G04 P0 ( dwell for no time -- G64 should not smooth over this point )
F600.00000
G01 X99.24491 Y5.88571
X99.23762 Y5.90189
X99.23368 Y5.90516
X99.24491 Y5.88571
G04 P0 ( dwell for no time -- G64 should not smooth over this point )
G00 Z5.00000 ( retract )

G00 X99.76909 Y2.02582 ( rapid move to begin. )
F300.00000
G01 Z-0.05000
G04 P0 ( dwell for no time -- G64 should not smooth over this point )
F600.00000
G01 X99.76909 Y2.02582
X99.76909 Y2.90855
X99.73747 Y3.02168
X99.70186 Y3.06902
X99.62754 Y3.11751
X99.54026 Y3.13351
X99.45360 Y3.11451
X99.38095 Y3.06344
X99.23373 Y2.83296
X99.50295 Y3.30583
X99.66447 Y3.80291
X99.72563 Y4.35332
X99.66853 Y4.91995
X99.50295 Y5.43219
X99.41959 Y5.58319
X99.53686 Y5.54542
X99.65007 Y5.57080
X99.73414 Y5.65078
X99.76909 Y5.76917
X99.76035 Y65.26054
X99.72088 Y65.33966
X99.65390 Y65.39732
X99.56988 Y65.42458
X99.48872 Y65.42005
X99.41471 Y65.38607
X99.37186 Y65.34520
X99.31875 Y65.24119
X99.23373 Y65.12646
X99.50295 Y65.59933
X99.66447 Y66.09641
X99.72563 Y66.64682
X99.66853 Y67.21345
X99.50295 Y67.72569
X99.41959 Y67.87669
X99.53686 Y67.83892
X99.64778 Y67.86313
X99.72152 Y67.92444
X99.76584 Y68.03158
X99.76909 Y69.09968
X99.74572 Y69.19907
X99.66914 Y69.28677
X99.54412 Y69.32464
X98.61103 Y69.32464
X98.51199 Y69.30062
X98.46325 Y69.26803
X98.41014 Y69.19876
X98.39040 Y69.14359
X98.39040 Y69.05578
X98.44273 Y68.95190
X98.59701 Y68.83856
X98.64329 Y68.78276
X98.38746 Y68.96457
X97.90999 Y69.17715
X97.35347 Y69.29795
X96.78398 Y69.29548
X96.27278 Y69.18682
X95.79661 Y68.97844
X95.83247 Y69.09241
X95.80969 Y69.19830
X95.73427 Y69.28629
X95.60867 Y69.32464
X5.98419 Y69.32035
X5.90926 Y69.29068
X5.85030 Y69.23605
X5.81098 Y69.15784
X5.80740 Y69.05578
X5.85973 Y68.95190
X6.01401 Y68.83856
X6.06029 Y68.78276
X5.80446 Y68.96457
X5.32699 Y69.17715
X4.77047 Y69.29795
X4.20098 Y69.29548
X3.68978 Y69.18682
X3.21361 Y68.97844
X3.23987 Y69.03082
X3.25013 Y69.11334
X3.22031 Y69.21253
X3.14904 Y69.28771
X3.05684 Y69.32223
X2.02583 Y69.32464
X1.92649 Y69.30128
X1.84302 Y69.23071
X1.81536 Y69.17892
X1.80086 Y69.09968
X1.80086 Y68.12297
X1.81841 Y68.03595
X1.86817 Y67.96254
X1.94251 Y67.91403
X2.02989 Y67.89805
X2.08828 Y67.90788
X2.18905 Y67.96816
X2.33624 Y68.19859
X2.06700 Y67.72569
X1.90548 Y67.22861
X1.84432 Y66.67819
X1.90142 Y66.11157
X2.06700 Y65.59933
X2.15029 Y65.44848
X2.03314 Y65.48615
X1.92735 Y65.46341
X1.83510 Y65.38114
X1.80086 Y65.26235
X1.80967 Y5.83437
X1.84919 Y5.75530
X1.91605 Y5.69777
X2.00027 Y5.67047
X2.08135 Y5.67504
X2.15537 Y5.70905
X2.19816 Y5.74989
X2.25125 Y5.85390
X2.33624 Y5.96859
X2.06700 Y5.49569
X1.89895 Y4.96795
X1.84348 Y4.43250
X1.89895 Y3.89706
X2.06700 Y3.36933
X2.15029 Y3.21848
X2.03314 Y3.25615
X1.94152 Y3.23976
X1.84843 Y3.17060
X1.80416 Y3.06356
X1.80086 Y2.02582
X1.82428 Y1.92648
X1.89484 Y1.84302
X1.94663 Y1.81536
X2.02583 Y1.80085
X2.91330 Y1.80085
X3.01269 Y1.82427
X3.08181 Y1.87822
X3.11424 Y1.92679
X3.13398 Y1.98195
X3.13398 Y2.06976
X3.08165 Y2.17365
X2.97302 Y2.25650
X2.92689 Y2.31208
X3.18249 Y2.13044
X3.65996 Y1.91787
X4.23215 Y1.79623
X4.77047 Y1.79707
X5.29717 Y1.90819
X5.84850 Y2.15838
X5.81261 Y2.08726
X5.80519 Y2.03311
X5.82940 Y1.92221
X5.89696 Y1.84370
X6.01340 Y1.80253
X95.40237 Y1.80088
X95.48523 Y1.81675
X95.53875 Y1.84698
X95.59516 Y1.90984
X95.62424 Y1.98899
X95.62594 Y2.05043
X95.60133 Y2.13087
X95.50633 Y2.25114
X95.76549 Y2.06694
X96.27278 Y1.84469
X96.79947 Y1.73357
X97.33778 Y1.73273
X97.90999 Y1.85437
X98.38746 Y2.06694
X98.64669 Y2.25122
X98.55167 Y2.13090
X98.52706 Y2.05058
X98.52871 Y1.98907
X98.55787 Y1.90979
X98.59724 Y1.86270
X98.64677 Y1.82656
X98.71989 Y1.80405
X99.58814 Y1.80522
X99.66914 Y1.83877
X99.73122 Y1.90085
X99.76909 Y2.02582
G04 P0 ( dwell for no time -- G64 should not smooth over this point )
G00 Z5.00000 ( retract )

G00 X94.91916 Y2.83303 ( rapid move to begin. )
F300.00000
G01 Z-0.05000
G04 P0 ( dwell for no time -- G64 should not smooth over this point )
F600.00000
G01 X94.91916 Y2.83303
X94.91538 Y2.83618
X94.90839 Y2.85170
X94.91916 Y2.83303
G04 P0 ( dwell for no time -- G64 should not smooth over this point )
G00 Z5.00000 ( retract )

G00 X94.51073 Y3.73435 ( rapid move to begin. )
F300.00000
G01 Z-0.05000
G04 P0 ( dwell for no time -- G64 should not smooth over this point )
F600.00000
G01 X94.51073 Y3.73435
X94.49354 Y3.77255
X94.49303 Y3.78886
X94.51073 Y3.73435
G04 P0 ( dwell for no time -- G64 should not smooth over this point )
G00 Z5.00000 ( retract )

G00 X52.10967 Y6.69261 ( rapid move to begin. )
F300.00000
G01 Z-0.05000
G04 P0 ( dwell for no time -- G64 should not smooth over this point )
F600.00000
G01 X52.10967 Y6.69261
X52.09253 Y6.80821
X52.02214 Y6.91976
X51.81732 Y7.10953
X51.66761 Y7.14966
X51.55953 Y7.12995
X51.47952 Y7.08217
X51.28410 Y6.88578
X51.24262 Y6.80818
X51.22547 Y6.72190
X51.24262 Y6.60633
X51.30269 Y6.50608
X51.48913 Y6.32368
X51.55595 Y6.28596
X51.63667 Y6.26599
X51.74970 Y6.27692
X51.81541 Y6.30338
X51.87968 Y6.35225
X52.05108 Y6.52873
X52.09253 Y6.60633
X52.10967 Y6.69261
G04 P0 ( dwell for no time -- G64 should not smooth over this point )
G00 Z5.00000 ( retract )

G00 X41.53824 Y6.69261 ( rapid move to begin. )
F300.00000
G01 Z-0.05000
G04 P0 ( dwell for no time -- G64 should not smooth over this point )
F600.00000
G01 X41.53824 Y6.69261
X41.52110 Y6.80821
X41.45072 Y6.91976
X41.24589 Y7.10953
X41.09618 Y7.14966
X40.98811 Y7.12995
X40.90810 Y7.08217
X40.71267 Y6.88578
X40.67119 Y6.80818
X40.65404 Y6.72190
X40.67119 Y6.60633
X40.73126 Y6.50608
X40.91770 Y6.32368
X40.98452 Y6.28596
X41.06524 Y6.26599
X41.17827 Y6.27692
X41.24398 Y6.30338
X41.30825 Y6.35225
X41.47965 Y6.52873
X41.52110 Y6.60633
X41.53824 Y6.69261
G04 P0 ( dwell for no time -- G64 should not smooth over this point )
G00 Z5.00000 ( retract )

G00 X4.10728 Y64.04944 ( rapid move to begin. )
F300.00000
G01 Z-0.05000
G04 P0 ( dwell for no time -- G64 should not smooth over this point )
F600.00000
G01 X4.10728 Y64.04944
X4.05610 Y64.04787
X3.98122 Y64.07624
X4.10728 Y64.04944
G04 P0 ( dwell for no time -- G64 should not smooth over this point )
G00 Z5.00000 ( retract )

G00 X3.11792 Y64.40329 ( rapid move to begin. )
F300.00000
G01 Z-0.05000
G04 P0 ( dwell for no time -- G64 should not smooth over this point )
F600.00000
G01 X3.11792 Y64.40329
X2.97299 Y64.48650
X2.92689 Y64.54208
X3.11792 Y64.40329
G04 P0 ( dwell for no time -- G64 should not smooth over this point )
G00 Z5.00000 ( retract )

G00 X2.33616 Y65.12653 ( rapid move to begin. )
F300.00000
G01 Z-0.05000
G04 P0 ( dwell for no time -- G64 should not smooth over this point )
F600.00000
G01 X2.33616 Y65.12653
X2.33238 Y65.12968
X2.32537 Y65.14523
X2.33616 Y65.12653
G04 P0 ( dwell for no time -- G64 should not smooth over this point )
G00 Z5.00000 ( retract )

G00 X5.15122 Y64.10715 ( rapid move to begin. )
F300.00000
G01 Z-0.05000
G04 P0 ( dwell for no time -- G64 should not smooth over this point )
F600.00000
G01 X5.15122 Y64.10715
X5.08998 Y64.07957
X5.00987 Y64.07711
X5.15122 Y64.10715
G04 P0 ( dwell for no time -- G64 should not smooth over this point )
G00 Z5.00000 ( retract )

G00 X6.06016 Y64.54215 ( rapid move to begin. )
F300.00000
G01 Z-0.05000
G04 P0 ( dwell for no time -- G64 should not smooth over this point )
F600.00000
G01 X6.06016 Y64.54215
X6.02635 Y64.50141
X5.96773 Y64.47500
X6.06016 Y64.54215
G04 P0 ( dwell for no time -- G64 should not smooth over this point )
G00 Z5.00000 ( retract )

G00 X6.77055 Y65.33397 ( rapid move to begin. )
F300.00000
G01 Z-0.05000
G04 P0 ( dwell for no time -- G64 should not smooth over this point )
F600.00000
G01 X6.77055 Y65.33397
X6.73494 Y65.23997
X6.65073 Y65.12646
X6.77055 Y65.33397
G04 P0 ( dwell for no time -- G64 should not smooth over this point )
G00 Z5.00000 ( retract )

G00 X7.10816 Y66.22513 ( rapid move to begin. )
F300.00000
G01 Z-0.05000
G04 P0 ( dwell for no time -- G64 should not smooth over this point )
F600.00000
G01 X7.10816 Y66.22513
X7.10593 Y66.29775
X7.09452 Y66.18909
X7.10816 Y66.22513
G04 P0 ( dwell for no time -- G64 should not smooth over this point )
G00 Z5.00000 ( retract )

G00 X7.07697 Y67.24248 ( rapid move to begin. )
F300.00000
G01 Z-0.05000
G04 P0 ( dwell for no time -- G64 should not smooth over this point )
F600.00000
G01 X7.07697 Y67.24248
X7.07646 Y67.25901
X7.05901 Y67.29775
X7.07697 Y67.24248
G04 P0 ( dwell for no time -- G64 should not smooth over this point )
G00 Z5.00000 ( retract )

G00 X6.66188 Y68.17923 ( rapid move to begin. )
F300.00000
G01 Z-0.05000
G04 P0 ( dwell for no time -- G64 should not smooth over this point )
F600.00000
G01 X6.66188 Y68.17923
X6.65462 Y68.19539
X6.65068 Y68.19866
X6.66188 Y68.17923
G04 P0 ( dwell for no time -- G64 should not smooth over this point )
G00 Z5.00000 ( retract )

G00 X3.01932 Y68.85010 ( rapid move to begin. )
F300.00000
G01 Z-0.05000
G04 P0 ( dwell for no time -- G64 should not smooth over this point )
F600.00000
G01 X3.01932 Y68.85010
X2.96065 Y68.82365
X2.92681 Y68.78286
X3.01932 Y68.85010

G04 P0 ( dwell for no time -- G64 should not smooth over this point )
G00 Z10.000 ( retract )

M5 ( Spindle off. )
G04 P1.000000M9 ( Coolant off. )
M2 ( Program end. )

