( pcb2gcode 1.3.2 )
( Software-independent Gcode )

G94 ( Millimeters per minute feed rate. )
G21 ( Units == Millimeters. )

G90 ( Absolute coordinates. )
S10000 ( RPM spindle speed. )
F200.00000 ( Feedrate. )

F200.00000 ( Feedrate. )
M3 ( Spindle on clockwise. )
G04 P1.00000
G04 P0 ( dwell for no time -- G64 should not smooth over this point )
G00 Z5.00000 ( retract )

G00 X1.54818 Y0.42131 ( rapid move to begin. )
F100.00000
G01 Z-0.04000
G04 P0 ( dwell for no time -- G64 should not smooth over this point )
F200.00000
G01 X1.54818 Y0.42131
X1.55267 Y0.40331
X1.52877 Y0.34349
X1.51269 Y0.31773
X1.47635 Y0.27582
X1.43223 Y0.24199
X1.41010 Y0.22972
X1.35821 Y0.21024
X1.32834 Y0.20409
X1.28813 Y0.20082
X0.47579 Y0.20082
X0.39873 Y0.21319
X0.37053 Y0.22172
X0.34457 Y0.23562
X0.28664 Y0.27628
X0.25588 Y0.31121
X0.23330 Y0.34890
X0.20767 Y0.41496
X0.20152 Y0.46119
X0.20081 Y19.57579
X0.20767 Y19.63657
X0.24320 Y19.72232
X0.28664 Y19.77525
X0.34457 Y19.81592
X0.37051 Y19.82981
X0.44650 Y19.84787
X0.47579 Y19.85077
X39.57579 Y19.85077
X39.65290 Y19.83834
X39.67419 Y19.83243
X39.71597 Y19.81193
X39.74033 Y19.79565
X39.77525 Y19.76489
X39.81592 Y19.70695
X39.82979 Y19.68104
X39.83835 Y19.65290
X39.85077 Y19.57579
X39.85077 Y16.57747
X39.84279 Y16.51534
X39.83164 Y16.47775
X39.80538 Y16.42682
X39.78016 Y16.39347
X39.73738 Y16.35496
X39.70154 Y16.33335
X39.66548 Y16.31839
X39.60850 Y16.30442
X38.72413 Y16.30249
X38.68501 Y16.30559
X38.64216 Y16.31630
X38.59713 Y16.33497
X38.55943 Y16.35755
X38.52451 Y16.38831
X38.48384 Y16.44625
X38.46995 Y16.47221
X38.46141 Y16.50040
X38.44904 Y16.57747
X38.44904 Y18.57833
X31.85853 Y18.57833
X31.85853 Y16.57747
X31.85564 Y16.54818
X31.84022 Y16.47902
X31.81969 Y16.43723
X31.80207 Y16.41125
X31.80209 Y14.30244
X31.85668 Y14.29954
X31.93265 Y14.28146
X31.95856 Y14.26759
X32.01649 Y14.22693
X32.04725 Y14.19200
X32.06353 Y14.16764
X32.08403 Y14.12586
X32.09948 Y14.05675
X32.10237 Y14.02746
X32.10237 Y11.91657
X32.09948 Y11.88728
X32.08406 Y11.81812
X32.05172 Y11.75772
X32.02274 Y11.72645
X32.01898 Y11.23663
X31.99915 Y11.17141
X31.96115 Y11.11164
X31.94248 Y11.08888
X31.87916 Y11.04314
X31.84342 Y11.02632
X31.70242 Y11.04083
X31.62310 Y11.02683
X31.60461 Y11.02175
X31.57649 Y11.00537
X31.50519 Y10.95243
X30.48879 Y9.93605
X30.41101 Y9.87240
X30.31099 Y9.86283
X15.20149 Y9.92564
X15.11361 Y9.91302
X15.08201 Y9.90486
X15.06519 Y9.89539
X15.00149 Y9.85132
X14.97073 Y9.80992
X14.94769 Y9.77128
X14.93377 Y9.71490
X14.92852 Y9.67677
X14.92974 Y9.66382
X14.94691 Y9.58210
X14.98440 Y9.52188
X15.00004 Y9.50159
X15.02067 Y9.48543
X15.08010 Y9.44746
X15.13626 Y9.43384
X15.19941 Y9.42564
X30.49420 Y9.36206
X30.54106 Y9.36773
X30.61256 Y9.38297
X30.67408 Y9.42249
X30.71129 Y9.45145
X31.57128 Y10.31144
X31.62742 Y10.35906
X31.67263 Y10.38914
X31.71756 Y10.41317
X31.78396 Y10.44034
X31.89003 Y10.46945
X31.98408 Y10.48132
X32.02439 Y10.64222
X32.03328 Y10.69013
X32.04034 Y10.76211
X32.03778 Y10.85993
X32.01914 Y11.00837
X31.83572 Y11.02714
X31.84388 Y11.02627
X31.87240 Y11.00679
X31.90255 Y10.97781
X31.92223 Y10.95350
X31.94436 Y10.91799
X31.96498 Y10.86430
X31.97235 Y10.82312
X31.97260 Y10.76567
X31.96770 Y10.73473
X31.94972 Y10.68025
X31.93786 Y10.65696
X31.90430 Y10.61030
X31.69772 Y10.40255
X31.74807 Y10.40964
X31.82510 Y10.39724
X31.85325 Y10.38871
X31.87921 Y10.37484
X31.93714 Y10.33420
X31.96788 Y10.29932
X31.99056 Y10.26153
X32.01771 Y10.18858
X32.02063 Y10.15960
X32.02251 Y9.64149
X39.60020 Y9.63910
X39.64371 Y9.63265
X39.68775 Y9.61759
X39.74749 Y9.57959
X39.77020 Y9.56097
X39.81592 Y9.49773
X39.82979 Y9.47182
X39.84787 Y9.39585
X39.85074 Y9.36570
X39.84665 Y8.91822
X39.82682 Y8.85307
X39.78882 Y8.79333
X39.77020 Y8.77063
X39.74749 Y8.75201
X39.68775 Y8.71401
X39.62219 Y8.69412
X33.12853 Y8.69016
X33.12853 Y6.69006
X39.57579 Y6.69006
X39.60507 Y6.68716
X39.68105 Y6.66908
X39.70695 Y6.65521
X39.77020 Y6.60949
X39.78882 Y6.58678
X39.82682 Y6.52704
X39.84188 Y6.48300
X39.84836 Y6.43946
X39.84836 Y5.90538
X39.84188 Y5.86182
X39.82682 Y5.81777
X39.78882 Y5.75803
X39.77020 Y5.73533
X39.70695 Y5.68961
X39.68099 Y5.67571
X39.65283 Y5.66718
X39.57579 Y5.65481
X33.04006 Y5.65481
X33.03168 Y5.65567
X32.88121 Y5.73830
X32.82653 Y5.75272
X32.75601 Y5.76354
X32.69373 Y5.75443
X32.63257 Y5.73921
X32.57166 Y5.70205
X32.52792 Y5.66939
X32.50880 Y5.65369
X31.70113 Y4.84775
X31.64200 Y4.80091
X31.54248 Y4.79108
X15.45072 Y4.80076
X15.37187 Y4.79050
X15.30253 Y4.77378
X15.22793 Y4.72700
X15.19804 Y4.70375
X15.15580 Y4.64630
X15.12826 Y4.59921
X15.11805 Y4.56273
X15.10375 Y4.47604
X15.11795 Y4.38918
X15.12814 Y4.35268
X15.14233 Y4.32687
X15.19509 Y4.25113
X15.24820 Y4.21041
X15.30218 Y4.17790
X15.37149 Y4.16108
X15.45018 Y4.15075
X31.75607 Y4.14094
X31.83123 Y4.15054
X31.90407 Y4.16789
X31.96773 Y4.20703
X32.02770 Y4.25336
X32.78850 Y5.01417
X32.84464 Y5.06179
X32.87740 Y5.08483
X32.92030 Y5.10845
X32.91593 Y5.10627
X33.01398 Y5.20546
X33.04954 Y5.25069
X33.08276 Y5.31587
X33.10171 Y5.38656
X33.10552 Y5.44394
X33.10389 Y5.47528
X33.08921 Y5.54683
X33.06783 Y5.60022
X33.03168 Y5.65567
X33.12160 Y5.60406
X33.21535 Y5.53530
X33.25106 Y5.50479
X33.25530 Y5.46753
X33.25312 Y5.39436
X33.24331 Y5.33238
X33.22279 Y5.26212
X33.19147 Y5.19702
X33.04095 Y5.15636
X32.98967 Y5.13898
X32.92030 Y5.10845
X32.98967 Y5.10998
X33.01893 Y5.10708
X33.04707 Y5.09855
X33.11802 Y5.06604
X33.14072 Y5.04742
X33.18967 Y4.99621
X33.21304 Y4.95595
X33.22787 Y4.91452
X33.24029 Y4.83741
X33.24029 Y3.69979
X33.22787 Y3.62265
X33.21934 Y3.59454
X33.18096 Y3.53190
X33.03295 Y3.45100
X32.94080 Y3.38273
X32.22693 Y2.66886
X32.19988 Y2.64397
X32.14911 Y2.60668
X32.12462 Y2.60180
X32.07448 Y2.59685
X15.50058 Y2.60074
X15.41147 Y2.58893
X15.33337 Y2.56990
X15.26933 Y2.53134
X15.21272 Y2.48900
X15.16281 Y2.42101
X15.13220 Y2.36825
X15.11023 Y2.27684
X15.10388 Y2.22586
X15.11020 Y2.17493
X15.13207 Y2.08354
X15.16265 Y2.03074
X15.21251 Y1.96271
X15.26905 Y1.92035
X15.33311 Y1.88174
X15.41122 Y1.86264
X15.50037 Y1.85075
X32.28431 Y1.84559
X32.36927 Y1.85664
X32.45157 Y1.87635
X32.52350 Y1.92045
X32.57245 Y1.95710
X32.59191 Y1.97308
X32.72642 Y2.10597
X32.76432 Y2.13683
X32.80565 Y2.16447
X32.83925 Y2.18230
X32.93041 Y2.18268
X32.99599 Y2.16276
X33.05573 Y2.12477
X33.07844 Y2.10615
X33.12416 Y2.04290
X33.13803 Y2.01699
X33.14659 Y1.98885
X33.15901 Y1.91174
X33.15901 Y0.47580
X33.14659 Y0.39866
X33.13806 Y0.37051
X33.12416 Y0.34458
X33.07844 Y0.28134
X33.05573 Y0.26272
X32.99599 Y0.22472
X32.95195 Y0.20966
X32.90841 Y0.20321
X7.98169 Y0.20082
X7.95258 Y0.20366
X7.87682 Y0.22154
X7.85091 Y0.23534
X7.78779 Y0.28078
X7.74202 Y0.34359
X7.72304 Y0.38329
X7.71095 Y0.42802
X7.70902 Y0.48365
X7.67644 Y0.45992
X7.59719 Y0.41537
X7.56856 Y0.40300
X7.45972 Y0.36978
X7.34050 Y0.35809
X7.30981 Y0.35845
X7.21329 Y0.36952
X7.16076 Y0.38255
X7.13173 Y0.39439
X7.02465 Y0.45428
X7.00567 Y0.47204
X6.92790 Y0.56145
X6.86897 Y0.69508
X6.84293 Y0.85225
X6.84072 Y0.91580
X6.84443 Y0.98055
X6.81545 Y0.95852
X6.81334 Y0.85124
X6.82421 Y0.70618
X6.83100 Y0.65860
X6.85228 Y0.55484
X6.88688 Y0.42868
X6.89663 Y0.37110
X6.88076 Y0.34166
X6.84332 Y0.29642
X6.79777 Y0.25934
X6.74139 Y0.22883
X6.68523 Y0.21197
X6.62686 Y0.20635
X6.44111 Y0.20671
X6.38236 Y0.21263
X6.36912 Y0.21667
X6.35487 Y0.21250
X6.29546 Y0.20719
X6.14217 Y0.20877
X6.10151 Y0.21197
X6.06666 Y0.21956
X6.02262 Y0.21311
X5.94416 Y0.20816
X5.89645 Y0.20895
X5.81373 Y0.21692
X5.76135 Y0.22673
X5.68716 Y0.24758
X5.64192 Y0.26432
X5.58754 Y0.29731
X5.56859 Y0.27915
X5.51822 Y0.24717
X5.46252 Y0.22581
X5.40367 Y0.21588
X5.24680 Y0.20529
X5.18919 Y0.20696
X5.13296 Y0.21959
X5.08020 Y0.24275
X5.06290 Y0.25413
X5.00692 Y0.22556
X4.95391 Y0.21116
X4.89915 Y0.20666
X4.73964 Y0.20823
X4.67748 Y0.21537
X4.61815 Y0.23526
X4.58360 Y0.25561
X4.58421 Y0.45794
X4.58043 Y0.50920
X4.45782 Y1.29899
X4.46092 Y1.33757
X4.46791 Y1.35936
X4.48195 Y1.38116
X4.52120 Y1.42736
X4.57654 Y1.48210
X4.57487 Y1.48047
G04 P0 ( dwell for no time -- G64 should not smooth over this point )
G00 Z5.00000 ( retract )

G00 X1.55519 Y0.39337 ( rapid move to begin. )
F100.00000
G01 Z-0.04000
G04 P0 ( dwell for no time -- G64 should not smooth over this point )
F200.00000
G01 X1.55519 Y0.39337
X1.55270 Y0.40336
X1.57774 Y0.31944
X1.61775 Y0.20841
X1.55486 Y0.14555
X1.50497 Y0.11083
X1.42725 Y0.07471
X1.34340 Y0.05487
X1.28813 Y0.05083
X0.47579 Y0.05083
X0.41737 Y0.05657
X0.36952 Y0.06607
X0.31315 Y0.08314
X0.26121 Y0.11093
X0.18587 Y0.16518
X0.13993 Y0.21608
X0.11455 Y0.25210
X0.09474 Y0.29147
X0.06218 Y0.37854
X0.05224 Y0.44659
X0.05082 Y19.57579
X0.05463 Y19.62938
X0.06218 Y19.67299
X0.07607 Y19.71503
X0.11455 Y19.79943
X0.15547 Y19.85440
X0.18587 Y19.88635
X0.26121 Y19.94061
X0.31308 Y19.96837
X0.36936 Y19.98544
X0.41722 Y19.99496
X0.47579 Y20.00075
X39.57579 Y20.00075
X39.63436 Y19.99496
X39.68219 Y19.98544
X39.72478 Y19.97363
X39.78676 Y19.94416
X39.83545 Y19.91160
X39.88635 Y19.86565
X39.94061 Y19.79031
X39.96834 Y19.73847
X39.98544 Y19.68219
X39.99496 Y19.63436
X40.00076 Y19.57579
X40.00076 Y16.57747
X39.99705 Y16.53050
X39.98224 Y16.45354
X39.95798 Y16.39281
X39.92676 Y16.33871
X39.89164 Y16.29314
X39.84998 Y16.25341
X39.79913 Y16.21648
X39.74140 Y16.18610
X39.66657 Y16.16340
X39.62816 Y16.15573
X39.58907 Y16.15316
X38.72425 Y16.15250
X38.67040 Y16.15631
X38.62677 Y16.16385
X38.53970 Y16.19642
X38.50033 Y16.21623
X38.46431 Y16.24160
X38.41341 Y16.28755
X38.35915 Y16.36289
X38.33137 Y16.41483
X38.31430 Y16.47119
X38.30480 Y16.51905
X38.29906 Y16.57747
X38.29906 Y16.82898
X38.29230 Y16.82199
X38.25603 Y16.80106
X38.21719 Y16.78539
X38.18753 Y16.77577
X38.12626 Y16.76276
X38.06365 Y16.76276
X37.99139 Y16.77328
X37.95153 Y16.78623
X37.91389 Y16.80459
X37.85049 Y16.84518
X37.81651 Y16.81912
X37.76081 Y16.79029
X37.71643 Y16.77457
X37.67013 Y16.76601
X37.59217 Y16.76154
X37.53030 Y16.77089
X37.48504 Y16.78427
X37.44247 Y16.80459
X37.37907 Y16.84518
X37.34508 Y16.81912
X37.30371 Y16.79667
X37.26002 Y16.77902
X37.21427 Y16.76764
X37.16774 Y16.76154
X37.12080 Y16.76276
X37.04854 Y16.77328
X37.00869 Y16.78623
X36.94404 Y16.82019
X36.90536 Y16.84676
X36.88235 Y16.86858
X36.85535 Y16.84361
X36.82062 Y16.82019
X36.75105 Y16.78427
X36.70579 Y16.77089
X36.64392 Y16.76154
X36.59698 Y16.76276
X36.52471 Y16.77328
X36.48486 Y16.78623
X36.44722 Y16.80459
X36.38410 Y16.84498
X36.36297 Y16.82814
X36.32271 Y16.80345
X36.24943 Y16.77577
X36.18816 Y16.76276
X36.12555 Y16.76276
X36.05329 Y16.77328
X36.01344 Y16.78623
X35.97579 Y16.80459
X35.91240 Y16.84518
X35.87841 Y16.81912
X35.82271 Y16.79029
X35.76294 Y16.77089
X35.70107 Y16.76154
X35.65413 Y16.76276
X35.58187 Y16.77328
X35.54201 Y16.78623
X35.50437 Y16.80459
X35.43869 Y16.84676
X35.39413 Y16.89070
X35.36536 Y16.92817
X35.34283 Y16.96967
X35.31443 Y17.04262
X35.30587 Y17.08897
X35.30264 Y17.13568
X35.30264 Y17.86903
X35.30917 Y17.93136
X35.31565 Y17.96184
X35.33503 Y18.02146
X35.36635 Y18.07574
X35.38466 Y18.10096
X35.41156 Y18.13304
X35.44265 Y18.16106
X35.47737 Y18.18447
X35.54201 Y18.21843
X35.58187 Y18.23139
X35.65413 Y18.24190
X35.71674 Y18.24190
X35.75385 Y18.23403
X35.77709 Y18.23949
X35.82319 Y18.24307
X36.00340 Y18.24307
X36.04948 Y18.23949
X36.11649 Y18.22189
X36.14900 Y18.20866
X36.14900 Y18.04196
X36.07094 Y18.07899
X36.02644 Y18.09128
X35.82319 Y18.09309
X35.80013 Y18.09128
X35.75494 Y18.07868
X35.70107 Y18.09273
X35.66978 Y18.09273
X35.61814 Y18.08585
X35.57938 Y18.07020
X35.53503 Y18.04290
X35.51948 Y18.02887
X35.48771 Y17.98762
X35.47206 Y17.96047
X35.46236 Y17.93068
X35.45263 Y17.86903
X35.45263 Y17.13568
X35.45934 Y17.08135
X35.46719 Y17.05913
X35.49114 Y17.00988
X35.51600 Y16.97950
X35.55238 Y16.95006
X35.59820 Y16.92530
X35.63876 Y16.91519
X35.69325 Y16.91133
X35.74704 Y16.92169
X35.79675 Y16.94493
X35.83858 Y16.98011
X35.86546 Y17.01214
X35.88796 Y17.05913
X35.89759 Y17.08872
X35.90089 Y17.11968
X35.90231 Y17.64406
X35.92418 Y17.64406
X35.92568 Y17.11966
X35.92898 Y17.08872
X35.93861 Y17.05913
X35.96256 Y17.00988
X35.98743 Y16.97950
X36.02380 Y16.95006
X36.06962 Y16.92530
X36.08956 Y16.91882
X36.14120 Y16.91193
X36.17249 Y16.91193
X36.20312 Y16.91844
X36.25461 Y16.93708
X36.28740 Y16.95865
X36.32106 Y16.99113
X36.34671 Y17.03063
X36.36901 Y17.08872
X36.37231 Y17.11966
X36.37384 Y17.64406
X36.39561 Y17.64406
X36.39710 Y17.11966
X36.40041 Y17.08872
X36.41003 Y17.05913
X36.43399 Y17.00988
X36.47590 Y16.96334
X36.52223 Y16.93446
X36.56099 Y16.91882
X36.63609 Y16.91133
X36.69733 Y16.92430
X36.76297 Y16.96177
X36.79197 Y16.99182
X36.82593 Y17.04414
X36.84211 Y17.10439
X36.84541 Y17.13568
X36.84541 Y17.71188
X36.83490 Y17.77980
X36.76972 Y17.91628
X36.75677 Y17.93787
X36.72713 Y17.97569
X36.66868 Y18.01783
X36.54798 Y18.07708
X36.48026 Y18.09303
X36.27115 Y18.09123
X36.22705 Y18.07899
X36.14900 Y18.04196
G04 P0 ( dwell for no time -- G64 should not smooth over this point )
G00 Z5.00000 ( retract )

G00 X1.61765 Y0.20864 ( rapid move to begin. )
F100.00000
G01 Z-0.04000
G04 P0 ( dwell for no time -- G64 should not smooth over this point )
F200.00000
G01 X1.61765 Y0.20864
X1.68196 Y0.20508
X1.85740 Y0.21519
X1.91267 Y0.22360
X1.96542 Y0.24212
X1.97871 Y0.24979
X2.01884 Y0.22863
X2.07477 Y0.21192
X2.13289 Y0.20635
X2.31859 Y0.20671
X2.37713 Y0.21258
X2.43339 Y0.22977
X2.46418 Y0.24631
X2.45209 Y0.36820
X2.44223 Y0.43076
G04 P0 ( dwell for no time -- G64 should not smooth over this point )
G00 Z5.00000 ( retract )

G00 X2.44353 Y0.42454 ( rapid move to begin. )
F100.00000
G01 Z-0.04000
G04 P0 ( dwell for no time -- G64 should not smooth over this point )
F200.00000
G01 X2.44353 Y0.42454
X2.49349 Y0.39416
X2.51297 Y0.38677
X2.57477 Y0.37001
X2.65486 Y0.35987
X2.74223 Y0.35815
X2.82293 Y0.36536
X2.85737 Y0.37504
X2.91701 Y0.36117
X3.06639 Y0.35672
X3.09649 Y0.35903
X3.12552 Y0.36734
X3.15163 Y0.38090
X3.15163 Y0.21961
X3.12298 Y0.21141
X3.06275 Y0.20679
X2.92912 Y0.21001
X2.89763 Y0.21243
X2.85889 Y0.21999
X2.81820 Y0.21364
X2.72156 Y0.20783
X2.65036 Y0.20996
X2.55435 Y0.22142
X2.50848 Y0.23145
X2.46430 Y0.24519
X2.45209 Y0.36820
G04 P0 ( dwell for no time -- G64 should not smooth over this point )
G00 Z5.00000 ( retract )

G00 X3.15163 Y0.21961 ( rapid move to begin. )
F100.00000
G01 Z-0.04000
G04 P0 ( dwell for no time -- G64 should not smooth over this point )
F200.00000
G01 X3.15163 Y0.21961
X3.17390 Y0.21263
X3.23265 Y0.20671
X3.40169 Y0.20635
X3.46006 Y0.21194
X3.51625 Y0.22883
X3.57266 Y0.25934
X3.61835 Y0.29658
X3.65587 Y0.34199
X3.66082 Y0.35124
X3.64970 Y0.42332
X3.61048 Y0.58098
X3.59552 Y0.66914
X3.59039 Y0.72121
X3.58732 Y0.84788
X3.59008 Y0.96561
X3.61757 Y0.98801
X3.56562 Y0.99805
X3.56367 Y0.98626
X3.55742 Y0.82606
X3.55689 Y0.50912
X3.55396 Y0.47981
X3.54533 Y0.45162
X3.53138 Y0.42568
X3.51264 Y0.40298
X3.48978 Y0.38436
X3.45927 Y0.36757
X3.43118 Y0.35914
X3.40200 Y0.35634
X3.23296 Y0.35670
X3.20360 Y0.35964
X3.17535 Y0.36831
X3.15165 Y0.38093
G04 P0 ( dwell for no time -- G64 should not smooth over this point )
G00 Z5.00000 ( retract )

G00 X3.66082 Y0.35124 ( rapid move to begin. )
F100.00000
G01 Z-0.04000
G04 P0 ( dwell for no time -- G64 should not smooth over this point )
F200.00000
G01 X3.66082 Y0.35124
X3.75623 Y0.28278
X3.80101 Y0.25746
X3.84949 Y0.24014
X3.96501 Y0.21265
X4.09808 Y0.21204
X4.14060 Y0.21578
X4.17494 Y0.22383
X4.24091 Y0.20999
X4.41845 Y0.20635
X4.47670 Y0.21143
X4.53286 Y0.22772
X4.58360 Y0.25398
X4.58358 Y0.25642
G04 P0 ( dwell for no time -- G64 should not smooth over this point )
G00 Z5.00000 ( retract )

G00 X3.61757 Y0.98801 ( rapid move to begin. )
F100.00000
G01 Z-0.04000
G04 P0 ( dwell for no time -- G64 should not smooth over this point )
F200.00000
G01 X3.61757 Y0.98801
X3.61630 Y0.84953
X3.62613 Y0.70216
X3.67025 Y0.57750
X3.73552 Y0.48819
X3.77040 Y0.45489
X3.86339 Y0.39386
X3.88764 Y0.38520
X3.98302 Y0.36155
X4.11685 Y0.36389
X4.17901 Y0.38161
X4.21393 Y0.36828
X4.25859 Y0.35893
X4.42005 Y0.35634
X4.44916 Y0.35888
X4.47725 Y0.36701
X4.50776 Y0.38339
X4.53103 Y0.40201
X4.55018 Y0.42487
X4.56443 Y0.45106
X4.57319 Y0.47953
X4.57619 Y0.53671
X4.52488 Y0.86838
G04 P0 ( dwell for no time -- G64 should not smooth over this point )
G00 Z5.00000 ( retract )

G00 X3.61759 Y0.98801 ( rapid move to begin. )
F100.00000
G01 Z-0.04000
G04 P0 ( dwell for no time -- G64 should not smooth over this point )
F200.00000
G01 X3.61759 Y0.98801
X3.67581 Y1.04341
X3.70009 Y1.07387
X3.79732 Y1.23881
X3.80812 Y1.26447
X3.82089 Y1.32301
X3.82445 Y1.43427
X3.82437 Y1.43018
G04 P0 ( dwell for no time -- G64 should not smooth over this point )
G00 Z5.00000 ( retract )

G00 X3.82447 Y1.43615 ( rapid move to begin. )
F100.00000
G01 Z-0.04000
G04 P0 ( dwell for no time -- G64 should not smooth over this point )
F200.00000
G01 X3.82447 Y1.43615
X3.86019 Y1.45154
X3.93448 Y1.47468
X4.02247 Y1.48357
X4.08305 Y1.48118
X4.08322 Y1.64966
X4.08612 Y1.67897
X4.09471 Y1.70711
X4.10862 Y1.73307
X4.12737 Y1.75578
X4.15015 Y1.77442
X4.17243 Y1.78687
X4.07362 Y1.79698
X4.05909 Y1.88301
X4.05826 Y1.93261
X4.06357 Y1.98217
X4.07500 Y2.03170
X4.11157 Y2.12855
X4.09940 Y2.18565
X4.08917 Y2.26736
X4.08366 Y2.37457
X4.01640 Y2.43884
X3.97037 Y2.48931
G04 P0 ( dwell for no time -- G64 should not smooth over this point )
G00 Z5.00000 ( retract )

G00 X3.82536 Y1.53610 ( rapid move to begin. )
F100.00000
G01 Z-0.04000
G04 P0 ( dwell for no time -- G64 should not smooth over this point )
F200.00000
G01 X3.82536 Y1.53610
X3.89303 Y1.54826
X3.99001 Y1.57414
X4.02318 Y1.64971
X4.07362 Y1.79698
G04 P0 ( dwell for no time -- G64 should not smooth over this point )
G00 Z5.00000 ( retract )

G00 X4.16402 Y1.78809 ( rapid move to begin. )
F100.00000
G01 Z-0.04000
G04 P0 ( dwell for no time -- G64 should not smooth over this point )
F200.00000
G01 X4.16402 Y1.78809
X4.17245 Y1.78690
X4.14665 Y1.81059
X4.13047 Y1.83305
X4.11868 Y1.85812
X4.11066 Y1.89144
X4.10875 Y1.91971
X4.11218 Y1.94783
X4.12084 Y1.97478
X4.13443 Y1.99965
X4.15244 Y2.02151
X4.23994 Y2.10932
X4.21665 Y2.14778
X4.18632 Y2.22144
X4.17863 Y2.24597
X4.17520 Y2.27143
X4.17162 Y2.37559
X4.19631 Y2.48870
X4.19186 Y2.48382
G04 P0 ( dwell for no time -- G64 should not smooth over this point )
G00 Z5.00000 ( retract )

G00 X4.20268 Y1.78258 ( rapid move to begin. )
F100.00000
G01 Z-0.04000
G04 P0 ( dwell for no time -- G64 should not smooth over this point )
F200.00000
G01 X4.20268 Y1.78258
X4.17243 Y1.78687
X4.20268 Y1.78258
X4.33928 Y1.74295
X4.44688 Y1.71834
X4.49488 Y1.69325
X4.51904 Y1.67475
X4.57659 Y1.61522
X4.57654 Y1.48207
X4.69237 Y1.47453
X4.72270 Y1.46934
X4.75132 Y1.45807
X4.77705 Y1.44118
X4.79879 Y1.41941
X4.81563 Y1.39365
X4.83517 Y1.33511
X4.86151 Y1.40678
X4.87751 Y1.43013
X4.89762 Y1.45007
X4.92584 Y1.46843
X4.95226 Y1.47966
X4.98033 Y1.48563
X5.00903 Y1.48616
X5.14307 Y1.47575
X5.17179 Y1.47067
X5.19897 Y1.46012
X5.22361 Y1.44453
X5.24477 Y1.42444
X5.26166 Y1.40066
X5.28807 Y1.33102
X5.30961 Y1.39901
X5.32396 Y1.42256
X5.34240 Y1.44308
X5.36427 Y1.45987
X5.38884 Y1.47239
X5.41530 Y1.48019
X5.44273 Y1.48301
X5.66079 Y1.48339
X5.70644 Y1.46876
X5.73362 Y1.45078
X5.71164 Y1.35685
X5.69262 Y1.31590
X5.65726 Y1.26269
X5.64251 Y1.22660
X5.63793 Y1.19767
X5.64301 Y1.16180
X5.67377 Y1.06002
X5.64218 Y1.01324
X5.60164 Y0.93899
X5.55800 Y0.81613
X5.54019 Y0.70610
X5.53831 Y0.62264
X5.54736 Y0.53567
X5.52640 Y0.46973
X5.51457 Y0.44232
X5.49755 Y0.41784
X5.47603 Y0.39716
X5.45084 Y0.38118
X5.42300 Y0.37049
X5.39356 Y0.36554
X5.23669 Y0.35494
X5.20789 Y0.35578
X5.17977 Y0.36208
X5.14868 Y0.37631
X5.12498 Y0.39274
X5.10486 Y0.41339
X5.08906 Y0.43749
X5.06224 Y0.51738
X5.04553 Y0.46274
X5.03512 Y0.43732
X5.02026 Y0.41423
X5.00143 Y0.39424
X4.97926 Y0.37801
X4.95452 Y0.36610
X4.92800 Y0.35888
X4.90062 Y0.35665
X4.74111 Y0.35822
X4.71005 Y0.36178
X4.68038 Y0.37173
X4.65343 Y0.38758
X4.63034 Y0.40872
X4.61215 Y0.43417
X4.59963 Y0.46282
X4.57619 Y0.53671
X4.58043 Y0.50920
G04 P0 ( dwell for no time -- G64 should not smooth over this point )
G00 Z5.00000 ( retract )

G00 X4.57659 Y1.61519 ( rapid move to begin. )
F100.00000
G01 Z-0.04000
G04 P0 ( dwell for no time -- G64 should not smooth over this point )
F200.00000
G01 X4.57659 Y1.61519
X4.57659 Y1.61522
G04 P0 ( dwell for no time -- G64 should not smooth over this point )
G00 Z5.00000 ( retract )

G00 X4.57654 Y1.48210 ( rapid move to begin. )
F100.00000
G01 Z-0.04000
G04 P0 ( dwell for no time -- G64 should not smooth over this point )
F200.00000
G01 X4.57654 Y1.48210
X4.58388 Y1.48913
X4.64517 Y1.54646
G04 P0 ( dwell for no time -- G64 should not smooth over this point )
G00 Z5.00000 ( retract )

G00 X5.54736 Y0.53567 ( rapid move to begin. )
F100.00000
G01 Z-0.04000
G04 P0 ( dwell for no time -- G64 should not smooth over this point )
F200.00000
G01 X5.54736 Y0.53567
X5.58762 Y0.48095
X5.60956 Y0.46279
X5.68414 Y0.41222
X5.72775 Y0.39198
X5.80194 Y0.37112
X5.82813 Y0.36622
X5.93471 Y0.35784
X6.03189 Y0.36518
X6.06755 Y0.37554
X6.12338 Y0.36035
X6.29701 Y0.35718
X6.32671 Y0.35982
X6.35528 Y0.36831
X6.36966 Y0.37590
X6.36912 Y0.21667
G04 P0 ( dwell for no time -- G64 should not smooth over this point )
G00 Z5.00000 ( retract )

G00 X5.54736 Y0.53564 ( rapid move to begin. )
F100.00000
G01 Z-0.04000
G04 P0 ( dwell for no time -- G64 should not smooth over this point )
F200.00000
G01 X5.54736 Y0.53564
X5.58327 Y0.34374
X5.58754 Y0.29731
X5.58327 Y0.34374
G04 P0 ( dwell for no time -- G64 should not smooth over this point )
G00 Z5.00000 ( retract )

G00 X6.36996 Y0.45939 ( rapid move to begin. )
F100.00000
G01 Z-0.04000
G04 P0 ( dwell for no time -- G64 should not smooth over this point )
F200.00000
G01 X6.36996 Y0.45939
X6.36638 Y0.91138
X6.36074 Y1.11720
X6.35533 Y1.18286
X6.34540 Y1.24651
X6.30156 Y1.39147
X6.31464 Y1.41600
X6.33318 Y1.43869
X6.35576 Y1.45730
X6.38154 Y1.47120
X6.40953 Y1.47983
X6.43864 Y1.48283
X6.60435 Y1.48283
X6.67367 Y1.46637
X6.76333 Y1.48347
X6.86399 Y1.48522
X6.89257 Y1.48230
X6.97824 Y1.46368
X7.03486 Y1.43612
X7.06153 Y1.41852
X7.05774 Y1.30341
X7.04443 Y1.26127
X7.03455 Y1.24143
X6.99302 Y1.18210
X6.96021 Y1.11910
X6.93095 Y1.07189
X6.88276 Y1.01534
X6.84443 Y0.98055
G04 P0 ( dwell for no time -- G64 should not smooth over this point )
G00 Z5.00000 ( retract )

G00 X6.36968 Y0.37593 ( rapid move to begin. )
F100.00000
G01 Z-0.04000
G04 P0 ( dwell for no time -- G64 should not smooth over this point )
F200.00000
G01 X6.36968 Y0.37593
X6.36996 Y0.45939
X6.36968 Y0.37593
X6.38378 Y0.36831
X6.41202 Y0.35964
X6.44139 Y0.35670
X6.62714 Y0.35634
X6.65632 Y0.35914
X6.68441 Y0.36757
X6.71489 Y0.38436
X6.73768 Y0.40290
X6.75640 Y0.42551
X6.77034 Y0.45136
X6.77900 Y0.47940
X6.78200 Y0.50861
X6.78396 Y0.89530
X6.79038 Y0.99523
X6.84390 Y0.98017
G04 P0 ( dwell for no time -- G64 should not smooth over this point )
G00 Z5.00000 ( retract )

G00 X6.89663 Y0.37110 ( rapid move to begin. )
F100.00000
G01 Z-0.04000
G04 P0 ( dwell for no time -- G64 should not smooth over this point )
F200.00000
G01 X6.89663 Y0.37110
X6.93209 Y0.33628
X6.97560 Y0.30788
X7.06092 Y0.26218
X7.11901 Y0.23849
X7.19620 Y0.22050
X7.29272 Y0.20943
X7.35406 Y0.20872
X7.45749 Y0.21811
X7.52007 Y0.23061
X7.61697 Y0.26140
X7.64479 Y0.21949
X7.68205 Y0.17440
X7.72736 Y0.13739
X7.76782 Y0.11047
X7.81964 Y0.08289
X7.87583 Y0.06594
X7.92350 Y0.05652
X7.98172 Y0.05083
X32.90844 Y0.05322
X32.95243 Y0.05644
X33.01893 Y0.07323
X33.06013 Y0.08913
X33.13910 Y0.13803
X33.18449 Y0.17529
X33.22175 Y0.22068
X33.24885 Y0.26122
X33.27661 Y0.31309
X33.29368 Y0.36937
X33.30321 Y0.41723
X33.30900 Y0.47580
X33.30897 Y0.92195
X33.29135 Y0.96937
X33.27125 Y1.03767
X33.24192 Y1.16297
X33.23313 Y1.21212
X33.20448 Y1.44544
X33.20158 Y1.49276
X33.20158 Y1.77298
X33.21570 Y1.91174
X33.21995 Y2.00346
X33.21817 Y2.05728
X33.20674 Y2.18512
X33.18449 Y2.21219
X33.12505 Y2.25888
X33.08403 Y2.25484
X32.96869 Y2.23305
X32.90841 Y2.21331
X32.83925 Y2.18230
G04 P0 ( dwell for no time -- G64 should not smooth over this point )
G00 Z5.00000 ( retract )

G00 X7.64245 Y0.33490 ( rapid move to begin. )
F100.00000
G01 Z-0.04000
G04 P0 ( dwell for no time -- G64 should not smooth over this point )
F200.00000
G01 X7.64245 Y0.33490
X7.61697 Y0.26140
X7.66399 Y0.39066
X7.70900 Y0.48362
G04 P0 ( dwell for no time -- G64 should not smooth over this point )
G00 Z5.00000 ( retract )

G00 X7.70902 Y0.48365 ( rapid move to begin. )
F100.00000
G01 Z-0.04000
G04 P0 ( dwell for no time -- G64 should not smooth over this point )
F200.00000
G01 X7.70902 Y0.48365
X7.76043 Y0.59503
X7.76882 Y0.64771
X7.74834 Y0.74532
X7.77595 Y0.79977
X7.78952 Y0.85710
X7.79292 Y0.88768
X7.79328 Y0.94278
X7.78426 Y1.05751
X7.76762 Y1.13241
X7.75213 Y1.17709
X7.72797 Y1.22764
X7.68759 Y1.28784
X7.65005 Y1.33340
X7.59541 Y1.40866
X7.58688 Y1.46251
X7.58944 Y1.49218
X7.60694 Y1.56927
X7.64095 Y1.62616
X7.68888 Y1.65669
X7.75624 Y1.69185
X7.78728 Y1.70671
X7.86798 Y1.73635
X7.87603 Y1.87414
X7.87423 Y1.90221
X7.86363 Y1.92606
X7.82899 Y1.97750
X7.79531 Y2.04176
X7.72792 Y2.13655
X7.69891 Y2.16459
X7.72792 Y2.13655
G04 P0 ( dwell for no time -- G64 should not smooth over this point )
G00 Z5.00000 ( retract )

G00 X7.06120 Y1.40529 ( rapid move to begin. )
F100.00000
G01 Z-0.04000
G04 P0 ( dwell for no time -- G64 should not smooth over this point )
F200.00000
G01 X7.06120 Y1.40529
X7.06153 Y1.41793
X7.10019 Y1.43798
X7.19267 Y1.46873
X7.22269 Y1.47539
X7.29165 Y1.48212
X7.39356 Y1.48057
X7.42945 Y1.47564
X7.53303 Y1.44648
X7.59541 Y1.40866
X7.51654 Y1.53500
G04 P0 ( dwell for no time -- G64 should not smooth over this point )
G00 Z5.00000 ( retract )

G00 X5.74761 Y1.59665 ( rapid move to begin. )
F100.00000
G01 Z-0.04000
G04 P0 ( dwell for no time -- G64 should not smooth over this point )
F200.00000
G01 X5.74761 Y1.59665
X5.73362 Y1.45078
X5.79163 Y1.46952
X5.89054 Y1.48418
X5.97895 Y1.48707
X6.08180 Y1.47956
X6.19569 Y1.45243
X6.27397 Y1.41098
X6.30156 Y1.39147
X6.29038 Y1.44090
X6.27657 Y1.53132
G04 P0 ( dwell for no time -- G64 should not smooth over this point )
G00 Z5.00000 ( retract )

G00 X6.56727 Y1.56144 ( rapid move to begin. )
F100.00000
G01 Z-0.04000
G04 P0 ( dwell for no time -- G64 should not smooth over this point )
F200.00000
G01 X6.56727 Y1.56144
X6.67659 Y1.54808
X6.75104 Y1.55443
X6.90829 Y1.56078
X6.96559 Y1.56873
X7.06249 Y1.58898
X7.08157 Y1.61209
X7.08738 Y1.62294
X7.07781 Y1.68674
X7.03216 Y1.85090
X7.02279 Y1.89297
X7.00577 Y2.00536
X6.99881 Y2.12045
X6.99889 Y2.22954
X7.01586 Y2.24156
X6.98286 Y2.25017
X6.98253 Y1.77925
X6.97964 Y1.74991
X6.97103 Y1.72172
X6.95706 Y1.69573
X6.93829 Y1.67298
X6.91543 Y1.65436
X6.88495 Y1.63757
X6.85685 Y1.62914
X6.82767 Y1.62634
X6.64192 Y1.62670
X6.61256 Y1.62964
X6.58431 Y1.63831
X6.56836 Y1.64692
G04 P0 ( dwell for no time -- G64 should not smooth over this point )
G00 Z5.00000 ( retract )

G00 X6.97860 Y1.57133 ( rapid move to begin. )
F100.00000
G01 Z-0.04000
G04 P0 ( dwell for no time -- G64 should not smooth over this point )
F200.00000
G01 X6.97860 Y1.57133
X7.06458 Y1.58941
X7.07087 Y1.58629
X7.06153 Y1.41852
G04 P0 ( dwell for no time -- G64 should not smooth over this point )
G00 Z5.00000 ( retract )

G00 X7.08700 Y1.62670 ( rapid move to begin. )
F100.00000
G01 Z-0.04000
G04 P0 ( dwell for no time -- G64 should not smooth over this point )
F200.00000
G01 X7.08700 Y1.62670
X7.08751 Y1.62187
X7.11243 Y1.60010
G04 P0 ( dwell for no time -- G64 should not smooth over this point )
G00 Z5.00000 ( retract )

G00 X7.86798 Y1.73635 ( rapid move to begin. )
F100.00000
G01 Z-0.04000
G04 P0 ( dwell for no time -- G64 should not smooth over this point )
F200.00000
G01 X7.86798 Y1.73635
X8.03681 Y1.66132
X8.09155 Y1.64788
X8.14265 Y1.63996
X8.22035 Y1.63704
X8.30905 Y1.64755
X8.34941 Y1.65621
X8.40262 Y1.67333
X8.45299 Y1.69571
X8.51392 Y1.73389
X8.54578 Y1.75862
X8.60430 Y1.81181
X8.61494 Y1.82347
X8.63432 Y1.85514
X8.63938 Y1.86919
X8.64402 Y1.91644
X8.63376 Y1.95964
X8.61382 Y2.01156
X8.63676 Y2.07661
X8.64509 Y2.13835
X8.64321 Y2.28123
X8.63549 Y2.36314
X8.63049 Y2.39502
X8.61326 Y2.45316
X8.58710 Y2.49985
X8.56132 Y2.53683
X8.52528 Y2.57818
X8.47123 Y2.62484
X8.42736 Y2.65418
X8.36318 Y2.68545
X8.29150 Y2.70914
X8.23554 Y2.71692
X8.15101 Y2.71910
X8.09145 Y2.71100
X8.04334 Y2.69820
X7.86958 Y2.62156
G04 P0 ( dwell for no time -- G64 should not smooth over this point )
G00 Z5.00000 ( retract )

G00 X7.69340 Y2.16998 ( rapid move to begin. )
F100.00000
G01 Z-0.04000
G04 P0 ( dwell for no time -- G64 should not smooth over this point )
F200.00000
G01 X7.69340 Y2.16998
X7.69894 Y2.16462
X7.69886 Y2.17605
G04 P0 ( dwell for no time -- G64 should not smooth over this point )
G00 Z5.00000 ( retract )

G00 X7.25980 Y2.65964 ( rapid move to begin. )
F100.00000
G01 Z-0.04000
G04 P0 ( dwell for no time -- G64 should not smooth over this point )
F200.00000
G01 X7.25980 Y2.65964
X7.42033 Y2.70729
X7.49985 Y2.71763
X7.55208 Y2.71819
X7.63364 Y2.70790
X7.68568 Y2.69484
X7.86958 Y2.62156
X7.87839 Y2.51303
X7.87534 Y2.46322
X7.86676 Y2.43366
X7.74517 Y2.23521
X7.72274 Y2.20264
X7.69886 Y2.17605
X7.65604 Y2.18105
X7.62950 Y2.19129
X7.60537 Y2.20633
X7.53851 Y2.25746
X7.51421 Y2.25141
X7.51217 Y2.24735
X7.50412 Y2.19632
X7.50491 Y2.13053
X7.51009 Y2.11049
X7.52137 Y2.10704
X7.54552 Y2.10701
X7.56386 Y2.11290
X7.61774 Y2.14697
X7.63877 Y2.15499
X7.69891 Y2.16459
X7.69340 Y2.16998
X7.69884 Y2.17602
G04 P0 ( dwell for no time -- G64 should not smooth over this point )
G00 Z5.00000 ( retract )

G00 X7.01611 Y2.24173 ( rapid move to begin. )
F100.00000
G01 Z-0.04000
G04 P0 ( dwell for no time -- G64 should not smooth over this point )
F200.00000
G01 X7.01611 Y2.24173
X7.01619 Y2.10041
X7.02866 Y2.00848
X7.03542 Y1.98001
X7.06079 Y1.90600
X7.07453 Y1.87668
X7.11474 Y1.81214
X7.19363 Y1.72751
X7.23155 Y1.69845
X7.31748 Y1.65222
X7.35152 Y1.63897
X7.42510 Y1.62022
X7.45942 Y1.61560
X7.57100 Y1.61359
X7.59163 Y1.61466
X7.64093 Y1.62614
X7.51654 Y1.53500
X7.33178 Y1.56147
X7.11243 Y1.60010
X7.07087 Y1.58629
G04 P0 ( dwell for no time -- G64 should not smooth over this point )
G00 Z5.00000 ( retract )

G00 X6.68589 Y2.72868 ( rapid move to begin. )
F100.00000
G01 Z-0.04000
G04 P0 ( dwell for no time -- G64 should not smooth over this point )
F200.00000
G01 X6.68589 Y2.72868
X6.75162 Y2.71427
X6.86770 Y2.69876
X6.97560 Y2.72004
X7.05299 Y2.71905
X7.13503 Y2.70328
X7.25980 Y2.65964
X7.25607 Y2.60300
X7.24527 Y2.54623
X7.21748 Y2.48463
X7.17026 Y2.41826
X7.13686 Y2.36094
X7.10996 Y2.32568
X7.07888 Y2.29246
X7.01586 Y2.24156
G04 P0 ( dwell for no time -- G64 should not smooth over this point )
G00 Z5.00000 ( retract )

G00 X6.56996 Y2.76589 ( rapid move to begin. )
F100.00000
G01 Z-0.04000
G04 P0 ( dwell for no time -- G64 should not smooth over this point )
F200.00000
G01 X6.56996 Y2.76589
X6.68589 Y2.72868
X6.66323 Y2.73612
G04 P0 ( dwell for no time -- G64 should not smooth over this point )
G00 Z5.00000 ( retract )

G00 X6.50232 Y2.81410 ( rapid move to begin. )
F100.00000
G01 Z-0.04000
G04 P0 ( dwell for no time -- G64 should not smooth over this point )
F200.00000
G01 X6.50232 Y2.81410
X6.56996 Y2.76589
X6.56950 Y2.71770
G04 P0 ( dwell for no time -- G64 should not smooth over this point )
G00 Z5.00000 ( retract )

G00 X6.49902 Y2.97826 ( rapid move to begin. )
F100.00000
G01 Z-0.04000
G04 P0 ( dwell for no time -- G64 should not smooth over this point )
F200.00000
G01 X6.49902 Y2.97826
X6.56404 Y3.04549
X6.55713 Y3.02695
X6.55246 Y2.99751
X6.54956 Y2.94816
X6.54992 Y2.92583
X6.55947 Y2.87968
X6.57641 Y2.83835
X6.60176 Y2.79591
X6.61952 Y2.77193
X6.66323 Y2.73612
X6.61085 Y2.73327
X6.56950 Y2.71770
X6.56826 Y2.58763
G04 P0 ( dwell for no time -- G64 should not smooth over this point )
G00 Z5.00000 ( retract )

G00 X6.42376 Y3.04892 ( rapid move to begin. )
F100.00000
G01 Z-0.04000
G04 P0 ( dwell for no time -- G64 should not smooth over this point )
F200.00000
G01 X6.42376 Y3.04892
X6.49902 Y2.97826
X6.50232 Y2.81410
X6.43135 Y2.76850
X6.36054 Y2.73652
X6.49541 Y2.73749
X6.52480 Y2.73480
X6.55307 Y2.72642
X6.56948 Y2.71770
X6.56834 Y1.64689
X6.56940 Y1.72868
G04 P0 ( dwell for no time -- G64 should not smooth over this point )
G00 Z5.00000 ( retract )

G00 X5.69882 Y2.64110 ( rapid move to begin. )
F100.00000
G01 Z-0.04000
G04 P0 ( dwell for no time -- G64 should not smooth over this point )
F200.00000
G01 X5.69882 Y2.64110
X5.74380 Y2.67338
X5.79018 Y2.69987
X5.86679 Y2.71247
X5.98342 Y2.71323
X6.04375 Y2.70439
X6.07878 Y2.69253
X6.14408 Y2.65857
X6.17535 Y2.65878
X6.15957 Y2.64928
X6.14372 Y2.65878
X6.15213 Y2.64310
X6.15965 Y2.61867
X6.16724 Y2.64361
X6.17537 Y2.65880
X6.22333 Y2.68555
X6.26084 Y2.70236
X6.36054 Y2.73652
X6.40412 Y2.78433
X6.43659 Y2.85588
X6.44504 Y2.88418
X6.44776 Y2.91359
X6.44441 Y2.99210
X6.42325 Y3.04945
G04 P0 ( dwell for no time -- G64 should not smooth over this point )
G00 Z5.00000 ( retract )

G00 X5.69089 Y2.63995 ( rapid move to begin. )
F100.00000
G01 Z-0.04000
G04 P0 ( dwell for no time -- G64 should not smooth over this point )
F200.00000
G01 X5.69089 Y2.63995
X5.69882 Y2.64110
X5.69846 Y2.64082
X5.69844 Y2.64079
G04 P0 ( dwell for no time -- G64 should not smooth over this point )
G00 Z5.00000 ( retract )

G00 X5.69651 Y2.63437 ( rapid move to begin. )
F100.00000
G01 Z-0.04000
G04 P0 ( dwell for no time -- G64 should not smooth over this point )
F200.00000
G01 X5.69651 Y2.63437
X5.69651 Y2.63439
G04 P0 ( dwell for no time -- G64 should not smooth over this point )
G00 Z5.00000 ( retract )

G00 X5.37893 Y2.21966 ( rapid move to begin. )
F100.00000
G01 Z-0.04000
G04 P0 ( dwell for no time -- G64 should not smooth over this point )
F200.00000
G01 X5.37893 Y2.21966
X5.37951 Y2.23592
X5.38403 Y2.16990
X5.38205 Y2.15400
X5.37893 Y2.21966
G04 P0 ( dwell for no time -- G64 should not smooth over this point )
G00 Z5.00000 ( retract )

G00 X5.03245 Y2.60820 ( rapid move to begin. )
F100.00000
G01 Z-0.04000
G04 P0 ( dwell for no time -- G64 should not smooth over this point )
F200.00000
G01 X5.03245 Y2.60820
X5.10575 Y2.64582
X5.19803 Y2.68760
X5.23595 Y2.70140
X5.29679 Y2.71250
X5.36722 Y2.71913
X5.42262 Y2.71826
X5.50174 Y2.70536
X5.69562 Y2.63846
X5.69087 Y2.63995
X5.69638 Y2.63492
X5.69844 Y2.64079
X5.69638 Y2.63492
X5.71053 Y2.58633
X5.74101 Y2.50279
X5.75780 Y2.43477
X5.76811 Y2.36127
X5.77344 Y2.27244
X5.77634 Y2.09086
X5.77207 Y1.96447
X5.75536 Y1.79177
X5.78670 Y1.74953
X5.83410 Y1.70841
X5.89872 Y1.66835
X5.92475 Y1.65631
X6.03882 Y1.61842
X6.15678 Y1.61405
X6.18210 Y1.61565
X6.27337 Y1.64339
X6.32452 Y1.63010
X6.34558 Y1.62863
X6.49780 Y1.62855
X6.52709 Y1.63142
X6.56834 Y1.64689
X6.56727 Y1.56144
X6.49775 Y1.55586
X6.39188 Y1.55319
X6.27657 Y1.53132
X6.15520 Y1.53991
X6.00199 Y1.55591
X5.85609 Y1.57948
X5.75366 Y1.59975
G04 P0 ( dwell for no time -- G64 should not smooth over this point )
G00 Z5.00000 ( retract )

G00 X4.20276 Y2.49583 ( rapid move to begin. )
F100.00000
G01 Z-0.04000
G04 P0 ( dwell for no time -- G64 should not smooth over this point )
F200.00000
G01 X4.20276 Y2.49583
X4.19590 Y2.48829
X4.28485 Y2.58786
X4.32102 Y2.62235
X4.37251 Y2.65740
X4.45122 Y2.69124
X4.50329 Y2.70432
X4.57233 Y2.71516
X4.69018 Y2.71669
X4.75074 Y2.71006
X4.79580 Y2.70018
X4.83438 Y2.68905
X5.03245 Y2.60820
X5.02374 Y2.48288
X5.00151 Y2.42479
X4.94268 Y2.29944
X4.98218 Y2.19601
X4.99910 Y2.11108
X5.00903 Y2.03096
X5.01629 Y1.92690
X5.02005 Y1.76007
X5.06707 Y1.71331
X5.16407 Y1.65644
X5.18848 Y1.64532
X5.24441 Y1.62802
X5.32399 Y1.61461
X5.43323 Y1.61285
X5.46344 Y1.61603
X5.53654 Y1.63137
X5.58185 Y1.64892
X5.63974 Y1.68301
X5.66402 Y1.70081
X5.72097 Y1.75212
X5.75536 Y1.79180
X5.75203 Y1.67701
X5.75366 Y1.59975
X5.55183 Y1.55857
X5.39163 Y1.54463
X5.28368 Y1.52200
X5.22993 Y1.54201
X5.01800 Y1.60386
X4.92836 Y1.57552
X4.87799 Y1.55652
X4.83148 Y1.53373
X4.78188 Y1.54145
X4.69719 Y1.54694
X4.64517 Y1.54646
X4.57659 Y1.61519
X4.66552 Y1.61618
X4.77111 Y1.62916
X4.80174 Y1.63625
X4.89615 Y1.66884
X4.93893 Y1.69192
X5.02008 Y1.75710
X5.01929 Y1.80351
X5.01800 Y1.60386
G04 P0 ( dwell for no time -- G64 should not smooth over this point )
G00 Z5.00000 ( retract )

G00 X3.97040 Y2.48928 ( rapid move to begin. )
F100.00000
G01 Z-0.04000
G04 P0 ( dwell for no time -- G64 should not smooth over this point )
F200.00000
G01 X3.97040 Y2.48928
X4.01459 Y2.47109
X4.06095 Y2.46347
X4.09039 Y2.46261
X4.13712 Y2.46749
X4.19590 Y2.48829
X4.16613 Y2.45405
X4.08366 Y2.37457
G04 P0 ( dwell for no time -- G64 should not smooth over this point )
G00 Z5.00000 ( retract )

G00 X3.07055 Y1.70000 ( rapid move to begin. )
F100.00000
G01 Z-0.04000
G04 P0 ( dwell for no time -- G64 should not smooth over this point )
F200.00000
G01 X3.07055 Y1.70000
X3.09179 Y1.67211
X3.11432 Y1.65347
X3.14005 Y1.63952
X3.16799 Y1.63086
X3.19709 Y1.62779
X3.38445 Y1.62634
X3.41393 Y1.62903
X3.44231 Y1.63747
X3.46847 Y1.65131
X3.49580 Y1.67285
X3.51449 Y1.69540
X3.52768 Y1.71976
X3.54076 Y1.69530
X3.55925 Y1.67270
X3.58178 Y1.65410
X3.60748 Y1.64024
X3.63540 Y1.63160
X3.66445 Y1.62855
X3.85516 Y1.62718
X3.88447 Y1.62985
X3.91269 Y1.63820
X3.93872 Y1.65189
X3.96161 Y1.67041
X3.98043 Y1.69304
X3.99445 Y1.71890
X4.00316 Y1.74702
X4.00621 Y1.77630
X4.00796 Y2.09551
X4.00146 Y2.32022
X3.99074 Y2.41011
X3.97037 Y2.48931
X3.89478 Y2.57653
X3.84413 Y2.62489
X3.81541 Y2.64707
X3.78381 Y2.66599
X3.75955 Y2.67854
X3.72437 Y2.69119
X3.65005 Y2.71049
X3.59984 Y2.71631
X3.53573 Y2.71560
X3.42735 Y2.69708
X3.33362 Y2.71151
X3.23065 Y2.71379
X3.14434 Y2.72062
G04 P0 ( dwell for no time -- G64 should not smooth over this point )
G00 Z5.00000 ( retract )

G00 X3.06148 Y1.54402 ( rapid move to begin. )
F100.00000
G01 Z-0.04000
G04 P0 ( dwell for no time -- G64 should not smooth over this point )
F200.00000
G01 X3.06148 Y1.54402
X3.23057 Y1.55517
X3.45633 Y1.55215
X3.52724 Y1.57536
X3.62841 Y1.55761
X3.72056 Y1.55098
X3.82536 Y1.53610
X3.82442 Y1.43427
X3.78516 Y1.45344
X3.73608 Y1.46886
X3.65054 Y1.48235
X3.54193 Y1.48070
X3.45308 Y1.46269
X3.39397 Y1.48123
X3.23075 Y1.48283
X3.20154 Y1.47991
X3.17347 Y1.47135
X3.14762 Y1.45748
X3.12496 Y1.43886
X3.10634 Y1.41616
X3.09250 Y1.39027
X3.08930 Y1.38161
X3.09616 Y1.35639
X3.08958 Y1.38065
G04 P0 ( dwell for no time -- G64 should not smooth over this point )
G00 Z5.00000 ( retract )

G00 X3.09616 Y1.35639 ( rapid move to begin. )
F100.00000
G01 Z-0.04000
G04 P0 ( dwell for no time -- G64 should not smooth over this point )
F200.00000
G01 X3.09616 Y1.35639
X3.13202 Y1.24760
X3.14749 Y1.15314
X3.15181 Y0.83584
X3.15163 Y0.38090
X3.15165 Y0.45240
G04 P0 ( dwell for no time -- G64 should not smooth over this point )
G00 Z5.00000 ( retract )

G00 X2.36232 Y1.52408 ( rapid move to begin. )
F100.00000
G01 Z-0.04000
G04 P0 ( dwell for no time -- G64 should not smooth over this point )
F200.00000
G01 X2.36232 Y1.52408
X2.36319 Y1.54364
X2.35856 Y1.34890
X2.41350 Y1.39746
X2.48493 Y1.44224
X2.56075 Y1.46688
X2.66336 Y1.48159
X2.75564 Y1.48474
X2.86021 Y1.47813
X2.88953 Y1.47333
X2.99054 Y1.44445
X3.08930 Y1.38161
X3.07088 Y1.45974
X3.06148 Y1.54402
X3.04685 Y1.55235
X2.82440 Y1.54768
X2.66042 Y1.54968
X2.39948 Y1.56619
X2.36316 Y1.54364
X2.35028 Y1.55230
X2.38635 Y1.57501
X2.37988 Y1.72050
X2.38226 Y1.77811
G04 P0 ( dwell for no time -- G64 should not smooth over this point )
G00 Z5.00000 ( retract )

G00 X2.38635 Y1.57501 ( rapid move to begin. )
F100.00000
G01 Z-0.04000
G04 P0 ( dwell for no time -- G64 should not smooth over this point )
F200.00000
G01 X2.38635 Y1.57501
X2.40040 Y1.56614
X2.46197 Y1.56231
G04 P0 ( dwell for no time -- G64 should not smooth over this point )
G00 Z5.00000 ( retract )

G00 X2.38226 Y1.77775 ( rapid move to begin. )
F100.00000
G01 Z-0.04000
G04 P0 ( dwell for no time -- G64 should not smooth over this point )
F200.00000
G01 X2.38226 Y1.77775
X2.42537 Y1.72982
X2.52628 Y1.66398
X2.56273 Y1.64725
X2.66133 Y1.61842
X2.79644 Y1.61186
X2.91419 Y1.63160
X2.94843 Y1.64194
X3.03972 Y1.68192
X3.07053 Y1.69998
X3.05856 Y1.63889
X3.04685 Y1.55235
G04 P0 ( dwell for no time -- G64 should not smooth over this point )
G00 Z5.00000 ( retract )

G00 X1.50957 Y1.71115 ( rapid move to begin. )
F100.00000
G01 Z-0.04000
G04 P0 ( dwell for no time -- G64 should not smooth over this point )
F200.00000
G01 X1.50957 Y1.71115
X1.54874 Y1.80064
X1.57343 Y1.88067
X1.59413 Y1.99370
X1.60352 Y2.11760
X1.60231 Y2.25758
X1.58892 Y2.39614
X1.56095 Y2.51946
X1.53710 Y2.58341
X1.52029 Y2.63823
X1.52207 Y2.64300
X1.54950 Y2.66292
X1.61155 Y2.70000
X1.66410 Y2.71072
X1.68823 Y2.71295
X1.79748 Y2.71143
X1.88983 Y2.69733
X2.00063 Y2.71651
X2.06641 Y2.71704
X2.11780 Y2.71067
X2.15742 Y2.70157
X2.20784 Y2.68461
X2.22600 Y2.67747
X2.29537 Y2.63729
X2.37172 Y2.59870
X2.38480 Y2.58346
X2.36319 Y2.28555
X2.36136 Y2.11242
X2.36977 Y1.97767
X2.37774 Y1.91519
X2.38224 Y1.77773
X2.29504 Y1.69375
X2.19108 Y1.63884
X2.16799 Y1.62942
X2.14366 Y1.62395
X2.05270 Y1.61133
X2.02737 Y1.60996
X2.00317 Y1.61278
X2.00319 Y1.48215
X2.05933 Y1.48331
X2.14048 Y1.47389
X2.17302 Y1.46637
X2.23522 Y1.44445
X2.25818 Y1.43411
X2.27909 Y1.42009
X2.32948 Y1.37976
X2.35856 Y1.34890
X2.35846 Y1.26363
X2.36817 Y1.19774
X2.38689 Y1.15301
X2.43837 Y1.05878
X2.39705 Y0.96086
X2.38800 Y0.93114
X2.37030 Y0.83122
X2.36872 Y0.72271
X2.37937 Y0.63064
X2.38432 Y0.60757
X2.44350 Y0.42452
X2.42430 Y0.40084
X2.40162 Y0.38215
X2.37571 Y0.36823
X2.34757 Y0.35962
X2.31831 Y0.35670
X2.13261 Y0.35634
X2.10355 Y0.35911
X2.07558 Y0.36747
X2.04975 Y0.38111
X2.02217 Y0.40277
X2.00332 Y0.42556
X1.98927 Y0.45157
X1.98480 Y0.46622
X1.96984 Y0.43544
X1.95242 Y0.41364
X1.93126 Y0.39543
X1.90279 Y0.37839
X1.87640 Y0.36914
X1.84876 Y0.36493
X1.67332 Y0.35482
X1.64297 Y0.35616
X1.61353 Y0.36358
X1.58618 Y0.37679
X1.55270 Y0.40336
X1.54086 Y0.45708
X1.53568 Y0.50752
X1.53451 Y1.39180
X1.52865 Y1.46386
X1.52196 Y1.50267
X1.50960 Y1.54643
G04 P0 ( dwell for no time -- G64 should not smooth over this point )
G00 Z5.00000 ( retract )

G00 X1.50954 Y1.71113 ( rapid move to begin. )
F100.00000
G01 Z-0.04000
G04 P0 ( dwell for no time -- G64 should not smooth over this point )
F200.00000
G01 X1.50954 Y1.71113
X1.50957 Y1.54646
G04 P0 ( dwell for no time -- G64 should not smooth over this point )
G00 Z5.00000 ( retract )

G00 X1.38681 Y1.64427 ( rapid move to begin. )
F100.00000
G01 Z-0.04000
G04 P0 ( dwell for no time -- G64 should not smooth over this point )
F200.00000
G01 X1.38681 Y1.64427
X1.38079 Y1.64417
X1.38684 Y1.64425
X1.46809 Y1.68240
X1.48806 Y1.69370
X1.50954 Y1.71113
X1.47160 Y1.64209
X1.38684 Y1.64425
X1.44051 Y1.61788
X1.46268 Y1.59919
X1.50822 Y1.55060
X1.47160 Y1.64209
G04 P0 ( dwell for no time -- G64 should not smooth over this point )
G00 Z5.00000 ( retract )

G00 X1.38079 Y1.64417 ( rapid move to begin. )
F100.00000
G01 Z-0.04000
G04 P0 ( dwell for no time -- G64 should not smooth over this point )
F200.00000
G01 X1.38079 Y1.64417
X1.31864 Y1.64458
X1.18641 Y1.63836
X1.11153 Y1.64615
X1.06093 Y1.65840
X1.00558 Y1.67940
X0.95816 Y1.70511
X0.89108 Y1.75766
X0.84963 Y1.80046
X0.80873 Y1.85735
X0.79169 Y1.89266
X0.77640 Y1.92980
X0.76339 Y1.98367
X0.75433 Y2.08852
X0.75123 Y2.18595
X0.75120 Y2.25992
X0.75798 Y2.35837
X0.76652 Y2.39975
X0.78470 Y2.45560
X0.80477 Y2.49444
X0.83210 Y2.53612
X0.87452 Y2.58339
X0.92346 Y2.62847
X0.97274 Y2.66152
X1.02400 Y2.68598
X1.07881 Y2.70279
X1.14384 Y2.71303
X1.17787 Y2.71654
X1.24028 Y2.71455
X1.33200 Y2.70160
X1.51942 Y2.64107
X1.52029 Y2.63823
X1.51645 Y2.64196
X1.52207 Y2.64300
X1.51942 Y2.64107
G04 P0 ( dwell for no time -- G64 should not smooth over this point )
G00 Z5.00000 ( retract )

G00 X1.20317 Y2.18181 ( rapid move to begin. )
F100.00000
G01 Z-0.04000
G04 P0 ( dwell for no time -- G64 should not smooth over this point )
F200.00000
G01 X1.20317 Y2.18181
X1.20507 Y2.20211
X1.20761 Y2.11758
X1.20317 Y2.18181
G04 P0 ( dwell for no time -- G64 should not smooth over this point )
G00 Z5.00000 ( retract )

G00 X1.52029 Y2.63823 ( rapid move to begin. )
F100.00000
G01 Z-0.04000
G04 P0 ( dwell for no time -- G64 should not smooth over this point )
F200.00000
G01 X1.52029 Y2.63823
X1.52031 Y2.63823
X1.53710 Y2.58341
G04 P0 ( dwell for no time -- G64 should not smooth over this point )
G00 Z5.00000 ( retract )

G00 X2.38478 Y2.58298 ( rapid move to begin. )
F100.00000
G01 Z-0.04000
G04 P0 ( dwell for no time -- G64 should not smooth over this point )
F200.00000
G01 X2.38478 Y2.58298
X2.39651 Y2.59726
X2.38521 Y2.59215
X2.37172 Y2.59868
X2.39651 Y2.59726
G04 P0 ( dwell for no time -- G64 should not smooth over this point )
G00 Z5.00000 ( retract )

G00 X2.38480 Y2.58346 ( rapid move to begin. )
F100.00000
G01 Z-0.04000
G04 P0 ( dwell for no time -- G64 should not smooth over this point )
F200.00000
G01 X2.38480 Y2.58346
X2.38521 Y2.59215
G04 P0 ( dwell for no time -- G64 should not smooth over this point )
G00 Z5.00000 ( retract )

G00 X2.39733 Y2.59761 ( rapid move to begin. )
F100.00000
G01 Z-0.04000
G04 P0 ( dwell for no time -- G64 should not smooth over this point )
F200.00000
G01 X2.39733 Y2.59761
X2.57662 Y2.68768
X2.76255 Y2.74503
X2.75265 Y2.74100
G04 P0 ( dwell for no time -- G64 should not smooth over this point )
G00 Z5.00000 ( retract )

G00 X2.76255 Y2.74503 ( rapid move to begin. )
F100.00000
G01 Z-0.04000
G04 P0 ( dwell for no time -- G64 should not smooth over this point )
F200.00000
G01 X2.76255 Y2.74503
X2.79511 Y2.77869
X2.81317 Y2.80406
X2.83837 Y2.85517
X2.84622 Y2.87993
X2.85249 Y2.91057
X2.85486 Y2.96749
X2.85201 Y2.99332
X2.83984 Y3.04064
X2.76905 Y3.11618
X2.50246 Y3.36601
X2.29204 Y3.57975
X2.22270 Y3.66279
X2.19420 Y3.71460
X2.19166 Y3.72779
X2.18757 Y3.76370
X2.19710 Y3.80607
X2.22207 Y3.86154
X2.32913 Y4.03246
X2.51307 Y4.30409
X2.54800 Y4.36538
X2.56799 Y4.41084
X2.56006 Y4.46124
X2.54091 Y4.53195
X2.43924 Y4.79011
X2.41635 Y4.83116
X2.38671 Y4.87449
X2.33908 Y4.89492
X2.26715 Y4.91567
X1.81089 Y5.00355
X1.72788 Y5.02499
X1.67767 Y5.04495
X1.65509 Y5.06040
X1.63787 Y5.07688
X1.60789 Y5.13540
X1.59801 Y5.18315
X1.58877 Y5.29245
X1.58577 Y5.39342
X1.58290 Y5.59623
X1.58732 Y5.79667
X1.59593 Y5.93779
X1.60063 Y5.96647
X1.62044 Y6.02887
X1.65067 Y6.06713
X1.71170 Y6.09974
X1.85877 Y6.13563
X2.29065 Y6.21970
X2.36080 Y6.23931
X2.40825 Y6.25844
X2.43789 Y6.30124
X2.47365 Y6.36827
X2.56413 Y6.58511
X2.57835 Y6.63238
X2.58846 Y6.68325
X2.56933 Y6.73174
X2.54632 Y6.77528
X2.26423 Y7.19720
X2.21371 Y7.28061
X2.19646 Y7.31747
X2.19019 Y7.34467
X2.18976 Y7.38790
X2.20164 Y7.42430
X2.21457 Y7.44640
X2.31267 Y7.56004
X2.51023 Y7.76484
X2.65356 Y7.90776
X2.79237 Y8.03692
X2.82641 Y8.05889
X2.86514 Y8.07367
X2.91625 Y8.07304
X2.96275 Y8.05435
X3.08229 Y7.98008
X3.47594 Y7.71480
X3.54005 Y7.67865
X3.58866 Y7.65808
X3.63956 Y7.66804
X3.69986 Y7.68643
X3.91287 Y7.77522
X3.95663 Y7.79882
X3.99996 Y7.82780
X4.01990 Y7.87708
X4.03392 Y7.92465
X4.14957 Y8.52828
X4.16179 Y8.57256
X4.17261 Y8.59361
X4.18996 Y8.61525
X4.20735 Y8.62971
X4.23179 Y8.64286
X4.25450 Y8.64970
X4.30032 Y8.65356
X5.09442 Y8.65391
X5.14027 Y8.64987
X5.16298 Y8.64286
X5.18729 Y8.62953
X5.20451 Y8.61495
X5.22214 Y8.59361
X5.23329 Y8.57268
X5.24098 Y8.54784
X5.35510 Y7.94899
X5.37489 Y7.87718
X5.39463 Y7.82755
X5.43920 Y7.79814
X5.50679 Y7.76362
X5.70778 Y7.68208
X5.75513 Y7.66804
X5.80608 Y7.65805
X5.85470 Y7.67863
X5.89805 Y7.70217
X6.26646 Y7.94939
X6.43831 Y8.05805
X6.49368 Y8.07545
X6.54395 Y8.06971
X6.59170 Y8.04533
X6.64372 Y8.00083
X6.83176 Y7.81851
X7.09544 Y7.54546
X7.14974 Y7.48526
X7.18388 Y7.44060
X7.19899 Y7.41025
X7.20572 Y7.38401
X7.20692 Y7.36004
X7.20270 Y7.33291
X7.17966 Y7.27769
X7.11068 Y7.16626
X6.85335 Y6.78333
X6.82627 Y6.73154
X6.80654 Y6.68211
X6.81649 Y6.63197
X6.83074 Y6.58450
X6.93775 Y6.33362
X6.98622 Y6.25874
X7.03432 Y6.23936
X7.10461 Y6.21983
X7.39909 Y6.16306
X7.64212 Y6.11102
X7.70854 Y6.09009
X7.75424 Y6.05669
X7.78738 Y5.99560
X7.79734 Y5.94691
X7.80587 Y5.83934
X7.80918 Y5.73807
X7.81001 Y5.44373
X7.80468 Y5.27086
X7.79792 Y5.19357
X7.79521 Y5.17317
X7.77517 Y5.10441
X7.74364 Y5.06385
X7.68957 Y5.03276
X7.66582 Y5.02499
X7.53473 Y4.99273
X7.12833 Y4.91582
X7.05642 Y4.89474
X7.00727 Y4.87325
X6.95797 Y4.79570
X6.85444 Y4.53200
X6.83714 Y4.47658
X6.82731 Y4.40998
X6.84674 Y4.36548
X6.88144 Y4.30452
X7.10021 Y3.98021
X7.18550 Y3.83528
X7.20473 Y3.78143
X7.20638 Y3.76858
X7.20491 Y3.73307
X7.18279 Y3.67907
X7.12868 Y3.60909
X6.95061 Y3.42509
X6.73465 Y3.21509
X6.63610 Y3.12550
X6.56404 Y3.04549
X6.51131 Y3.03119
X6.48114 Y3.03122
X6.45160 Y3.03729
X6.42376 Y3.04892
X6.37222 Y3.09888
X6.31319 Y3.14564
X5.97075 Y3.37694
X5.93130 Y3.39875
X5.86282 Y3.42753
X5.79620 Y3.40782
X5.66265 Y3.34724
X5.61228 Y3.32936
X5.55274 Y3.32608
X5.50608 Y3.34394
X5.46404 Y3.38372
X5.43674 Y3.42743
X5.39130 Y3.52164
X5.30644 Y3.70998
X5.10375 Y4.18679
X4.92097 Y4.64224
X4.89473 Y4.69647
X4.86499 Y4.74671
X4.86328 Y4.75867
X4.85655 Y4.75336
X4.83733 Y4.75308
X4.54050 Y4.75420
X4.53024 Y4.74709
X4.51490 Y4.72278
X4.48292 Y4.66266
X4.28178 Y4.16591
X4.07855 Y3.68928
X3.97068 Y3.45189
X3.92859 Y3.38016
X3.88117 Y3.33977
X3.83347 Y3.32547
X3.76445 Y3.33429
X3.69867 Y3.36159
X3.63314 Y3.39367
X3.59476 Y3.40884
X3.53161 Y3.42738
X3.46273 Y3.39832
X3.42389 Y3.37673
X3.11686 Y3.16863
X3.06796 Y3.13000
X3.00921 Y3.07081
X2.98521 Y3.05644
X2.95275 Y3.04188
X2.91198 Y3.03160
X2.88559 Y3.03058
X2.85943 Y3.03421
X2.83984 Y3.04064
X2.92006 Y2.96718
X2.92311 Y2.81265
X2.76255 Y2.74503
X2.80718 Y2.74468
X2.82841 Y2.74061
X2.95112 Y2.70531
X2.99435 Y2.68189
X3.05666 Y2.63579
X3.03946 Y2.71867
X2.92311 Y2.81265
G04 P0 ( dwell for no time -- G64 should not smooth over this point )
G00 Z5.00000 ( retract )

G00 X3.06484 Y2.60780 ( rapid move to begin. )
F100.00000
G01 Z-0.04000
G04 P0 ( dwell for no time -- G64 should not smooth over this point )
F200.00000
G01 X3.06484 Y2.60780
X3.10179 Y2.50528
X3.12674 Y2.41285
X3.13992 Y2.30975
X3.14358 Y2.23122
X3.14327 Y2.11171
X3.14048 Y2.08717
X3.13222 Y2.06264
X3.11846 Y2.03810
X3.09923 Y2.01356
X3.12564 Y1.94379
X3.13205 Y1.91176
X3.13197 Y1.87453
X3.11510 Y1.81793
X3.08048 Y1.73919
X3.07053 Y1.69998
G04 P0 ( dwell for no time -- G64 should not smooth over this point )
G00 Z5.00000 ( retract )

G00 X3.03946 Y2.71867 ( rapid move to begin. )
F100.00000
G01 Z-0.04000
G04 P0 ( dwell for no time -- G64 should not smooth over this point )
F200.00000
G01 X3.03946 Y2.71867
X3.14434 Y2.72062
X3.13207 Y2.72075
G04 P0 ( dwell for no time -- G64 should not smooth over this point )
G00 Z5.00000 ( retract )

G00 X2.92006 Y2.96718 ( rapid move to begin. )
F100.00000
G01 Z-0.04000
G04 P0 ( dwell for no time -- G64 should not smooth over this point )
F200.00000
G01 X2.92006 Y2.96718
X3.00494 Y3.06596
X2.98772 Y2.99187
X2.98495 Y2.96274
X2.98788 Y2.93358
X3.00337 Y2.86454
X3.02394 Y2.82278
X3.05016 Y2.78758
X3.10134 Y2.73879
X3.13207 Y2.72075
X3.11538 Y2.71191
X3.09250 Y2.69327
X3.07373 Y2.67051
X3.05689 Y2.63505
X3.06484 Y2.60780
X3.05666 Y2.63579
G04 P0 ( dwell for no time -- G64 should not smooth over this point )
G00 Z5.00000 ( retract )

G00 X2.83349 Y3.04712 ( rapid move to begin. )
F100.00000
G01 Z-0.04000
G04 P0 ( dwell for no time -- G64 should not smooth over this point )
F200.00000
G01 X2.83349 Y3.04712
X2.83984 Y3.04066
X2.83984 Y3.04064
G04 P0 ( dwell for no time -- G64 should not smooth over this point )
G00 Z5.00000 ( retract )

G00 X3.00494 Y3.06596 ( rapid move to begin. )
F100.00000
G01 Z-0.04000
G04 P0 ( dwell for no time -- G64 should not smooth over this point )
F200.00000
G01 X3.00494 Y3.06596
X3.00497 Y3.06599
X3.00921 Y3.07081
G04 P0 ( dwell for no time -- G64 should not smooth over this point )
G00 Z5.00000 ( retract )

G00 X4.52953 Y4.74589 ( rapid move to begin. )
F100.00000
G01 Z-0.04000
G04 P0 ( dwell for no time -- G64 should not smooth over this point )
F200.00000
G01 X4.52953 Y4.74589
X4.53207 Y4.76002
X4.52681 Y4.77208
X4.53458 Y4.75433
X4.53024 Y4.74709
G04 P0 ( dwell for no time -- G64 should not smooth over this point )
G00 Z5.00000 ( retract )

G00 X4.52681 Y4.77208 ( rapid move to begin. )
F100.00000
G01 Z-0.04000
G04 P0 ( dwell for no time -- G64 should not smooth over this point )
F200.00000
G01 X4.52681 Y4.77208
X4.49105 Y4.84117
X4.46519 Y4.87424
X4.42358 Y4.91193
X4.33110 Y4.97843
X4.22539 Y5.06682
X4.13969 Y5.16852
X4.12673 Y5.18902
X4.07296 Y5.28445
X4.02988 Y5.40543
X4.01129 Y5.52486
X4.01703 Y5.64919
X4.04063 Y5.75692
X4.08528 Y5.86964
X4.14700 Y5.96616
X4.22605 Y6.05336
X4.26395 Y6.08800
X4.37685 Y6.16342
X4.49415 Y6.21285
X4.61703 Y6.23880
X4.74220 Y6.24167
X4.86631 Y6.22171
X4.98533 Y6.17944
X5.09595 Y6.11533
X5.19488 Y6.02974
X5.28259 Y5.91920
X5.29356 Y5.90116
X5.34936 Y5.77642
X5.37817 Y5.65219
X5.38249 Y5.52859
X5.36760 Y5.42611
X5.36247 Y5.40053
X5.31909 Y5.27942
X5.30717 Y5.25694
X5.25135 Y5.16385
X5.16458 Y5.06365
X4.96951 Y4.91104
X4.92993 Y4.87401
X4.89041 Y4.81516
X4.86095 Y4.75341
X4.85556 Y4.75334
X4.86499 Y4.74671
X4.86095 Y4.75341
G04 P0 ( dwell for no time -- G64 should not smooth over this point )
G00 Z5.00000 ( retract )

G00 X4.53207 Y4.76002 ( rapid move to begin. )
F100.00000
G01 Z-0.04000
G04 P0 ( dwell for no time -- G64 should not smooth over this point )
F200.00000
G01 X4.53207 Y4.76002
X4.53230 Y4.75956
X4.53209 Y4.76004
G04 P0 ( dwell for no time -- G64 should not smooth over this point )
G00 Z5.00000 ( retract )

G00 X4.53230 Y4.75956 ( rapid move to begin. )
F100.00000
G01 Z-0.04000
G04 P0 ( dwell for no time -- G64 should not smooth over this point )
F200.00000
G01 X4.53230 Y4.75956
X4.54053 Y4.75422
X4.53458 Y4.75433
G04 P0 ( dwell for no time -- G64 should not smooth over this point )
G00 Z5.00000 ( retract )

G00 X4.54053 Y4.75422 ( rapid move to begin. )
F100.00000
G01 Z-0.04000
G04 P0 ( dwell for no time -- G64 should not smooth over this point )
F200.00000
G01 X4.54053 Y4.75422
X4.54596 Y4.75412
G04 P0 ( dwell for no time -- G64 should not smooth over this point )
G00 Z5.00000 ( retract )

G00 X4.86328 Y4.75867 ( rapid move to begin. )
F100.00000
G01 Z-0.04000
G04 P0 ( dwell for no time -- G64 should not smooth over this point )
F200.00000
G01 X4.86328 Y4.75867
X4.86458 Y4.76162
G04 P0 ( dwell for no time -- G64 should not smooth over this point )
G00 Z5.00000 ( retract )

G00 X1.87005 Y12.67737 ( rapid move to begin. )
F100.00000
G01 Z-0.04000
G04 P0 ( dwell for no time -- G64 should not smooth over this point )
F200.00000
G01 X1.87005 Y12.67737
X1.84221 Y12.58791
X1.84477 Y12.51052
X1.83057 Y12.40948
X1.82509 Y12.34575
X1.84081 Y12.20846
X1.84482 Y12.15576
X1.84429 Y12.10349
X1.87591 Y11.98906
X1.96639 Y11.82807
X2.09473 Y11.64489
X2.24005 Y11.53219
X2.41841 Y11.41944
X2.60820 Y11.36813
X2.80177 Y11.33575
X2.87728 Y11.35144
X2.95486 Y11.35787
X3.02928 Y11.35708
X3.07596 Y11.35233
X3.14995 Y11.33689
X3.24383 Y11.34890
X3.41477 Y11.38520
X3.53222 Y11.42139
X3.62724 Y11.47580
X3.77063 Y11.57565
X3.85518 Y11.64636
X3.92943 Y11.74339
X4.03682 Y11.91608
X4.07362 Y11.98995
X4.08150 Y12.01421
X4.06928 Y11.98124
X4.07459 Y11.98952
X4.10934 Y12.10361
X4.10677 Y12.18096
X4.12099 Y12.28205
X4.12648 Y12.34575
X4.11073 Y12.48306
X4.10672 Y12.53569
X4.10725 Y12.58794
X4.07560 Y12.70247
X3.98513 Y12.86345
X3.85678 Y13.04664
X3.71147 Y13.15934
X3.53271 Y13.27234
X3.34358 Y13.32411
X3.15252 Y13.35672
X3.07373 Y13.33978
X3.03128 Y13.33523
X2.95529 Y13.33343
X2.87713 Y13.33897
X2.79839 Y13.35563
X2.70751 Y13.34367
X2.53667 Y13.30681
X2.41973 Y13.27036
X2.32430 Y13.21573
X2.18089 Y13.11588
X2.09634 Y13.04517
X2.02212 Y12.94814
X1.92877 Y12.80041
X1.88221 Y12.71022
X1.87005 Y12.67737
X1.87792 Y12.70158
X1.86992 Y12.67702
X1.87696 Y12.70201
X1.88221 Y12.71022
X1.87792 Y12.70158
G04 P0 ( dwell for no time -- G64 should not smooth over this point )
G00 Z5.00000 ( retract )

G00 X2.80238 Y13.35566 ( rapid move to begin. )
F100.00000
G01 Z-0.04000
G04 P0 ( dwell for no time -- G64 should not smooth over this point )
F200.00000
G01 X2.80238 Y13.35566
X2.79798 Y13.35558
X2.80240 Y13.35566
G04 P0 ( dwell for no time -- G64 should not smooth over this point )
G00 Z5.00000 ( retract )

G00 X1.87005 Y15.21737 ( rapid move to begin. )
F100.00000
G01 Z-0.04000
G04 P0 ( dwell for no time -- G64 should not smooth over this point )
F200.00000
G01 X1.87005 Y15.21737
X1.84221 Y15.12791
X1.84477 Y15.05052
X1.83057 Y14.94948
X1.82509 Y14.88575
X1.84081 Y14.74846
X1.84482 Y14.69576
X1.84429 Y14.64349
X1.87591 Y14.52906
X1.96639 Y14.36807
X2.09473 Y14.18489
X2.24005 Y14.07219
X2.41881 Y13.95918
X2.60797 Y13.90742
X2.80149 Y13.87437
X2.87728 Y13.89144
X2.95486 Y13.89787
X3.06298 Y13.89452
X3.15331 Y13.87590
X3.15041 Y13.87501
X3.24403 Y13.88786
X3.41487 Y13.92472
X3.53179 Y13.96114
X3.62724 Y14.01580
X3.77063 Y14.11565
X3.85518 Y14.18636
X3.92943 Y14.28339
X4.03682 Y14.45608
X4.07362 Y14.52995
X4.08150 Y14.55421
X4.06928 Y14.52124
X4.07459 Y14.52952
X4.10934 Y14.64361
X4.10677 Y14.72096
X4.12099 Y14.82205
X4.12646 Y14.88575
X4.11073 Y15.02306
X4.10672 Y15.07569
X4.10725 Y15.12794
X4.07560 Y15.24247
X3.97022 Y15.42708
X3.85678 Y15.58664
X3.68856 Y15.71532
X3.53311 Y15.81209
X3.51239 Y15.81844
X3.34335 Y15.86340
X3.25137 Y15.87993
X3.19709 Y15.89312
X3.15496 Y15.89738
X3.07551 Y15.88029
X3.02516 Y15.87498
X2.92638 Y15.87442
X2.87556 Y15.87920
X2.80129 Y15.89563
X2.75813 Y15.89515
X2.53664 Y15.84694
X2.41983 Y15.81044
X2.32430 Y15.75573
X2.18089 Y15.65588
X2.09634 Y15.58517
X2.02212 Y15.48814
X1.92877 Y15.34041
X1.88221 Y15.25022
X1.87005 Y15.21737
X1.87792 Y15.24158
X1.86992 Y15.21702
X1.87696 Y15.24201
X1.88221 Y15.25022
X1.87792 Y15.24158
G04 P0 ( dwell for no time -- G64 should not smooth over this point )
G00 Z5.00000 ( retract )

G00 X1.91635 Y16.41935 ( rapid move to begin. )
F100.00000
G01 Z-0.04000
G04 P0 ( dwell for no time -- G64 should not smooth over this point )
F200.00000
G01 X1.91635 Y16.41935
X1.95978 Y16.41216
X2.62864 Y16.41216
X2.67032 Y16.40858
X2.71864 Y16.39631
X2.71696 Y16.40472
X2.62864 Y16.41216
X2.74127 Y16.41216
X2.71696 Y16.40472
G04 P0 ( dwell for no time -- G64 should not smooth over this point )
G00 Z5.00000 ( retract )

G00 X1.86504 Y16.44678 ( rapid move to begin. )
F100.00000
G01 Z-0.04000
G04 P0 ( dwell for no time -- G64 should not smooth over this point )
F200.00000
G01 X1.86504 Y16.44678
X1.87645 Y16.43746
X1.88930 Y16.43055
G04 P0 ( dwell for no time -- G64 should not smooth over this point )
G00 Z5.00000 ( retract )

G00 X1.80977 Y16.56218 ( rapid move to begin. )
F100.00000
G01 Z-0.04000
G04 P0 ( dwell for no time -- G64 should not smooth over this point )
F200.00000
G01 X1.80977 Y16.56218
X1.80977 Y17.19022
X1.80975 Y16.53228
X1.83258 Y16.47716
X1.87477 Y16.43497
X1.92986 Y16.41216
X1.95978 Y16.41216
X1.93017 Y16.41364
X1.87561 Y16.43624
X1.86504 Y16.44678
X1.83383 Y16.47800
X1.81122 Y16.53256
X1.80977 Y16.56218
X1.81267 Y16.53289
X1.82809 Y16.49192
X1.83507 Y16.47884
X1.85470 Y16.45712
G04 P0 ( dwell for no time -- G64 should not smooth over this point )
G00 Z5.00000 ( retract )

G00 X1.80977 Y17.19022 ( rapid move to begin. )
F100.00000
G01 Z-0.04000
G04 P0 ( dwell for no time -- G64 should not smooth over this point )
F200.00000
G01 X1.80977 Y17.19022
X1.82476 Y17.26108
X1.82989 Y17.31120
X1.83108 Y17.51282
X1.82504 Y17.58849
X1.80975 Y17.66085
X1.80977 Y18.31925
X1.83258 Y18.37434
X1.87477 Y18.41653
X1.92999 Y18.43941
X2.74012 Y18.43939
X1.95978 Y18.43936
X1.93027 Y18.43792
X1.87561 Y18.41528
X1.83385 Y18.37353
X1.81122 Y18.31894
X1.80977 Y17.66126
X1.81186 Y17.65339
G04 P0 ( dwell for no time -- G64 should not smooth over this point )
G00 Z5.00000 ( retract )

G00 X1.80977 Y18.28938 ( rapid move to begin. )
F100.00000
G01 Z-0.04000
G04 P0 ( dwell for no time -- G64 should not smooth over this point )
F200.00000
G01 X1.80977 Y18.28938
X1.81267 Y18.31864
X1.81696 Y18.33276
X1.82725 Y18.35765
G04 P0 ( dwell for no time -- G64 should not smooth over this point )
G00 Z5.00000 ( retract )

G00 X1.82811 Y18.35968 ( rapid move to begin. )
F100.00000
G01 Z-0.04000
G04 P0 ( dwell for no time -- G64 should not smooth over this point )
F200.00000
G01 X1.82811 Y18.35968
X1.83507 Y18.37269
X1.86502 Y18.40472
X1.88935 Y18.42097
G04 P0 ( dwell for no time -- G64 should not smooth over this point )
G00 Z5.00000 ( retract )

G00 X1.88940 Y18.42100 ( rapid move to begin. )
F100.00000
G01 Z-0.04000
G04 P0 ( dwell for no time -- G64 should not smooth over this point )
F200.00000
G01 X1.88940 Y18.42100
X1.93050 Y18.43647
X1.95978 Y18.43936
G04 P0 ( dwell for no time -- G64 should not smooth over this point )
G00 Z5.00000 ( retract )

G00 X2.74012 Y18.43939 ( rapid move to begin. )
F100.00000
G01 Z-0.04000
G04 P0 ( dwell for no time -- G64 should not smooth over this point )
F200.00000
G01 X2.74012 Y18.43939
X2.81109 Y18.42438
X2.86123 Y18.41925
X3.06286 Y18.41805
X3.13845 Y18.42407
X3.21094 Y18.43939
X4.02155 Y18.43939
X4.07675 Y18.41653
X4.11894 Y18.37434
X4.14180 Y18.31915
X4.14177 Y18.28938
X4.13888 Y18.31864
X4.11647 Y18.37269
X4.07510 Y18.41407
X4.02105 Y18.43647
X3.99178 Y18.43936
X3.21056 Y18.43916
G04 P0 ( dwell for no time -- G64 should not smooth over this point )
G00 Z5.00000 ( retract )

G00 X3.99178 Y18.43936 ( rapid move to begin. )
F100.00000
G01 Z-0.04000
G04 P0 ( dwell for no time -- G64 should not smooth over this point )
F200.00000
G01 X3.99178 Y18.43936
X4.02125 Y18.43792
X4.04558 Y18.42783
G04 P0 ( dwell for no time -- G64 should not smooth over this point )
G00 Z5.00000 ( retract )

G00 X4.06222 Y18.42095 ( rapid move to begin. )
F100.00000
G01 Z-0.04000
G04 P0 ( dwell for no time -- G64 should not smooth over this point )
F200.00000
G01 X4.06222 Y18.42095
X4.07593 Y18.41528
X4.11769 Y18.37350
X4.12900 Y18.34617
G04 P0 ( dwell for no time -- G64 should not smooth over this point )
G00 Z5.00000 ( retract )

G00 X4.13463 Y18.33258 ( rapid move to begin. )
F100.00000
G01 Z-0.04000
G04 P0 ( dwell for no time -- G64 should not smooth over this point )
F200.00000
G01 X4.13463 Y18.33258
X4.14032 Y18.31887
X4.14177 Y18.28938
X4.14177 Y17.66111
X4.12679 Y17.59037
X4.12165 Y17.54025
X4.12046 Y17.33871
X4.12648 Y17.26309
X4.14154 Y17.19095
G04 P0 ( dwell for no time -- G64 should not smooth over this point )
G00 Z5.00000 ( retract )

G00 X4.13646 Y17.63909 ( rapid move to begin. )
F100.00000
G01 Z-0.04000
G04 P0 ( dwell for no time -- G64 should not smooth over this point )
F200.00000
G01 X4.13646 Y17.63909
X4.14167 Y17.66085
X4.14177 Y17.66111
G04 P0 ( dwell for no time -- G64 should not smooth over this point )
G00 Z5.00000 ( retract )

G00 X2.74129 Y16.41216 ( rapid move to begin. )
F100.00000
G01 Z-0.04000
G04 P0 ( dwell for no time -- G64 should not smooth over this point )
F200.00000
G01 X2.74129 Y16.41216
X2.81322 Y16.42746
X2.88871 Y16.43347
X3.09024 Y16.43228
X3.14017 Y16.42718
X3.21381 Y16.41051
X3.20792 Y16.41216
G04 P0 ( dwell for no time -- G64 should not smooth over this point )
G00 Z5.00000 ( retract )

G00 X2.74127 Y16.41216 ( rapid move to begin. )
F100.00000
G01 Z-0.04000
G04 P0 ( dwell for no time -- G64 should not smooth over this point )
F200.00000
G01 X2.74127 Y16.41216
X2.71864 Y16.39631
X2.73850 Y16.27907
X2.78429 Y15.96421
X2.78130 Y15.90914
X2.75813 Y15.89515
X2.78061 Y15.90137
X2.78132 Y15.90942
X2.80129 Y15.89563
X2.78061 Y15.90137
G04 P0 ( dwell for no time -- G64 should not smooth over this point )
G00 Z5.00000 ( retract )

G00 X2.80129 Y15.89563 ( rapid move to begin. )
F100.00000
G01 Z-0.04000
G04 P0 ( dwell for no time -- G64 should not smooth over this point )
F200.00000
G01 X2.80129 Y15.89563
X2.80131 Y15.89566
X2.82669 Y15.88864
G04 P0 ( dwell for no time -- G64 should not smooth over this point )
G00 Z5.00000 ( retract )

G00 X3.14292 Y15.89426 ( rapid move to begin. )
F100.00000
G01 Z-0.04000
G04 P0 ( dwell for no time -- G64 should not smooth over this point )
F200.00000
G01 X3.14292 Y15.89426
X3.15493 Y15.89741
G04 P0 ( dwell for no time -- G64 should not smooth over this point )
G00 Z5.00000 ( retract )

G00 X3.15585 Y15.89764 ( rapid move to begin. )
F100.00000
G01 Z-0.04000
G04 P0 ( dwell for no time -- G64 should not smooth over this point )
F200.00000
G01 X3.15585 Y15.89764
X3.17017 Y15.90937
X3.16740 Y15.95725
X3.23283 Y16.39629
X3.21381 Y16.41051
X3.23453 Y16.40472
X3.23283 Y16.39629
X3.28119 Y16.40858
X3.32293 Y16.41216
X3.20797 Y16.41216
G04 P0 ( dwell for no time -- G64 should not smooth over this point )
G00 Z5.00000 ( retract )

G00 X3.15587 Y15.89764 ( rapid move to begin. )
F100.00000
G01 Z-0.04000
G04 P0 ( dwell for no time -- G64 should not smooth over this point )
F200.00000
G01 X3.15587 Y15.89764
X3.17088 Y15.90160
X3.16913 Y15.92118
G04 P0 ( dwell for no time -- G64 should not smooth over this point )
G00 Z5.00000 ( retract )

G00 X3.17020 Y15.90940 ( rapid move to begin. )
F100.00000
G01 Z-0.04000
G04 P0 ( dwell for no time -- G64 should not smooth over this point )
F200.00000
G01 X3.17020 Y15.90940
X3.19720 Y15.89312
X3.17088 Y15.90160
G04 P0 ( dwell for no time -- G64 should not smooth over this point )
G00 Z5.00000 ( retract )

G00 X3.19720 Y15.89312 ( rapid move to begin. )
F100.00000
G01 Z-0.04000
G04 P0 ( dwell for no time -- G64 should not smooth over this point )
F200.00000
G01 X3.19720 Y15.89312
X3.22570 Y15.88542
G04 P0 ( dwell for no time -- G64 should not smooth over this point )
G00 Z5.00000 ( retract )

G00 X3.23453 Y16.40472 ( rapid move to begin. )
F100.00000
G01 Z-0.04000
G04 P0 ( dwell for no time -- G64 should not smooth over this point )
F200.00000
G01 X3.23453 Y16.40472
X3.32293 Y16.41216
X3.99178 Y16.41216
X4.02105 Y16.41506
X4.05572 Y16.42784
X4.02135 Y16.41361
X3.99178 Y16.41216
G04 P0 ( dwell for no time -- G64 should not smooth over this point )
G00 Z5.00000 ( retract )

G00 X3.32293 Y16.41216 ( rapid move to begin. )
F100.00000
G01 Z-0.04000
G04 P0 ( dwell for no time -- G64 should not smooth over this point )
F200.00000
G01 X3.32293 Y16.41216
X4.02163 Y16.41214
X4.07675 Y16.43497
X4.11894 Y16.47716
X4.14180 Y16.53231
X4.14177 Y16.56218
X4.13888 Y16.53289
X4.11647 Y16.47884
X4.08650 Y16.44681
X4.05572 Y16.42784
G04 P0 ( dwell for no time -- G64 should not smooth over this point )
G00 Z5.00000 ( retract )

G00 X4.06209 Y16.43048 ( rapid move to begin. )
F100.00000
G01 Z-0.04000
G04 P0 ( dwell for no time -- G64 should not smooth over this point )
F200.00000
G01 X4.06209 Y16.43048
X4.07591 Y16.43622
X4.08650 Y16.44681
G04 P0 ( dwell for no time -- G64 should not smooth over this point )
G00 Z5.00000 ( retract )

G00 X4.10710 Y16.46741 ( rapid move to begin. )
F100.00000
G01 Z-0.04000
G04 P0 ( dwell for no time -- G64 should not smooth over this point )
F200.00000
G01 X4.10710 Y16.46741
X4.11769 Y16.47798
X4.12338 Y16.49177
G04 P0 ( dwell for no time -- G64 should not smooth over this point )
G00 Z5.00000 ( retract )

G00 X4.13461 Y16.51884 ( rapid move to begin. )
F100.00000
G01 Z-0.04000
G04 P0 ( dwell for no time -- G64 should not smooth over this point )
F200.00000
G01 X4.13461 Y16.51884
X4.14032 Y16.53261
X4.14177 Y16.56218
X4.14154 Y17.19095
X4.14177 Y16.56218
G04 P0 ( dwell for no time -- G64 should not smooth over this point )
G00 Z5.00000 ( retract )

G00 X6.50100 Y13.93610 ( rapid move to begin. )
F100.00000
G01 Z-0.04000
G04 P0 ( dwell for no time -- G64 should not smooth over this point )
F200.00000
G01 X6.50100 Y13.93610
X6.51604 Y14.00803
X6.52211 Y14.08220
X6.52086 Y14.28476
X6.51604 Y14.33353
X6.50100 Y14.40544
G04 P0 ( dwell for no time -- G64 should not smooth over this point )
G00 Z5.00000 ( retract )

G00 X6.50080 Y13.87079 ( rapid move to begin. )
F100.00000
G01 Z-0.04000
G04 P0 ( dwell for no time -- G64 should not smooth over this point )
F200.00000
G01 X6.50080 Y13.87079
X6.50100 Y13.93610
X6.50075 Y13.84090
X6.52358 Y13.78578
X6.56577 Y13.74359
X6.62086 Y13.72078
X6.65081 Y13.72078
X6.62117 Y13.72225
X6.56661 Y13.74486
X6.52485 Y13.78662
X6.50224 Y13.84118
X6.50080 Y13.87079
X6.50369 Y13.84151
X6.51116 Y13.81961
G04 P0 ( dwell for no time -- G64 should not smooth over this point )
G00 Z5.00000 ( retract )

G00 X6.51906 Y13.80056 ( rapid move to begin. )
F100.00000
G01 Z-0.04000
G04 P0 ( dwell for no time -- G64 should not smooth over this point )
F200.00000
G01 X6.51906 Y13.80056
X6.52610 Y13.78746
X6.53557 Y13.77590
G04 P0 ( dwell for no time -- G64 should not smooth over this point )
G00 Z5.00000 ( retract )

G00 X6.55589 Y13.75558 ( rapid move to begin. )
F100.00000
G01 Z-0.04000
G04 P0 ( dwell for no time -- G64 should not smooth over this point )
F200.00000
G01 X6.55589 Y13.75558
X6.56747 Y13.74608
X6.58043 Y13.73912
G04 P0 ( dwell for no time -- G64 should not smooth over this point )
G00 Z5.00000 ( retract )

G00 X6.60740 Y13.72794 ( rapid move to begin. )
F100.00000
G01 Z-0.04000
G04 P0 ( dwell for no time -- G64 should not smooth over this point )
F200.00000
G01 X6.60740 Y13.72794
X6.65081 Y13.72078
X7.19023 Y13.72078
G04 P0 ( dwell for no time -- G64 should not smooth over this point )
G00 Z5.00000 ( retract )

G00 X7.19795 Y13.72281 ( rapid move to begin. )
F100.00000
G01 Z-0.04000
G04 P0 ( dwell for no time -- G64 should not smooth over this point )
F200.00000
G01 X7.19795 Y13.72281
X7.19099 Y13.72096
X7.26303 Y13.73605
X7.33872 Y13.74209
X7.54032 Y13.74090
X7.59046 Y13.73574
X7.66104 Y13.72078
X7.63922 Y13.72604
G04 P0 ( dwell for no time -- G64 should not smooth over this point )
G00 Z5.00000 ( retract )

G00 X6.50080 Y14.47079 ( rapid move to begin. )
F100.00000
G01 Z-0.04000
G04 P0 ( dwell for no time -- G64 should not smooth over this point )
F200.00000
G01 X6.50080 Y14.47079
X6.50100 Y14.40544
X6.50077 Y14.50066
X6.52411 Y14.55705
X6.59658 Y14.63218
X6.61408 Y14.65410
X6.62721 Y14.67889
X6.65282 Y14.74496
X6.65950 Y14.81313
X6.64730 Y14.88280
X6.63244 Y14.92438
X6.60989 Y14.96348
X6.52411 Y15.05448
X6.50075 Y15.11090
X6.50100 Y15.20610
X6.50224 Y15.11118
X6.50832 Y15.09660
X6.50369 Y15.11151
X6.50080 Y15.14079
G04 P0 ( dwell for no time -- G64 should not smooth over this point )
G00 Z5.00000 ( retract )

G00 X6.50786 Y14.51384 ( rapid move to begin. )
F100.00000
G01 Z-0.04000
G04 P0 ( dwell for no time -- G64 should not smooth over this point )
F200.00000
G01 X6.50786 Y14.51384
X6.50224 Y14.50036
X6.50080 Y14.47079
X6.50786 Y14.51384
X6.52551 Y14.55616
X6.54037 Y14.57150
X6.51962 Y14.54204
G04 P0 ( dwell for no time -- G64 should not smooth over this point )
G00 Z5.00000 ( retract )

G00 X6.54037 Y14.57150 ( rapid move to begin. )
F100.00000
G01 Z-0.04000
G04 P0 ( dwell for no time -- G64 should not smooth over this point )
F200.00000
G01 X6.54037 Y14.57150
X6.56168 Y14.59355
X6.60435 Y14.62469
X6.71482 Y14.69540
X6.80768 Y14.77077
X6.80931 Y14.82050
X6.80623 Y14.84079
G04 P0 ( dwell for no time -- G64 should not smooth over this point )
G00 Z5.00000 ( retract )

G00 X6.54855 Y14.57996 ( rapid move to begin. )
F100.00000
G01 Z-0.04000
G04 P0 ( dwell for no time -- G64 should not smooth over this point )
F200.00000
G01 X6.54855 Y14.57996
X6.56747 Y14.59548
X6.59341 Y14.60935
X6.62152 Y14.61788
X6.65081 Y14.62078
X8.20077 Y14.62078
X8.23003 Y14.61788
X8.25815 Y14.60935
X8.28408 Y14.59548
X8.30290 Y14.58004
X8.28985 Y14.59355
X8.24717 Y14.62469
X8.13671 Y14.69540
X8.04385 Y14.77077
X6.80768 Y14.77077
G04 P0 ( dwell for no time -- G64 should not smooth over this point )
G00 Z5.00000 ( retract )

G00 X6.54027 Y15.04011 ( rapid move to begin. )
F100.00000
G01 Z-0.04000
G04 P0 ( dwell for no time -- G64 should not smooth over this point )
F200.00000
G01 X6.54027 Y15.04011
X6.56747 Y15.01608
X6.59341 Y15.00221
X6.62152 Y14.99368
X6.65081 Y14.99081
X8.20077 Y14.99081
X8.23003 Y14.99368
X8.25815 Y15.00221
X8.28408 Y15.01608
X8.30298 Y15.03160
X8.28982 Y15.01798
X8.24715 Y14.98682
X8.13656 Y14.91605
X8.04385 Y14.84079
X6.80623 Y14.84079
X6.73598 Y14.90041
X6.67220 Y14.94567
X6.60438 Y14.98682
X6.56171 Y15.01798
X6.54626 Y15.03393
G04 P0 ( dwell for no time -- G64 should not smooth over this point )
G00 Z5.00000 ( retract )

G00 X6.50832 Y15.09660 ( rapid move to begin. )
F100.00000
G01 Z-0.04000
G04 P0 ( dwell for no time -- G64 should not smooth over this point )
F200.00000
G01 X6.50832 Y15.09660
X6.52551 Y15.05540
X6.54027 Y15.04011
X6.51954 Y15.06965
G04 P0 ( dwell for no time -- G64 should not smooth over this point )
G00 Z5.00000 ( retract )

G00 X6.50100 Y15.20610 ( rapid move to begin. )
F100.00000
G01 Z-0.04000
G04 P0 ( dwell for no time -- G64 should not smooth over this point )
F200.00000
G01 X6.50100 Y15.20610
X6.51604 Y15.27803
X6.52211 Y15.35220
X6.52086 Y15.55476
X6.51604 Y15.60353
X6.50100 Y15.67544
G04 P0 ( dwell for no time -- G64 should not smooth over this point )
G00 Z5.00000 ( retract )

G00 X6.50080 Y15.74079 ( rapid move to begin. )
F100.00000
G01 Z-0.04000
G04 P0 ( dwell for no time -- G64 should not smooth over this point )
F200.00000
G01 X6.50080 Y15.74079
X6.50100 Y15.67544
X6.50077 Y15.77066
X6.52411 Y15.82705
X6.59658 Y15.90218
X6.61408 Y15.92410
X6.62721 Y15.94889
X6.65282 Y16.01496
X6.65950 Y16.08313
X6.64730 Y16.15280
X6.63244 Y16.19438
X6.60989 Y16.23348
X6.52411 Y16.32448
X6.50075 Y16.38090
X6.50100 Y16.47610
X6.50224 Y16.38118
X6.50832 Y16.36660
X6.50369 Y16.38151
X6.50080 Y16.41079
G04 P0 ( dwell for no time -- G64 should not smooth over this point )
G00 Z5.00000 ( retract )

G00 X6.50786 Y15.78384 ( rapid move to begin. )
F100.00000
G01 Z-0.04000
G04 P0 ( dwell for no time -- G64 should not smooth over this point )
F200.00000
G01 X6.50786 Y15.78384
X6.50224 Y15.77036
X6.50080 Y15.74079
X6.50786 Y15.78384
X6.52551 Y15.82616
X6.54037 Y15.84150
X6.51962 Y15.81204
G04 P0 ( dwell for no time -- G64 should not smooth over this point )
G00 Z5.00000 ( retract )

G00 X6.54037 Y15.84150 ( rapid move to begin. )
F100.00000
G01 Z-0.04000
G04 P0 ( dwell for no time -- G64 should not smooth over this point )
F200.00000
G01 X6.54037 Y15.84150
X6.56168 Y15.86355
X6.60435 Y15.89469
X6.71482 Y15.96540
X6.80768 Y16.04077
X6.80931 Y16.09050
X6.80623 Y16.11079
G04 P0 ( dwell for no time -- G64 should not smooth over this point )
G00 Z5.00000 ( retract )

G00 X6.54855 Y15.84996 ( rapid move to begin. )
F100.00000
G01 Z-0.04000
G04 P0 ( dwell for no time -- G64 should not smooth over this point )
F200.00000
G01 X6.54855 Y15.84996
X6.56747 Y15.86548
X6.59341 Y15.87935
X6.62152 Y15.88788
X6.65081 Y15.89078
X8.20077 Y15.89078
X8.23003 Y15.88788
X8.25815 Y15.87935
X8.28408 Y15.86548
X8.30290 Y15.85004
X8.28985 Y15.86355
X8.24717 Y15.89469
X8.13671 Y15.96540
X8.04385 Y16.04077
X6.80768 Y16.04077
G04 P0 ( dwell for no time -- G64 should not smooth over this point )
G00 Z5.00000 ( retract )

G00 X6.54027 Y16.31011 ( rapid move to begin. )
F100.00000
G01 Z-0.04000
G04 P0 ( dwell for no time -- G64 should not smooth over this point )
F200.00000
G01 X6.54027 Y16.31011
X6.56747 Y16.28608
X6.59341 Y16.27221
X6.62152 Y16.26368
X6.65081 Y16.26081
X8.20077 Y16.26081
X8.23003 Y16.26368
X8.25815 Y16.27221
X8.28408 Y16.28608
X8.30298 Y16.30160
X8.28982 Y16.28798
X8.24715 Y16.25682
X8.13656 Y16.18605
X8.04385 Y16.11079
X6.80623 Y16.11079
X6.73598 Y16.17041
X6.67220 Y16.21567
X6.60438 Y16.25682
X6.56171 Y16.28798
X6.54626 Y16.30393
G04 P0 ( dwell for no time -- G64 should not smooth over this point )
G00 Z5.00000 ( retract )

G00 X6.50832 Y16.36660 ( rapid move to begin. )
F100.00000
G01 Z-0.04000
G04 P0 ( dwell for no time -- G64 should not smooth over this point )
F200.00000
G01 X6.50832 Y16.36660
X6.52551 Y16.32540
X6.54027 Y16.31011
X6.51954 Y16.33965
G04 P0 ( dwell for no time -- G64 should not smooth over this point )
G00 Z5.00000 ( retract )

G00 X6.50100 Y16.47610 ( rapid move to begin. )
F100.00000
G01 Z-0.04000
G04 P0 ( dwell for no time -- G64 should not smooth over this point )
F200.00000
G01 X6.50100 Y16.47610
X6.51604 Y16.54803
X6.52211 Y16.62220
X6.52086 Y16.82476
X6.51604 Y16.87353
X6.50100 Y16.94544
G04 P0 ( dwell for no time -- G64 should not smooth over this point )
G00 Z5.00000 ( retract )

G00 X6.50080 Y17.01079 ( rapid move to begin. )
F100.00000
G01 Z-0.04000
G04 P0 ( dwell for no time -- G64 should not smooth over this point )
F200.00000
G01 X6.50080 Y17.01079
X6.50100 Y16.94544
X6.50077 Y17.04066
X6.52411 Y17.09705
X6.59658 Y17.17218
X6.61408 Y17.19410
X6.62721 Y17.21889
X6.65282 Y17.28496
X6.65950 Y17.35313
X6.64730 Y17.42280
X6.63244 Y17.46438
X6.60989 Y17.50348
X6.52411 Y17.59448
X6.50075 Y17.65090
X6.50100 Y17.74610
X6.50224 Y17.65118
X6.50832 Y17.63660
X6.50369 Y17.65151
X6.50080 Y17.68079
G04 P0 ( dwell for no time -- G64 should not smooth over this point )
G00 Z5.00000 ( retract )

G00 X6.50786 Y17.05384 ( rapid move to begin. )
F100.00000
G01 Z-0.04000
G04 P0 ( dwell for no time -- G64 should not smooth over this point )
F200.00000
G01 X6.50786 Y17.05384
X6.50224 Y17.04036
X6.50080 Y17.01079
X6.50786 Y17.05384
X6.52551 Y17.09616
X6.54037 Y17.11150
X6.51962 Y17.08204
G04 P0 ( dwell for no time -- G64 should not smooth over this point )
G00 Z5.00000 ( retract )

G00 X6.54037 Y17.11150 ( rapid move to begin. )
F100.00000
G01 Z-0.04000
G04 P0 ( dwell for no time -- G64 should not smooth over this point )
F200.00000
G01 X6.54037 Y17.11150
X6.56168 Y17.13355
X6.60435 Y17.16469
X6.71482 Y17.23540
X6.80768 Y17.31077
X6.80931 Y17.36050
X6.80623 Y17.38079
G04 P0 ( dwell for no time -- G64 should not smooth over this point )
G00 Z5.00000 ( retract )

G00 X6.54855 Y17.11996 ( rapid move to begin. )
F100.00000
G01 Z-0.04000
G04 P0 ( dwell for no time -- G64 should not smooth over this point )
F200.00000
G01 X6.54855 Y17.11996
X6.56747 Y17.13548
X6.59341 Y17.14935
X6.62152 Y17.15788
X6.65081 Y17.16078
X8.20077 Y17.16078
X8.23003 Y17.15788
X8.25815 Y17.14935
X8.28408 Y17.13548
X8.30290 Y17.12004
X8.28985 Y17.13355
X8.24717 Y17.16469
X8.13671 Y17.23540
X8.04385 Y17.31077
X6.80768 Y17.31077
G04 P0 ( dwell for no time -- G64 should not smooth over this point )
G00 Z5.00000 ( retract )

G00 X6.54027 Y17.58011 ( rapid move to begin. )
F100.00000
G01 Z-0.04000
G04 P0 ( dwell for no time -- G64 should not smooth over this point )
F200.00000
G01 X6.54027 Y17.58011
X6.56747 Y17.55608
X6.59341 Y17.54221
X6.62152 Y17.53368
X6.65081 Y17.53081
X8.20077 Y17.53081
X8.23003 Y17.53368
X8.25815 Y17.54221
X8.28408 Y17.55608
X8.30298 Y17.57160
X8.28982 Y17.55798
X8.24715 Y17.52682
X8.13656 Y17.45605
X8.04385 Y17.38079
X6.80623 Y17.38079
X6.73598 Y17.44041
X6.67220 Y17.48567
X6.60438 Y17.52682
X6.56171 Y17.55798
X6.54626 Y17.57393
G04 P0 ( dwell for no time -- G64 should not smooth over this point )
G00 Z5.00000 ( retract )

G00 X6.50832 Y17.63660 ( rapid move to begin. )
F100.00000
G01 Z-0.04000
G04 P0 ( dwell for no time -- G64 should not smooth over this point )
F200.00000
G01 X6.50832 Y17.63660
X6.52551 Y17.59540
X6.54027 Y17.58011
X6.51954 Y17.60965
G04 P0 ( dwell for no time -- G64 should not smooth over this point )
G00 Z5.00000 ( retract )

G00 X6.50100 Y17.74610 ( rapid move to begin. )
F100.00000
G01 Z-0.04000
G04 P0 ( dwell for no time -- G64 should not smooth over this point )
F200.00000
G01 X6.50100 Y17.74610
X6.51604 Y17.81803
X6.52211 Y17.89220
X6.52086 Y18.09476
X6.51604 Y18.14353
X6.50100 Y18.21544
G04 P0 ( dwell for no time -- G64 should not smooth over this point )
G00 Z5.00000 ( retract )

G00 X6.50080 Y18.28079 ( rapid move to begin. )
F100.00000
G01 Z-0.04000
G04 P0 ( dwell for no time -- G64 should not smooth over this point )
F200.00000
G01 X6.50080 Y18.28079
X6.50100 Y18.21544
X6.50077 Y18.31066
X6.52358 Y18.36575
X6.56577 Y18.40794
X6.62094 Y18.43078
X6.65081 Y18.43078
X6.62122 Y18.42933
X6.56661 Y18.40670
X6.52485 Y18.36492
X6.50224 Y18.31036
X6.50080 Y18.28079
X6.50796 Y18.32417
G04 P0 ( dwell for no time -- G64 should not smooth over this point )
G00 Z5.00000 ( retract )

G00 X6.51908 Y18.35100 ( rapid move to begin. )
F100.00000
G01 Z-0.04000
G04 P0 ( dwell for no time -- G64 should not smooth over this point )
F200.00000
G01 X6.51908 Y18.35100
X6.52610 Y18.36410
X6.53552 Y18.37558
G04 P0 ( dwell for no time -- G64 should not smooth over this point )
G00 Z5.00000 ( retract )

G00 X6.55599 Y18.39608 ( rapid move to begin. )
F100.00000
G01 Z-0.04000
G04 P0 ( dwell for no time -- G64 should not smooth over this point )
F200.00000
G01 X6.55599 Y18.39608
X6.56747 Y18.40548
X6.58040 Y18.41241
G04 P0 ( dwell for no time -- G64 should not smooth over this point )
G00 Z5.00000 ( retract )

G00 X6.60743 Y18.42359 ( rapid move to begin. )
F100.00000
G01 Z-0.04000
G04 P0 ( dwell for no time -- G64 should not smooth over this point )
F200.00000
G01 X6.60743 Y18.42359
X6.65081 Y18.43078
X7.19020 Y18.43078
X7.26107 Y18.41579
X7.31123 Y18.41066
X7.51286 Y18.40947
X7.58842 Y18.41549
X7.66087 Y18.43078
X8.20077 Y18.43078
X7.66048 Y18.43055
G04 P0 ( dwell for no time -- G64 should not smooth over this point )
G00 Z5.00000 ( retract )

G00 X8.20077 Y18.43078 ( rapid move to begin. )
F100.00000
G01 Z-0.04000
G04 P0 ( dwell for no time -- G64 should not smooth over this point )
F200.00000
G01 X8.20077 Y18.43078
X8.24407 Y18.42362
X8.23031 Y18.42933
X8.20077 Y18.43078
X8.23061 Y18.43080
X8.28576 Y18.40794
X8.32795 Y18.36575
X8.35078 Y18.31059
X8.35078 Y18.21587
X8.33549 Y18.14343
X8.33069 Y18.09471
X8.32944 Y17.89220
X8.33549 Y17.81811
X8.35078 Y17.74561
X8.35081 Y17.65092
X8.32739 Y17.59446
X8.25492 Y17.51932
X8.23739 Y17.49738
X8.22426 Y17.47254
X8.19871 Y17.40652
X8.19256 Y17.36037
X8.19256 Y17.33114
X8.19871 Y17.28496
X8.22431 Y17.21889
X8.23745 Y17.19410
X8.25495 Y17.17218
X8.32741 Y17.09705
X8.35078 Y17.04059
X8.35078 Y16.94587
X8.33549 Y16.87343
X8.33069 Y16.82471
X8.32944 Y16.62220
X8.33549 Y16.54811
X8.35078 Y16.47561
X8.35081 Y16.38092
X8.32739 Y16.32446
X8.25492 Y16.24932
X8.23739 Y16.22738
X8.22426 Y16.20254
X8.19871 Y16.13652
X8.19256 Y16.09037
X8.19256 Y16.06114
X8.19871 Y16.01496
X8.22431 Y15.94889
X8.23745 Y15.92410
X8.25495 Y15.90218
X8.32741 Y15.82705
X8.35078 Y15.77059
X8.35078 Y15.67587
X8.33549 Y15.60343
X8.33069 Y15.55471
X8.32944 Y15.35220
X8.33549 Y15.27811
X8.35078 Y15.20561
X8.35081 Y15.11092
X8.32739 Y15.05446
X8.25492 Y14.97932
X8.23739 Y14.95738
X8.22426 Y14.93254
X8.19871 Y14.86652
X8.19256 Y14.82037
X8.19256 Y14.79114
X8.19871 Y14.74496
X8.22431 Y14.67889
X8.23745 Y14.65410
X8.25495 Y14.63218
X8.32741 Y14.55705
X8.35078 Y14.50059
X8.35055 Y14.40551
X8.35075 Y14.47079
X8.34786 Y14.50005
X8.32546 Y14.55410
X8.30290 Y14.58004
X8.32604 Y14.55614
X8.34931 Y14.50031
X8.35075 Y14.47079
G04 P0 ( dwell for no time -- G64 should not smooth over this point )
G00 Z5.00000 ( retract )

G00 X8.24407 Y18.42362 ( rapid move to begin. )
F100.00000
G01 Z-0.04000
G04 P0 ( dwell for no time -- G64 should not smooth over this point )
F200.00000
G01 X8.24407 Y18.42362
X8.28408 Y18.40548
X8.29551 Y18.39611
X8.28494 Y18.40670
X8.27115 Y18.41239
G04 P0 ( dwell for no time -- G64 should not smooth over this point )
G00 Z5.00000 ( retract )

G00 X8.29551 Y18.39611 ( rapid move to begin. )
F100.00000
G01 Z-0.04000
G04 P0 ( dwell for no time -- G64 should not smooth over this point )
F200.00000
G01 X8.29551 Y18.39611
X8.31611 Y18.37551
X8.33239 Y18.35115
X8.32670 Y18.36492
X8.31611 Y18.37551
G04 P0 ( dwell for no time -- G64 should not smooth over this point )
G00 Z5.00000 ( retract )

G00 X8.34872 Y18.20855 ( rapid move to begin. )
F100.00000
G01 Z-0.04000
G04 P0 ( dwell for no time -- G64 should not smooth over this point )
F200.00000
G01 X8.34872 Y18.20855
X8.35075 Y18.28079
X8.34786 Y18.31005
X8.33239 Y18.35115
X8.34931 Y18.31031
X8.35075 Y18.28079
G04 P0 ( dwell for no time -- G64 should not smooth over this point )
G00 Z5.00000 ( retract )

G00 X8.34867 Y17.75313 ( rapid move to begin. )
F100.00000
G01 Z-0.04000
G04 P0 ( dwell for no time -- G64 should not smooth over this point )
F200.00000
G01 X8.34867 Y17.75313
X8.35075 Y17.68079
X8.34369 Y17.63779
X8.34931 Y17.65123
X8.35075 Y17.68079
G04 P0 ( dwell for no time -- G64 should not smooth over this point )
G00 Z5.00000 ( retract )

G00 X8.33188 Y17.60947 ( rapid move to begin. )
F100.00000
G01 Z-0.04000
G04 P0 ( dwell for no time -- G64 should not smooth over this point )
F200.00000
G01 X8.33188 Y17.60947
X8.34369 Y17.63779
X8.33193 Y17.60955
G04 P0 ( dwell for no time -- G64 should not smooth over this point )
G00 Z5.00000 ( retract )

G00 X8.30298 Y17.57160 ( rapid move to begin. )
F100.00000
G01 Z-0.04000
G04 P0 ( dwell for no time -- G64 should not smooth over this point )
F200.00000
G01 X8.30298 Y17.57160
X8.32546 Y17.59746
X8.33188 Y17.60947
X8.32602 Y17.59537
X8.31118 Y17.58006
G04 P0 ( dwell for no time -- G64 should not smooth over this point )
G00 Z5.00000 ( retract )

G00 X8.04385 Y17.31077 ( rapid move to begin. )
F100.00000
G01 Z-0.04000
G04 P0 ( dwell for no time -- G64 should not smooth over this point )
F200.00000
G01 X8.04385 Y17.31077
X8.04329 Y17.31653
X8.04329 Y17.37498
X8.04385 Y17.38079
G04 P0 ( dwell for no time -- G64 should not smooth over this point )
G00 Z5.00000 ( retract )

G00 X8.34872 Y16.93855 ( rapid move to begin. )
F100.00000
G01 Z-0.04000
G04 P0 ( dwell for no time -- G64 should not smooth over this point )
F200.00000
G01 X8.34872 Y16.93855
X8.35075 Y17.01079
X8.34786 Y17.04005
X8.32546 Y17.09410
X8.30290 Y17.12004
X8.32604 Y17.09614
X8.34931 Y17.04031
X8.35075 Y17.01079
G04 P0 ( dwell for no time -- G64 should not smooth over this point )
G00 Z5.00000 ( retract )

G00 X8.34867 Y16.48313 ( rapid move to begin. )
F100.00000
G01 Z-0.04000
G04 P0 ( dwell for no time -- G64 should not smooth over this point )
F200.00000
G01 X8.34867 Y16.48313
X8.35075 Y16.41079
X8.34369 Y16.36779
X8.34931 Y16.38123
X8.35075 Y16.41079
G04 P0 ( dwell for no time -- G64 should not smooth over this point )
G00 Z5.00000 ( retract )

G00 X8.33188 Y16.33947 ( rapid move to begin. )
F100.00000
G01 Z-0.04000
G04 P0 ( dwell for no time -- G64 should not smooth over this point )
F200.00000
G01 X8.33188 Y16.33947
X8.34369 Y16.36779
X8.33193 Y16.33955
G04 P0 ( dwell for no time -- G64 should not smooth over this point )
G00 Z5.00000 ( retract )

G00 X8.30298 Y16.30160 ( rapid move to begin. )
F100.00000
G01 Z-0.04000
G04 P0 ( dwell for no time -- G64 should not smooth over this point )
F200.00000
G01 X8.30298 Y16.30160
X8.32546 Y16.32746
X8.33188 Y16.33947
X8.32602 Y16.32537
X8.31118 Y16.31006
G04 P0 ( dwell for no time -- G64 should not smooth over this point )
G00 Z5.00000 ( retract )

G00 X8.04385 Y16.04077 ( rapid move to begin. )
F100.00000
G01 Z-0.04000
G04 P0 ( dwell for no time -- G64 should not smooth over this point )
F200.00000
G01 X8.04385 Y16.04077
X8.04329 Y16.04653
X8.04329 Y16.10498
X8.04385 Y16.11079
G04 P0 ( dwell for no time -- G64 should not smooth over this point )
G00 Z5.00000 ( retract )

G00 X8.34872 Y15.66855 ( rapid move to begin. )
F100.00000
G01 Z-0.04000
G04 P0 ( dwell for no time -- G64 should not smooth over this point )
F200.00000
G01 X8.34872 Y15.66855
X8.35075 Y15.74079
X8.34786 Y15.77005
X8.32546 Y15.82410
X8.30290 Y15.85004
X8.32604 Y15.82614
X8.34931 Y15.77031
X8.35075 Y15.74079
G04 P0 ( dwell for no time -- G64 should not smooth over this point )
G00 Z5.00000 ( retract )

G00 X8.34867 Y15.21313 ( rapid move to begin. )
F100.00000
G01 Z-0.04000
G04 P0 ( dwell for no time -- G64 should not smooth over this point )
F200.00000
G01 X8.34867 Y15.21313
X8.35075 Y15.14079
X8.34369 Y15.09779
X8.34931 Y15.11123
X8.35075 Y15.14079
G04 P0 ( dwell for no time -- G64 should not smooth over this point )
G00 Z5.00000 ( retract )

G00 X8.33188 Y15.06947 ( rapid move to begin. )
F100.00000
G01 Z-0.04000
G04 P0 ( dwell for no time -- G64 should not smooth over this point )
F200.00000
G01 X8.33188 Y15.06947
X8.34369 Y15.09779
X8.33193 Y15.06955
G04 P0 ( dwell for no time -- G64 should not smooth over this point )
G00 Z5.00000 ( retract )

G00 X8.30298 Y15.03160 ( rapid move to begin. )
F100.00000
G01 Z-0.04000
G04 P0 ( dwell for no time -- G64 should not smooth over this point )
F200.00000
G01 X8.30298 Y15.03160
X8.32546 Y15.05746
X8.33188 Y15.06947
X8.32602 Y15.05537
X8.31118 Y15.04006
G04 P0 ( dwell for no time -- G64 should not smooth over this point )
G00 Z5.00000 ( retract )

G00 X8.04385 Y14.77077 ( rapid move to begin. )
F100.00000
G01 Z-0.04000
G04 P0 ( dwell for no time -- G64 should not smooth over this point )
F200.00000
G01 X8.04385 Y14.77077
X8.04329 Y14.77653
X8.04329 Y14.83498
X8.04385 Y14.84079
G04 P0 ( dwell for no time -- G64 should not smooth over this point )
G00 Z5.00000 ( retract )

G00 X8.34867 Y13.94313 ( rapid move to begin. )
F100.00000
G01 Z-0.04000
G04 P0 ( dwell for no time -- G64 should not smooth over this point )
F200.00000
G01 X8.34867 Y13.94313
X8.35075 Y13.87079
X8.34786 Y13.84151
X8.33234 Y13.80033
X8.34931 Y13.84123
X8.35075 Y13.87079
G04 P0 ( dwell for no time -- G64 should not smooth over this point )
G00 Z5.00000 ( retract )

G00 X8.29556 Y13.75550 ( rapid move to begin. )
F100.00000
G01 Z-0.04000
G04 P0 ( dwell for no time -- G64 should not smooth over this point )
F200.00000
G01 X8.29556 Y13.75550
X8.28408 Y13.74608
X8.24420 Y13.72799
X8.20077 Y13.72078
X8.23036 Y13.72223
X8.28492 Y13.74483
X8.31603 Y13.77595
X8.33234 Y13.80033
X8.32668 Y13.78662
X8.31611 Y13.77605
G04 P0 ( dwell for no time -- G64 should not smooth over this point )
G00 Z5.00000 ( retract )

G00 X8.20077 Y13.72078 ( rapid move to begin. )
F100.00000
G01 Z-0.04000
G04 P0 ( dwell for no time -- G64 should not smooth over this point )
F200.00000
G01 X8.20077 Y13.72078
X7.66104 Y13.72078
X8.23064 Y13.72075
X8.28576 Y13.74359
X8.32795 Y13.78578
X8.35081 Y13.84092
X8.35078 Y13.93561
X8.33549 Y14.00811
X8.32944 Y14.08220
X8.33069 Y14.28471
X8.33549 Y14.33343
X8.35055 Y14.40551
X8.34872 Y14.39855
G04 P0 ( dwell for no time -- G64 should not smooth over this point )
G00 Z5.00000 ( retract )

G00 X7.09145 Y11.86211 ( rapid move to begin. )
F100.00000
G01 Z-0.04000
G04 P0 ( dwell for no time -- G64 should not smooth over this point )
F200.00000
G01 X7.09145 Y11.86211
X7.13478 Y11.86927
X7.89919 Y11.86927
X7.97006 Y11.85429
X8.02022 Y11.84916
X8.22185 Y11.84796
X8.29741 Y11.85398
X8.36988 Y11.86930
X9.16457 Y11.86930
X9.21977 Y11.84644
X9.26193 Y11.80425
X9.28481 Y11.74903
X9.28474 Y11.10478
X9.26978 Y11.03394
X9.26465 Y10.98380
X9.26345 Y10.78218
X9.26947 Y10.70659
X9.28479 Y10.63407
X9.28479 Y9.98947
X9.26193 Y9.93428
X9.21974 Y9.89209
X9.16462 Y9.86925
X8.37006 Y9.86928
X8.29935 Y9.88429
X8.24928 Y9.88939
X8.04771 Y9.89061
X7.97202 Y9.88454
X7.90006 Y9.86951
G04 P0 ( dwell for no time -- G64 should not smooth over this point )
G00 Z5.00000 ( retract )

G00 X7.04001 Y11.83460 ( rapid move to begin. )
F100.00000
G01 Z-0.04000
G04 P0 ( dwell for no time -- G64 should not smooth over this point )
F200.00000
G01 X7.04001 Y11.83460
X7.05144 Y11.84397
X7.06440 Y11.85091
G04 P0 ( dwell for no time -- G64 should not smooth over this point )
G00 Z5.00000 ( retract )

G00 X7.00311 Y11.78959 ( rapid move to begin. )
F100.00000
G01 Z-0.04000
G04 P0 ( dwell for no time -- G64 should not smooth over this point )
F200.00000
G01 X7.00311 Y11.78959
X7.01007 Y11.80260
X7.01941 Y11.81400
G04 P0 ( dwell for no time -- G64 should not smooth over this point )
G00 Z5.00000 ( retract )

G00 X6.98477 Y11.10478 ( rapid move to begin. )
F100.00000
G01 Z-0.04000
G04 P0 ( dwell for no time -- G64 should not smooth over this point )
F200.00000
G01 X6.98477 Y11.10478
X6.98497 Y11.10397
G04 P0 ( dwell for no time -- G64 should not smooth over this point )
G00 Z5.00000 ( retract )

G00 X6.98477 Y10.63372 ( rapid move to begin. )
F100.00000
G01 Z-0.04000
G04 P0 ( dwell for no time -- G64 should not smooth over this point )
F200.00000
G01 X6.98477 Y10.63372
X6.99975 Y10.70458
X7.00489 Y10.75470
X7.00608 Y10.95635
X7.00003 Y11.03204
X6.98477 Y11.10435
X6.98477 Y11.74916
X7.00758 Y11.80425
X7.04977 Y11.84644
X7.10494 Y11.86927
X7.13478 Y11.86927
X7.10522 Y11.86782
X7.05061 Y11.84519
X7.00885 Y11.80344
X6.98622 Y11.74885
X6.98477 Y11.71929
X6.98766 Y11.74855
X7.00224 Y11.78756
G04 P0 ( dwell for no time -- G64 should not smooth over this point )
G00 Z5.00000 ( retract )

G00 X6.98477 Y10.01931 ( rapid move to begin. )
F100.00000
G01 Z-0.04000
G04 P0 ( dwell for no time -- G64 should not smooth over this point )
F200.00000
G01 X6.98477 Y10.01931
X6.98477 Y10.63372
X6.98474 Y9.98939
X7.00758 Y9.93428
X7.04977 Y9.89209
X7.10486 Y9.86928
X7.90006 Y9.86951
X7.10516 Y9.87075
X7.05061 Y9.89336
X7.00885 Y9.93511
X7.00306 Y9.94906
X7.01954 Y9.92442
G04 P0 ( dwell for no time -- G64 should not smooth over this point )
G00 Z5.00000 ( retract )

G00 X6.99193 Y9.97591 ( rapid move to begin. )
F100.00000
G01 Z-0.04000
G04 P0 ( dwell for no time -- G64 should not smooth over this point )
F200.00000
G01 X6.99193 Y9.97591
X6.98624 Y9.98967
X6.98477 Y10.01931
X6.98766 Y9.99003
X7.00306 Y9.94906
G04 P0 ( dwell for no time -- G64 should not smooth over this point )
G00 Z5.00000 ( retract )

G00 X7.03989 Y9.90407 ( rapid move to begin. )
F100.00000
G01 Z-0.04000
G04 P0 ( dwell for no time -- G64 should not smooth over this point )
F200.00000
G01 X7.03989 Y9.90407
X7.05144 Y9.89460
X7.09119 Y9.87654
X7.13478 Y9.86930
G04 P0 ( dwell for no time -- G64 should not smooth over this point )
G00 Z5.00000 ( retract )

G00 X9.17824 Y9.87649 ( rapid move to begin. )
F100.00000
G01 Z-0.04000
G04 P0 ( dwell for no time -- G64 should not smooth over this point )
F200.00000
G01 X9.17824 Y9.87649
X9.13478 Y9.86930
X8.37006 Y9.86928
X8.34811 Y9.87459
X8.37031 Y9.86930
X9.13478 Y9.86930
X9.16434 Y9.87075
X9.20493 Y9.88756
X9.22952 Y9.90395
X9.21890 Y9.89333
X9.18509 Y9.87934
G04 P0 ( dwell for no time -- G64 should not smooth over this point )
G00 Z5.00000 ( retract )

G00 X9.22952 Y9.90395 ( rapid move to begin. )
F100.00000
G01 Z-0.04000
G04 P0 ( dwell for no time -- G64 should not smooth over this point )
F200.00000
G01 X9.22952 Y9.90395
X9.25004 Y9.92447
X9.26632 Y9.94880
X9.26066 Y9.93511
X9.25012 Y9.92457
G04 P0 ( dwell for no time -- G64 should not smooth over this point )
G00 Z5.00000 ( retract )

G00 X9.28271 Y10.64144 ( rapid move to begin. )
F100.00000
G01 Z-0.04000
G04 P0 ( dwell for no time -- G64 should not smooth over this point )
F200.00000
G01 X9.28271 Y10.64144
X9.28474 Y10.63372
X9.28476 Y10.01931
X9.28187 Y9.99003
X9.26632 Y9.94880
X9.28332 Y9.98977
X9.28476 Y10.01931
G04 P0 ( dwell for no time -- G64 should not smooth over this point )
G00 Z5.00000 ( retract )

G00 X9.28474 Y11.10478 ( rapid move to begin. )
F100.00000
G01 Z-0.04000
G04 P0 ( dwell for no time -- G64 should not smooth over this point )
F200.00000
G01 X9.28474 Y11.10478
X9.28476 Y11.71929
G04 P0 ( dwell for no time -- G64 should not smooth over this point )
G00 Z5.00000 ( retract )

G00 X8.36950 Y11.86904 ( rapid move to begin. )
F100.00000
G01 Z-0.04000
G04 P0 ( dwell for no time -- G64 should not smooth over this point )
F200.00000
G01 X8.36950 Y11.86904
X9.13478 Y11.86927
X9.17798 Y11.86214
X9.16427 Y11.86782
X9.13478 Y11.86927
G04 P0 ( dwell for no time -- G64 should not smooth over this point )
G00 Z5.00000 ( retract )

G00 X9.17798 Y11.86214 ( rapid move to begin. )
F100.00000
G01 Z-0.04000
G04 P0 ( dwell for no time -- G64 should not smooth over this point )
F200.00000
G01 X9.17798 Y11.86214
X9.20524 Y11.85086
X9.22939 Y11.83470
X9.21893 Y11.84519
X9.20524 Y11.85086
G04 P0 ( dwell for no time -- G64 should not smooth over this point )
G00 Z5.00000 ( retract )

G00 X9.23981 Y11.82429 ( rapid move to begin. )
F100.00000
G01 Z-0.04000
G04 P0 ( dwell for no time -- G64 should not smooth over this point )
F200.00000
G01 X9.23981 Y11.82429
X9.22939 Y11.83470
X9.25017 Y11.81393
X9.26635 Y11.78972
X9.26068 Y11.80341
X9.25017 Y11.81393
G04 P0 ( dwell for no time -- G64 should not smooth over this point )
G00 Z5.00000 ( retract )

G00 X9.26843 Y11.78467 ( rapid move to begin. )
F100.00000
G01 Z-0.04000
G04 P0 ( dwell for no time -- G64 should not smooth over this point )
F200.00000
G01 X9.26843 Y11.78467
X9.26635 Y11.78972
X9.28187 Y11.74855
X9.28476 Y11.71929
X9.28334 Y11.74875
X9.27763 Y11.76249
G04 P0 ( dwell for no time -- G64 should not smooth over this point )
G00 Z5.00000 ( retract )

G00 X11.09152 Y11.86214 ( rapid move to begin. )
F100.00000
G01 Z-0.04000
G04 P0 ( dwell for no time -- G64 should not smooth over this point )
F200.00000
G01 X11.09152 Y11.86214
X11.13480 Y11.86927
X11.89916 Y11.86927
X11.97020 Y11.85426
X12.02027 Y11.84916
X12.22184 Y11.84796
X12.29743 Y11.85398
X12.36987 Y11.86927
X13.13479 Y11.86927
X12.36949 Y11.86904
G04 P0 ( dwell for no time -- G64 should not smooth over this point )
G00 Z5.00000 ( retract )

G00 X11.04003 Y11.83460 ( rapid move to begin. )
F100.00000
G01 Z-0.04000
G04 P0 ( dwell for no time -- G64 should not smooth over this point )
F200.00000
G01 X11.04003 Y11.83460
X11.05146 Y11.84397
X11.06439 Y11.85088
G04 P0 ( dwell for no time -- G64 should not smooth over this point )
G00 Z5.00000 ( retract )

G00 X10.99362 Y11.76668 ( rapid move to begin. )
F100.00000
G01 Z-0.04000
G04 P0 ( dwell for no time -- G64 should not smooth over this point )
F200.00000
G01 X10.99362 Y11.76668
X11.00312 Y11.78957
X11.01008 Y11.80260
X11.01943 Y11.81400
G04 P0 ( dwell for no time -- G64 should not smooth over this point )
G00 Z5.00000 ( retract )

G00 X10.98479 Y11.71929 ( rapid move to begin. )
F100.00000
G01 Z-0.04000
G04 P0 ( dwell for no time -- G64 should not smooth over this point )
F200.00000
G01 X10.98479 Y11.71929
X10.98496 Y11.10402
X10.98473 Y11.74911
X11.00759 Y11.80425
X11.04978 Y11.84644
X11.10498 Y11.86930
X11.13480 Y11.86927
X11.10526 Y11.86782
X11.05062 Y11.84519
X11.00884 Y11.80341
X10.98623 Y11.74883
X10.98479 Y11.71929
X10.99195 Y11.76264
G04 P0 ( dwell for no time -- G64 should not smooth over this point )
G00 Z5.00000 ( retract )

G00 X10.98682 Y11.09709 ( rapid move to begin. )
F100.00000
G01 Z-0.04000
G04 P0 ( dwell for no time -- G64 should not smooth over this point )
F200.00000
G01 X10.98682 Y11.09709
X10.98496 Y11.10402
X11.00005 Y11.03204
X11.00610 Y10.95635
X11.00490 Y10.75470
X10.99975 Y10.70453
X10.99004 Y10.65574
G04 P0 ( dwell for no time -- G64 should not smooth over this point )
G00 Z5.00000 ( retract )

G00 X10.98473 Y10.63394 ( rapid move to begin. )
F100.00000
G01 Z-0.04000
G04 P0 ( dwell for no time -- G64 should not smooth over this point )
F200.00000
G01 X10.98473 Y10.63394
X10.98476 Y9.98942
X11.00757 Y9.93430
X11.04978 Y9.89209
X11.10488 Y9.86928
X11.90010 Y9.86951
X11.10518 Y9.87075
X11.05062 Y9.89336
X11.00884 Y9.93514
X11.00305 Y9.94906
X11.01956 Y9.92442
G04 P0 ( dwell for no time -- G64 should not smooth over this point )
G00 Z5.00000 ( retract )

G00 X10.98479 Y10.63369 ( rapid move to begin. )
F100.00000
G01 Z-0.04000
G04 P0 ( dwell for no time -- G64 should not smooth over this point )
F200.00000
G01 X10.98479 Y10.63369
X10.98479 Y10.01931
X10.98473 Y10.63394
X10.99004 Y10.65574
X10.98491 Y10.63427
G04 P0 ( dwell for no time -- G64 should not smooth over this point )
G00 Z5.00000 ( retract )

G00 X10.99197 Y9.97586 ( rapid move to begin. )
F100.00000
G01 Z-0.04000
G04 P0 ( dwell for no time -- G64 should not smooth over this point )
F200.00000
G01 X10.99197 Y9.97586
X10.98623 Y9.98972
X10.98479 Y10.01931
X10.98768 Y9.99003
X11.00305 Y9.94906
G04 P0 ( dwell for no time -- G64 should not smooth over this point )
G00 Z5.00000 ( retract )

G00 X11.03990 Y9.90407 ( rapid move to begin. )
F100.00000
G01 Z-0.04000
G04 P0 ( dwell for no time -- G64 should not smooth over this point )
F200.00000
G01 X11.03990 Y9.90407
X11.05146 Y9.89460
X11.09121 Y9.87654
X11.13480 Y9.86930
G04 P0 ( dwell for no time -- G64 should not smooth over this point )
G00 Z5.00000 ( retract )

G00 X11.90010 Y9.86951 ( rapid move to begin. )
F100.00000
G01 Z-0.04000
G04 P0 ( dwell for no time -- G64 should not smooth over this point )
F200.00000
G01 X11.90010 Y9.86951
X11.97203 Y9.88454
X12.04772 Y9.89061
X12.24932 Y9.88939
X12.29949 Y9.88426
X12.37005 Y9.86928
X12.34823 Y9.87456
G04 P0 ( dwell for no time -- G64 should not smooth over this point )
G00 Z5.00000 ( retract )

G00 X15.05361 Y6.92577 ( rapid move to begin. )
F100.00000
G01 Z-0.04000
G04 P0 ( dwell for no time -- G64 should not smooth over this point )
F200.00000
G01 X15.05361 Y6.92577
X15.05892 Y6.88516
X15.07426 Y6.82161
X15.09865 Y6.78015
X15.13314 Y6.73321
X15.17746 Y6.70042
X15.22145 Y6.67401
X15.28201 Y6.65950
X15.35044 Y6.65077
X30.84411 Y6.64967
X30.90979 Y6.65785
X30.97311 Y6.67284
X31.02836 Y6.70695
X31.08061 Y6.74757
X32.16341 Y7.83037
X32.20565 Y7.88495
X32.23813 Y7.93791
X32.25061 Y7.98775
X32.25873 Y8.04225
X32.24995 Y8.09989
X32.23788 Y8.14642
