( pcb2gcode 1.3.2 )
( Software-independent Gcode )

G94 ( Millimeters per minute feed rate. )
G21 ( Units == Millimeters. )

G90 ( Absolute coordinates. )
S10000 ( RPM spindle speed. )
F200.00000 ( Feedrate. )

F200.00000 ( Feedrate. )
M3 ( Spindle on clockwise. )
G04 P1.00000
G04 P0 ( dwell for no time -- G64 should not smooth over this point )
G00 Z2.00000 ( retract )

G00 X2.23760 Y2.23661 ( rapid move to begin. )
F100.00000
G01 Z-0.05500
G04 P0 ( dwell for no time -- G64 should not smooth over this point )
F200.00000
G01 X2.23760 Y2.23661
X2.24184 Y2.20596
X2.25522 Y2.15196
X2.30270 Y2.07964
X2.37478 Y2.03159
X2.42134 Y2.02056
X2.45969 Y2.01485
X2.54443 Y2.03187
X2.61623 Y2.08002
X2.66414 Y2.15193
X2.67750 Y2.20573
X2.68466 Y2.26598
X2.68466 Y3.81985
X3.50285 Y4.63803
X11.25142 Y4.63803
X12.06963 Y3.81982
X12.06963 Y2.37748
X12.06956 Y3.69557
X12.06592 Y3.73958
X12.05165 Y3.79650
X12.02653 Y3.84959
X12.01022 Y3.87397
X11.98167 Y3.90766
X11.33926 Y4.55007
X11.30557 Y4.57862
X11.28119 Y4.59493
X11.25526 Y4.60880
X11.19999 Y4.62858
X11.17118 Y4.63432
X11.12717 Y4.63796
X3.62713 Y4.63796
X3.58288 Y4.63615
X3.52350 Y4.62884
X3.50780 Y4.62612
X3.49464 Y4.61685
X3.44742 Y4.57999
X3.41496 Y4.55010
X2.77255 Y3.90768
X2.72340 Y3.85175
X2.69657 Y3.81492
X2.68946 Y3.76971
X2.68471 Y3.69557
X2.68466 Y2.26598
G04 P0 ( dwell for no time -- G64 should not smooth over this point )
G00 Z2.00000 ( retract )

G00 X2.23468 Y2.26613 ( rapid move to begin. )
F100.00000
G01 Z-0.05500
G04 P0 ( dwell for no time -- G64 should not smooth over this point )
F200.00000
G01 X2.23468 Y2.26613
X2.23473 Y3.88388
X2.23468 Y2.26613
X2.23760 Y2.23661
X2.23473 Y2.26575
G04 P0 ( dwell for no time -- G64 should not smooth over this point )
G00 Z2.00000 ( retract )

G00 X2.68471 Y3.69557 ( rapid move to begin. )
F100.00000
G01 Z-0.05500
G04 P0 ( dwell for no time -- G64 should not smooth over this point )
F200.00000
G01 X2.68471 Y3.69557
X2.68832 Y3.73943
X2.69406 Y3.76831
X2.71380 Y3.82356
X2.74405 Y3.87405
X2.77255 Y3.90768
G04 P0 ( dwell for no time -- G64 should not smooth over this point )
G00 Z2.00000 ( retract )

G00 X2.23468 Y3.88350 ( rapid move to begin. )
F100.00000
G01 Z-0.05500
G04 P0 ( dwell for no time -- G64 should not smooth over this point )
F200.00000
G01 X2.23468 Y3.88350
X2.23762 Y3.91301
X2.23473 Y3.88388
G04 P0 ( dwell for no time -- G64 should not smooth over this point )
G00 Z2.00000 ( retract )

G00 X2.23762 Y3.91301 ( rapid move to begin. )
F100.00000
G01 Z-0.05500
G04 P0 ( dwell for no time -- G64 should not smooth over this point )
F200.00000
G01 X2.23762 Y3.91301
X2.25451 Y3.99798
X2.28553 Y4.04697
X2.32149 Y4.09305
X2.30265 Y4.07006
G04 P0 ( dwell for no time -- G64 should not smooth over this point )
G00 Z2.00000 ( retract )

G00 X2.32134 Y4.09280 ( rapid move to begin. )
F100.00000
G01 Z-0.05500
G04 P0 ( dwell for no time -- G64 should not smooth over this point )
F200.00000
G01 X2.32134 Y4.09280
X3.22985 Y5.00133
X3.22962 Y5.00115
X2.32149 Y4.09305
G04 P0 ( dwell for no time -- G64 should not smooth over this point )
G00 Z2.00000 ( retract )

G00 X3.41496 Y4.55010 ( rapid move to begin. )
F100.00000
G01 Z-0.05500
G04 P0 ( dwell for no time -- G64 should not smooth over this point )
F200.00000
G01 X3.41496 Y4.55010
X3.44857 Y4.57857
X3.49896 Y4.60880
X3.55431 Y4.62858
X3.58306 Y4.63432
X3.62713 Y4.63796
G04 P0 ( dwell for no time -- G64 should not smooth over this point )
G00 Z2.00000 ( retract )

G00 X3.43930 Y5.08797 ( rapid move to begin. )
F100.00000
G01 Z-0.05500
G04 P0 ( dwell for no time -- G64 should not smooth over this point )
F200.00000
G01 X3.43930 Y5.08797
X11.32239 Y5.08652
X3.43930 Y5.08797
X11.31497 Y5.08802
X11.35927 Y5.08289
X11.32239 Y5.08652
G04 P0 ( dwell for no time -- G64 should not smooth over this point )
G00 Z2.00000 ( retract )

G00 X3.22985 Y5.00133 ( rapid move to begin. )
F100.00000
G01 Z-0.05500
G04 P0 ( dwell for no time -- G64 should not smooth over this point )
F200.00000
G01 X3.22985 Y5.00133
X3.27564 Y5.03709
X3.32469 Y5.06816
X3.38123 Y5.08086
X3.43902 Y5.08794
X3.40971 Y5.08507
G04 P0 ( dwell for no time -- G64 should not smooth over this point )
G00 Z2.00000 ( retract )

G00 X2.40498 Y6.34237 ( rapid move to begin. )
F100.00000
G01 Z-0.05500
G04 P0 ( dwell for no time -- G64 should not smooth over this point )
F200.00000
G01 X2.40498 Y6.34237
X11.72640 Y6.34237
X12.46092 Y5.60783
X12.46229 Y4.99612
X12.45998 Y5.49848
X12.45708 Y5.52774
X12.44281 Y5.58466
X12.41769 Y5.63775
X12.40138 Y5.66213
X12.37283 Y5.69582
X11.81424 Y6.25441
X11.78055 Y6.28296
X11.73024 Y6.31314
X11.70308 Y6.32439
X11.64616 Y6.33866
X11.60215 Y6.34230
X2.40539 Y6.34230
G04 P0 ( dwell for no time -- G64 should not smooth over this point )
G00 Z2.00000 ( retract )

G00 X2.21883 Y6.41027 ( rapid move to begin. )
F100.00000
G01 Z-0.05500
G04 P0 ( dwell for no time -- G64 should not smooth over this point )
F200.00000
G01 X2.21883 Y6.41027
X2.29089 Y6.36213
X2.34755 Y6.34943
X2.40539 Y6.34230
X2.37590 Y6.34522
G04 P0 ( dwell for no time -- G64 should not smooth over this point )
G00 Z2.00000 ( retract )

G00 X2.19581 Y6.42911 ( rapid move to begin. )
F100.00000
G01 Z-0.05500
G04 P0 ( dwell for no time -- G64 should not smooth over this point )
F200.00000
G01 X2.19581 Y6.42911
X2.21883 Y6.41027
X2.19612 Y6.42891
G04 P0 ( dwell for no time -- G64 should not smooth over this point )
G00 Z2.00000 ( retract )

G00 X0.97260 Y7.26587 ( rapid move to begin. )
F100.00000
G01 Z-0.05500
G04 P0 ( dwell for no time -- G64 should not smooth over this point )
F200.00000
G01 X0.97260 Y7.26587
X1.23641 Y7.26432
X1.28042 Y7.26068
X1.33734 Y7.24641
X1.36450 Y7.23516
X1.41481 Y7.20498
X1.44850 Y7.17643
X1.39269 Y7.22553
X1.35548 Y7.25263
X1.31067 Y7.25974
X1.25124 Y7.26427
X0.97260 Y7.26587
X1.36043 Y7.26460
X2.19612 Y6.42891
X1.44850 Y7.17643
G04 P0 ( dwell for no time -- G64 should not smooth over this point )
G00 Z2.00000 ( retract )

G00 X0.13046 Y7.48931 ( rapid move to begin. )
F100.00000
G01 Z-0.05500
G04 P0 ( dwell for no time -- G64 should not smooth over this point )
F200.00000
G01 X0.13046 Y7.48931
X0.09767 Y7.43508
X0.07517 Y7.38075
X0.05513 Y7.29477
X0.05083 Y7.23625
X0.05083 Y0.50078
X0.05513 Y0.44223
X0.07517 Y0.35623
X0.09767 Y0.30190
X0.14413 Y0.22720
X0.16277 Y0.20446
X0.22721 Y0.14411
X0.30191 Y0.09766
X0.35624 Y0.07515
X0.44225 Y0.05511
X0.50080 Y0.05082
X1.83960 Y0.05082
X1.89813 Y0.05511
X1.95599 Y0.06662
X2.03844 Y0.09766
X2.06437 Y0.11152
X2.13587 Y0.16276
X2.17758 Y0.20446
X2.22881 Y0.27596
X2.24268 Y0.30190
X2.27374 Y0.38445
X2.28522 Y0.44223
X2.28809 Y0.52643
X2.20651 Y0.59669
X1.98974 Y0.75704
X1.95497 Y0.80388
X1.92919 Y0.84731
X1.91438 Y0.90819
X1.90854 Y0.95137
X1.91438 Y0.99455
X1.92919 Y1.05541
X1.95497 Y1.09887
X1.98799 Y1.14368
X2.03452 Y1.17784
X2.07615 Y1.20271
X2.13912 Y1.21762
X2.20976 Y1.22638
X12.55934 Y1.22638
X12.60321 Y1.22999
X12.63209 Y1.23573
X12.68733 Y1.25546
X12.73783 Y1.28571
X12.77143 Y1.31424
X12.71553 Y1.26506
X12.67870 Y1.23824
X12.63349 Y1.23116
X12.55934 Y1.22638
X12.68360 Y1.22638
X13.58426 Y2.12699
X13.58426 Y5.92256
X12.23654 Y7.27026
X2.52502 Y7.27427
X2.45947 Y7.29416
X2.39973 Y7.33216
X2.37702 Y7.35078
X1.33585 Y8.39195
X1.31733 Y8.41453
X1.25835 Y8.50277
X1.24184 Y8.57859
X1.23473 Y8.63640
X1.23478 Y18.35675
X1.23473 Y8.63640
G04 P0 ( dwell for no time -- G64 should not smooth over this point )
G00 Z2.00000 ( retract )

G00 X0.34093 Y7.48931 ( rapid move to begin. )
F100.00000
G01 Z-0.05500
G04 P0 ( dwell for no time -- G64 should not smooth over this point )
F200.00000
G01 X0.34093 Y7.48931
X0.29960 Y7.45824
X0.27875 Y7.43739
X0.24380 Y7.39027
X0.22993 Y7.36434
X0.21014 Y7.30907
X0.20440 Y7.28014
X0.20082 Y7.23625
X0.20082 Y0.50078
X0.20440 Y0.45686
X0.21014 Y0.42791
X0.22993 Y0.37264
X0.24380 Y0.34670
X0.27875 Y0.29959
X0.29960 Y0.27873
X0.34672 Y0.24378
X0.37265 Y0.22991
X0.42792 Y0.21013
X0.45688 Y0.20439
X0.50080 Y0.20080
X1.83960 Y0.20080
X1.88350 Y0.20439
X1.91243 Y0.21013
X1.96770 Y0.22991
X1.99363 Y0.24378
X2.04075 Y0.27873
X2.06160 Y0.29959
X2.09655 Y0.34670
X2.12167 Y0.39984
X2.13595 Y0.45686
X2.13882 Y0.48612
X2.13595 Y0.54467
X2.13021 Y0.57355
X2.11042 Y0.62890
X2.09655 Y0.65483
X2.05840 Y0.70535
G04 P0 ( dwell for no time -- G64 should not smooth over this point )
G00 Z2.00000 ( retract )

G00 X0.34878 Y7.48933 ( rapid move to begin. )
F100.00000
G01 Z-0.05500
G04 P0 ( dwell for no time -- G64 should not smooth over this point )
F200.00000
G01 X0.34878 Y7.48933
X0.13046 Y7.48931
X0.09767 Y7.54356
X0.07514 Y7.59797
X0.05513 Y7.68390
X0.05083 Y7.74245
X0.05083 Y19.45078
X0.05513 Y19.50930
X0.06663 Y19.56716
X0.09767 Y19.64961
X0.14413 Y19.72431
X0.20448 Y19.78875
X0.27598 Y19.83998
X0.35624 Y19.87636
X0.44197 Y19.89637
X0.50080 Y19.90074
X14.45078 Y19.90074
X14.50958 Y19.89637
X14.56716 Y19.88489
X14.64961 Y19.85385
X14.72431 Y19.80739
X14.78875 Y19.74704
X14.83998 Y19.67554
X14.87636 Y19.59528
X14.89637 Y19.50958
X14.90074 Y19.45078
X14.90074 Y0.50078
X14.89701 Y0.45369
X14.87867 Y0.36169
X14.83943 Y0.27650
X14.81481 Y0.23631
X14.75101 Y0.16730
X14.71519 Y0.13669
X14.67501 Y0.11208
X14.58974 Y0.07281
X14.49772 Y0.05450
X14.45078 Y0.05082
X13.13821 Y0.05082
X13.07966 Y0.05511
X13.02188 Y0.06659
X12.93933 Y0.09766
X12.86463 Y0.14411
X12.80019 Y0.20446
X12.74896 Y0.27596
X12.71258 Y0.35623
X12.69254 Y0.44221
X12.68967 Y0.52643
X2.28809 Y0.52643
G04 P0 ( dwell for no time -- G64 should not smooth over this point )
G00 Z2.00000 ( retract )

G00 X0.70232 Y7.48933 ( rapid move to begin. )
F100.00000
G01 Z-0.05500
G04 P0 ( dwell for no time -- G64 should not smooth over this point )
F200.00000
G01 X0.70232 Y7.48933
X0.34088 Y7.48933
X0.29960 Y7.52040
X0.27875 Y7.54125
X0.24380 Y7.58837
X0.22993 Y7.61430
X0.21014 Y7.66965
X0.20440 Y7.69853
X0.20082 Y7.74245
X0.20082 Y19.45078
X0.20440 Y19.49467
X0.21014 Y19.52360
X0.22993 Y19.57887
X0.26011 Y19.62919
X0.29960 Y19.67277
X0.34672 Y19.70773
X0.39981 Y19.73285
X0.45673 Y19.74712
X0.50080 Y19.75075
X14.45078 Y19.75075
X14.49480 Y19.74712
X14.52360 Y19.74138
X14.57887 Y19.72159
X14.60481 Y19.70773
X14.65192 Y19.67277
X14.67278 Y19.65192
X14.70773 Y19.60480
X14.72160 Y19.57887
X14.74138 Y19.52360
X14.74712 Y19.49480
X14.75075 Y19.45078
X14.74887 Y0.47723
X14.74151 Y0.43088
X14.72706 Y0.38635
X14.70577 Y0.34454
X14.67816 Y0.30654
X14.64496 Y0.27335
X14.60697 Y0.24574
X14.56516 Y0.22445
X14.52058 Y0.20997
X14.45078 Y0.20080
X13.13821 Y0.20080
X13.09429 Y0.20439
X13.06541 Y0.21013
X13.01007 Y0.22991
X12.98413 Y0.24378
X12.93702 Y0.27873
X12.91616 Y0.29959
X12.88121 Y0.34670
X12.86734 Y0.37264
X12.84756 Y0.42791
X12.84182 Y0.45684
X12.83895 Y0.48610
X12.84182 Y0.54464
X12.84756 Y0.57352
X12.86734 Y0.62887
X12.89752 Y0.67919
X12.92168 Y0.70746
X12.77123 Y0.59666
X12.68967 Y0.52643
G04 P0 ( dwell for no time -- G64 should not smooth over this point )
G00 Z2.00000 ( retract )

G00 X0.74131 Y7.56698 ( rapid move to begin. )
F100.00000
G01 Z-0.05500
G04 P0 ( dwell for no time -- G64 should not smooth over this point )
F200.00000
G01 X0.74131 Y7.56698
X0.71690 Y7.53450
X0.66061 Y7.48933
X0.71695 Y7.44412
X0.74166 Y7.41115
X0.70232 Y7.48933
X0.74136 Y7.56703
X0.72721 Y7.51283
X0.73046 Y7.45052
X0.73793 Y7.41809
X0.76859 Y7.36602
X0.79274 Y7.33333
X0.86625 Y7.28486
X0.93486 Y7.26965
X0.97260 Y7.26587
X0.93486 Y7.26965
G04 P0 ( dwell for no time -- G64 should not smooth over this point )
G00 Z2.00000 ( retract )

G00 X0.74136 Y7.56703 ( rapid move to begin. )
F100.00000
G01 Z-0.05500
G04 P0 ( dwell for no time -- G64 should not smooth over this point )
F200.00000
G01 X0.74136 Y7.56703
X0.77722 Y7.62477
X0.79320 Y7.64488
X0.84751 Y7.68344
X0.86628 Y7.69380
X0.92005 Y7.70714
X0.98058 Y7.71435
X0.95096 Y7.71143
G04 P0 ( dwell for no time -- G64 should not smooth over this point )
G00 Z2.00000 ( retract )

G00 X0.98032 Y7.71430 ( rapid move to begin. )
F100.00000
G01 Z-0.05500
G04 P0 ( dwell for no time -- G64 should not smooth over this point )
F200.00000
G01 X0.98032 Y7.71430
X1.45388 Y7.71433
X1.51187 Y7.70572
X1.53308 Y7.69982
X1.56620 Y7.68397
X1.60145 Y7.65786
X2.46897 Y6.79228
X11.83422 Y6.79083
X11.86349 Y6.78796
X11.89160 Y6.77943
X11.93839 Y6.75830
X11.97880 Y6.72627
X12.86844 Y5.83229
X12.82612 Y5.91395
X12.80039 Y5.98040
X12.77822 Y6.05967
X12.76127 Y6.15434
X12.06298 Y6.85218
X12.01550 Y6.88695
X11.97603 Y6.90681
X11.89275 Y6.93508
X11.83425 Y6.94082
X2.53099 Y6.94227
X1.70740 Y7.76404
X1.67793 Y7.78938
X1.56881 Y7.76589
X1.42459 Y7.72982
X1.36338 Y7.71910
X1.28919 Y7.71435
X0.98058 Y7.71435
G04 P0 ( dwell for no time -- G64 should not smooth over this point )
G00 Z2.00000 ( retract )

G00 X1.28919 Y7.71435 ( rapid move to begin. )
F100.00000
G01 Z-0.05500
G04 P0 ( dwell for no time -- G64 should not smooth over this point )
F200.00000
G01 X1.28919 Y7.71435
X1.33308 Y7.71796
X1.39013 Y7.73223
X1.44321 Y7.75736
X1.49033 Y7.79231
X1.52983 Y7.83589
X1.56000 Y7.88621
X1.57979 Y7.94148
X1.58842 Y7.99957
X1.58842 Y8.02911
X1.57979 Y8.08717
X1.56000 Y8.14244
X1.54613 Y8.16838
X1.52983 Y8.19276
X1.50128 Y8.22644
X1.33607 Y8.39162
X1.31733 Y8.41453
G04 P0 ( dwell for no time -- G64 should not smooth over this point )
G00 Z2.00000 ( retract )

G00 X1.69460 Y7.82108 ( rapid move to begin. )
F100.00000
G01 Z-0.05500
G04 P0 ( dwell for no time -- G64 should not smooth over this point )
F200.00000
G01 X1.69460 Y7.82108
X2.27097 Y7.24473
X2.31636 Y7.20747
X2.39533 Y7.15858
X2.43653 Y7.14268
X2.50300 Y7.12591
X2.54699 Y7.12266
X12.17438 Y7.12030
X12.95812 Y6.33656
X12.92676 Y6.32048
X12.85490 Y6.26899
X12.79480 Y6.20483
X12.76127 Y6.15434
G04 P0 ( dwell for no time -- G64 should not smooth over this point )
G00 Z2.00000 ( retract )

G00 X1.50128 Y8.22644 ( rapid move to begin. )
F100.00000
G01 Z-0.05500
G04 P0 ( dwell for no time -- G64 should not smooth over this point )
F200.00000
G01 X1.50128 Y8.22644
X1.55035 Y8.17064
X1.60166 Y8.09380
X1.64862 Y7.99363
X1.67476 Y7.91268
X1.69460 Y7.82108
X1.69226 Y7.81547
X1.67834 Y7.78949
X1.61532 Y7.77592
G04 P0 ( dwell for no time -- G64 should not smooth over this point )
G00 Z2.00000 ( retract )

G00 X1.33585 Y8.39195 ( rapid move to begin. )
F100.00000
G01 Z-0.05500
G04 P0 ( dwell for no time -- G64 should not smooth over this point )
F200.00000
G01 X1.33585 Y8.39195
X1.33607 Y8.39162
G04 P0 ( dwell for no time -- G64 should not smooth over this point )
G00 Z2.00000 ( retract )

G00 X1.23475 Y8.63614 ( rapid move to begin. )
F100.00000
G01 Z-0.05500
G04 P0 ( dwell for no time -- G64 should not smooth over this point )
F200.00000
G01 X1.23475 Y8.63614
X1.23765 Y8.60696
G04 P0 ( dwell for no time -- G64 should not smooth over this point )
G00 Z2.00000 ( retract )

G00 X3.91478 Y9.75476 ( rapid move to begin. )
F100.00000
G01 Z-0.05500
G04 P0 ( dwell for no time -- G64 should not smooth over this point )
F200.00000
G01 X3.91478 Y9.75476
X3.91628 Y10.38529
X3.93963 Y10.44168
X3.97011 Y10.47386
X4.03226 Y10.52448
X4.12812 Y10.59172
X4.20219 Y10.65471
X4.20274 Y10.66047
X4.20219 Y10.72476
X4.12812 Y10.78778
X4.03221 Y10.85504
X3.97008 Y10.90563
X3.93963 Y10.93782
X3.91628 Y10.99415
X3.91628 Y11.65529
X3.93963 Y11.71168
X3.97011 Y11.74386
X4.03226 Y11.79448
X4.12812 Y11.86172
X4.20219 Y11.92471
X4.20274 Y11.93047
X4.20219 Y11.99476
X4.12809 Y12.05778
X4.03218 Y12.12504
X3.97008 Y12.17563
X3.93960 Y12.20782
X3.91628 Y12.26415
X3.91628 Y12.92529
X3.93963 Y12.98168
X3.97011 Y13.01386
X4.03226 Y13.06446
X4.12812 Y13.13172
X4.20219 Y13.19471
X4.20274 Y13.20047
X4.20219 Y13.26476
X4.12812 Y13.32778
X4.03221 Y13.39504
X3.97008 Y13.44563
X3.93963 Y13.47782
X3.91628 Y13.53415
X3.91628 Y14.19529
X3.93963 Y14.25168
X3.98283 Y14.29488
X4.03927 Y14.31825
X4.06980 Y14.31975
X5.61976 Y14.31975
X5.65029 Y14.31825
X5.70673 Y14.29486
X5.74988 Y14.25168
X5.77320 Y14.19542
X5.77470 Y14.16476
X5.77549 Y13.56476
X5.77175 Y13.51419
X5.75984 Y13.46352
X5.73017 Y13.37388
X5.68953 Y13.27396
X5.61976 Y13.26479
X4.20219 Y13.26476
G04 P0 ( dwell for no time -- G64 should not smooth over this point )
G00 Z2.00000 ( retract )

G00 X3.91981 Y9.75476 ( rapid move to begin. )
F100.00000
G01 Z-0.05500
G04 P0 ( dwell for no time -- G64 should not smooth over this point )
F200.00000
G01 X3.91981 Y9.75476
X3.91981 Y10.35476
X3.92268 Y10.38402
X3.93122 Y10.41214
X3.94509 Y10.43807
X3.96373 Y10.46080
X3.98646 Y10.47945
X4.01240 Y10.49332
X4.04051 Y10.50185
X4.06980 Y10.50475
X5.61976 Y10.50475
X5.64902 Y10.50185
X5.67714 Y10.49332
X5.70307 Y10.47945
X5.72580 Y10.46080
X5.74445 Y10.43807
X5.75832 Y10.41214
X5.76685 Y10.38402
X5.76975 Y10.35476
X5.76975 Y9.75476
X5.76685 Y9.72547
X5.75832 Y9.69736
X5.74445 Y9.67142
X5.72580 Y9.64869
X5.70307 Y9.63005
X5.67714 Y9.61618
X5.64902 Y9.60764
X5.61976 Y9.60477
X4.06980 Y9.60477
X4.04051 Y9.60764
X4.01240 Y9.61618
X3.98646 Y9.63005
X3.96373 Y9.64869
X3.94509 Y9.67142
X3.93122 Y9.69736
X3.92268 Y9.72547
X3.91981 Y9.75476
X3.91478 Y9.75476
X3.91628 Y9.72415
X3.93963 Y9.66779
X3.98283 Y9.62461
X4.03919 Y9.60124
X5.61976 Y9.59974
X5.65032 Y9.60124
X5.70670 Y9.62459
X5.74986 Y9.66777
X5.77325 Y9.72420
X5.77478 Y10.35476
X5.76698 Y10.42420
X5.75514 Y10.47086
X5.73020 Y10.54554
X5.68953 Y10.64554
X5.61976 Y10.65473
X4.20219 Y10.65471
G04 P0 ( dwell for no time -- G64 should not smooth over this point )
G00 Z2.00000 ( retract )

G00 X3.91478 Y11.02476 ( rapid move to begin. )
F100.00000
G01 Z-0.05500
G04 P0 ( dwell for no time -- G64 should not smooth over this point )
F200.00000
G01 X3.91478 Y11.02476
X3.91981 Y11.02476
X3.91981 Y11.62476
X3.92268 Y11.65402
X3.93122 Y11.68214
X3.94509 Y11.70807
X3.96373 Y11.73080
X3.98646 Y11.74945
X4.01240 Y11.76332
X4.04051 Y11.77185
X4.06980 Y11.77475
X5.61976 Y11.77475
X5.64902 Y11.77185
X5.67714 Y11.76332
X5.70307 Y11.74945
X5.72580 Y11.73080
X5.74445 Y11.70807
X5.75832 Y11.68214
X5.76685 Y11.65402
X5.76975 Y11.62476
X5.76975 Y11.02476
X5.76685 Y10.99547
X5.75832 Y10.96736
X5.74445 Y10.94142
X5.72580 Y10.91869
X5.70307 Y10.90005
X5.67714 Y10.88618
X5.64902 Y10.87764
X5.61976 Y10.87477
X4.06980 Y10.87477
X4.04051 Y10.87764
X4.01240 Y10.88618
X3.98646 Y10.90005
X3.96373 Y10.91869
X3.94509 Y10.94142
X3.93122 Y10.96736
X3.92268 Y10.99547
X3.91981 Y11.02476
G04 P0 ( dwell for no time -- G64 should not smooth over this point )
G00 Z2.00000 ( retract )

G00 X4.20219 Y10.72476 ( rapid move to begin. )
F100.00000
G01 Z-0.05500
G04 P0 ( dwell for no time -- G64 should not smooth over this point )
F200.00000
G01 X4.20219 Y10.72476
X5.61976 Y10.72479
X5.67828 Y10.73053
X5.73454 Y10.74760
X5.78641 Y10.77533
X5.83185 Y10.81265
X5.86916 Y10.85809
X5.89690 Y10.90995
X5.91397 Y10.96621
X5.91973 Y11.02476
X5.91973 Y11.62476
X5.91397 Y11.68328
X5.89690 Y11.73954
X5.86916 Y11.79141
X5.83185 Y11.83685
X5.78641 Y11.87416
X5.73454 Y11.90190
X5.67828 Y11.91897
X5.61976 Y11.92473
X4.20219 Y11.92471
G04 P0 ( dwell for no time -- G64 should not smooth over this point )
G00 Z2.00000 ( retract )

G00 X6.06985 Y10.87269 ( rapid move to begin. )
F100.00000
G01 Z-0.05500
G04 P0 ( dwell for no time -- G64 should not smooth over this point )
F200.00000
G01 X6.06985 Y10.87269
X6.10553 Y10.83716
X6.19057 Y10.73967
X6.23886 Y10.69100
X6.27785 Y10.65735
X6.33921 Y10.63124
X7.54477 Y10.62974
X7.54477 Y10.63479
X6.36982 Y10.63479
X6.34054 Y10.63766
X6.31242 Y10.64620
X6.28648 Y10.66007
X6.26375 Y10.67871
X6.24511 Y10.70144
X6.23124 Y10.72738
X6.22270 Y10.75550
X6.21983 Y10.78478
X6.21983 Y11.95973
X6.06985 Y11.95973
G04 P0 ( dwell for no time -- G64 should not smooth over this point )
G00 Z2.00000 ( retract )

G00 X7.54477 Y13.28973 ( rapid move to begin. )
F100.00000
G01 Z-0.05500
G04 P0 ( dwell for no time -- G64 should not smooth over this point )
F200.00000
G01 X7.54477 Y13.28973
X8.71975 Y13.28973
X8.75023 Y13.28823
X8.81170 Y13.26212
X8.85066 Y13.22846
X8.89895 Y13.17980
X8.98399 Y13.08231
X9.01970 Y13.04675
X9.01970 Y11.95973
G04 P0 ( dwell for no time -- G64 should not smooth over this point )
G00 Z2.00000 ( retract )

G00 X6.33932 Y13.28823 ( rapid move to begin. )
F100.00000
G01 Z-0.05500
G04 P0 ( dwell for no time -- G64 should not smooth over this point )
F200.00000
G01 X6.33932 Y13.28823
X7.54477 Y13.28973
X7.54477 Y13.28467
X6.36982 Y13.28470
X6.34054 Y13.28180
X6.31242 Y13.27327
X6.28648 Y13.25940
X6.26375 Y13.24076
X6.24511 Y13.21803
X6.23124 Y13.19209
X6.22270 Y13.16397
X6.21983 Y13.13471
X6.21983 Y11.95973
X7.54477 Y11.95973
X7.54477 Y10.63479
X8.71975 Y10.63479
X8.74901 Y10.63766
X8.77713 Y10.64620
X8.80307 Y10.66007
X8.82580 Y10.67871
X8.84444 Y10.70144
X8.85831 Y10.72738
X8.86684 Y10.75550
X8.86974 Y10.78478
X8.86971 Y11.95973
X7.54477 Y11.95973
X7.54477 Y13.28467
X8.71975 Y13.28470
X8.74901 Y13.28180
X8.77713 Y13.27327
X8.80307 Y13.25940
X8.82580 Y13.24076
X8.84444 Y13.21803
X8.85831 Y13.19209
X8.86684 Y13.16397
X8.86974 Y13.13471
X8.86971 Y11.95973
X9.01970 Y11.95973
X9.01970 Y10.87269
X8.98401 Y10.83716
X8.89892 Y10.73965
X8.85054 Y10.69088
X8.81168 Y10.65732
X8.75028 Y10.63124
X7.54477 Y10.62974
G04 P0 ( dwell for no time -- G64 should not smooth over this point )
G00 Z2.00000 ( retract )

G00 X6.06985 Y13.04675 ( rapid move to begin. )
F100.00000
G01 Z-0.05500
G04 P0 ( dwell for no time -- G64 should not smooth over this point )
F200.00000
G01 X6.06985 Y13.04675
X6.10528 Y13.08201
X6.19070 Y13.17990
X6.23888 Y13.22849
X6.27782 Y13.26209
X6.33932 Y13.28823
X6.33800 Y13.29476
X6.27401 Y13.26827
X6.23368 Y13.23822
X6.18062 Y13.21315
X6.12347 Y13.19885
X6.06505 Y13.19603
X6.00675 Y13.20466
X5.97864 Y13.21322
X5.92573 Y13.23827
X5.87848 Y13.27332
X5.85771 Y13.29412
X5.82273 Y13.34129
X5.79766 Y13.39435
X5.78445 Y13.44294
X5.78267 Y13.46385
X5.77864 Y13.74375
X5.77973 Y14.19669
X5.75542 Y14.25536
X5.71041 Y14.30040
X5.65159 Y14.32475
X4.03797 Y14.32478
X3.97912 Y14.30040
X3.93409 Y14.25536
X3.90973 Y14.19661
X3.90976 Y13.53286
X3.93406 Y13.47411
X3.99485 Y13.40827
X4.02507 Y13.35788
X4.04486 Y13.30253
X4.05347 Y13.24439
X4.05060 Y13.18584
X4.04486 Y13.15696
X4.02510 Y13.10167
X3.99485 Y13.05120
X3.93409 Y12.98536
X3.90973 Y12.92661
X3.90976 Y12.26286
X3.93406 Y12.20411
X3.99485 Y12.13827
X4.02507 Y12.08788
X4.04486 Y12.03253
X4.05347 Y11.97439
X4.05060 Y11.91584
X4.04486 Y11.88696
X4.02510 Y11.83167
X3.99485 Y11.78120
X3.93409 Y11.71536
X3.90973 Y11.65661
X3.90976 Y10.99286
X3.93406 Y10.93411
X3.99485 Y10.86827
X4.02507 Y10.81788
X4.04486 Y10.76253
X4.05347 Y10.70439
X4.05060 Y10.64584
X4.04486 Y10.61696
X4.02510 Y10.56167
X3.99485 Y10.51120
X3.93409 Y10.44536
X3.90973 Y10.38661
X3.90976 Y9.72286
X3.93409 Y9.66408
X3.97912 Y9.61905
X4.03787 Y9.59469
X5.65161 Y9.59469
X5.71041 Y9.61905
X5.75542 Y9.66406
X5.77978 Y9.72291
X5.77980 Y10.42420
X5.78339 Y10.46807
X5.79766 Y10.52509
X5.82271 Y10.57813
X5.83911 Y10.60269
X5.87848 Y10.64612
X5.90122 Y10.66479
X5.92573 Y10.68117
X5.97866 Y10.70622
X6.00680 Y10.71478
X6.06507 Y10.72341
X6.12359 Y10.72054
X6.18049 Y10.70635
X6.23365 Y10.68125
X6.27404 Y10.65118
X6.33792 Y10.62471
X8.75158 Y10.62469
X8.81549 Y10.65118
X8.84142 Y10.67246
X8.88168 Y10.69504
X8.93715 Y10.71486
X8.99517 Y10.72341
X9.02445 Y10.72341
X9.08264 Y10.71480
X9.13791 Y10.69502
X9.16385 Y10.68115
X9.18838 Y10.66474
X9.23169 Y10.62547
X9.26682 Y10.57813
X9.28066 Y10.55219
X9.30040 Y10.49695
X9.30685 Y10.45560
X9.31091 Y10.17571
X9.30982 Y9.72268
X9.33410 Y9.66408
X9.37911 Y9.61905
X9.43789 Y9.59472
X11.05163 Y9.59472
X11.11040 Y9.61905
X11.15544 Y9.66408
X11.17979 Y9.72291
X11.17982 Y10.38651
X11.15544 Y10.44536
X11.09463 Y10.51130
X11.06445 Y10.56162
X11.04467 Y10.61696
X11.03606 Y10.67510
X11.03893 Y10.73365
X11.04467 Y10.76253
X11.06445 Y10.81788
X11.09468 Y10.86827
X11.15544 Y10.93411
X11.17982 Y10.99293
X11.17982 Y11.65651
X11.15544 Y11.71536
X11.09463 Y11.78130
X11.06445 Y11.83162
X11.04467 Y11.88696
X11.03606 Y11.94510
X11.03893 Y12.00365
X11.04467 Y12.03253
X11.06445 Y12.08788
X11.09468 Y12.13827
X11.15544 Y12.20411
X11.17982 Y12.26293
X11.17982 Y12.92651
X11.15544 Y12.98536
X11.09463 Y13.05130
X11.06445 Y13.10162
X11.04467 Y13.15696
X11.03606 Y13.21510
X11.03893 Y13.27365
X11.04467 Y13.30253
X11.06445 Y13.35788
X11.09468 Y13.40827
X11.15544 Y13.47411
X11.17982 Y13.53293
X11.17982 Y14.19651
X11.15544 Y14.25536
X11.11040 Y14.30040
X11.05157 Y14.32475
X9.43796 Y14.32478
X9.37914 Y14.30040
X9.33410 Y14.25539
X9.30982 Y14.19676
X9.31091 Y13.74375
X9.30685 Y13.46385
X9.30040 Y13.42250
X9.28066 Y13.36725
X9.26682 Y13.34132
X9.23177 Y13.29405
X9.18831 Y13.25465
X9.16380 Y13.23827
X9.13789 Y13.22443
X9.08272 Y13.20466
X9.02445 Y13.19603
X8.99517 Y13.19603
X8.93718 Y13.20459
X8.88181 Y13.22435
X8.84150 Y13.24693
X8.81549 Y13.26824
X8.75153 Y13.29478
X6.33800 Y13.29476
G04 P0 ( dwell for no time -- G64 should not smooth over this point )
G00 Z2.00000 ( retract )

G00 X5.68953 Y13.27396 ( rapid move to begin. )
F100.00000
G01 Z-0.05500
G04 P0 ( dwell for no time -- G64 should not smooth over this point )
F200.00000
G01 X5.68953 Y13.27396
X5.72309 Y13.22173
X5.74173 Y13.19900
X5.80602 Y13.13875
X5.85504 Y13.10599
X5.93495 Y13.06974
X5.96307 Y13.06118
X6.02116 Y13.04962
X6.06985 Y13.04675
X6.06985 Y10.87269
X6.02118 Y10.86982
X5.93502 Y10.84970
X5.85504 Y10.81346
X5.80602 Y10.78069
X5.74183 Y10.72057
X5.69040 Y10.64876
X5.70589 Y10.60716
G04 P0 ( dwell for no time -- G64 should not smooth over this point )
G00 Z2.00000 ( retract )

G00 X4.20219 Y11.99476 ( rapid move to begin. )
F100.00000
G01 Z-0.05500
G04 P0 ( dwell for no time -- G64 should not smooth over this point )
F200.00000
G01 X4.20219 Y11.99476
X5.61976 Y11.99476
X5.67828 Y12.00050
X5.73454 Y12.01757
X5.78641 Y12.04531
X5.83185 Y12.08262
X5.86916 Y12.12806
X5.89690 Y12.17993
X5.91397 Y12.23619
X5.91973 Y12.29474
X5.91973 Y12.89473
X5.91397 Y12.95326
X5.89690 Y13.00952
X5.86916 Y13.06138
X5.83185 Y13.10682
X5.78641 Y13.14414
X5.73454 Y13.17187
X5.67828 Y13.18894
X5.61976 Y13.19471
X4.20219 Y13.19471
G04 P0 ( dwell for no time -- G64 should not smooth over this point )
G00 Z2.00000 ( retract )

G00 X3.91478 Y12.29474 ( rapid move to begin. )
F100.00000
G01 Z-0.05500
G04 P0 ( dwell for no time -- G64 should not smooth over this point )
F200.00000
G01 X3.91478 Y12.29474
X3.91981 Y12.29474
X3.91981 Y12.89473
X3.92268 Y12.92399
X3.93122 Y12.95211
X3.94509 Y12.97805
X3.96373 Y13.00078
X3.98646 Y13.01942
X4.01240 Y13.03329
X4.04051 Y13.04183
X4.06980 Y13.04472
X5.61976 Y13.04472
X5.64902 Y13.04183
X5.67714 Y13.03329
X5.70307 Y13.01942
X5.72580 Y13.00078
X5.74445 Y12.97805
X5.75832 Y12.95211
X5.76685 Y12.92399
X5.76975 Y12.89473
X5.76975 Y12.29474
X5.76685 Y12.26545
X5.75832 Y12.23733
X5.74445 Y12.21140
X5.72580 Y12.18866
X5.70307 Y12.17002
X5.67714 Y12.15615
X5.64902 Y12.14762
X5.61976 Y12.14475
X4.06980 Y12.14475
X4.04051 Y12.14762
X4.01240 Y12.15615
X3.98646 Y12.17002
X3.96373 Y12.18866
X3.94509 Y12.21140
X3.93122 Y12.23733
X3.92268 Y12.26545
X3.91981 Y12.29474
G04 P0 ( dwell for no time -- G64 should not smooth over this point )
G00 Z2.00000 ( retract )

G00 X3.91478 Y13.56476 ( rapid move to begin. )
F100.00000
G01 Z-0.05500
G04 P0 ( dwell for no time -- G64 should not smooth over this point )
F200.00000
G01 X3.91478 Y13.56476
X3.91981 Y13.56476
X3.91981 Y14.16476
X3.92268 Y14.19402
X3.93122 Y14.22214
X3.94509 Y14.24807
X3.96373 Y14.27080
X3.98646 Y14.28945
X4.01240 Y14.30332
X4.04051 Y14.31185
X4.06980 Y14.31475
X5.61976 Y14.31475
X5.64902 Y14.31185
X5.67714 Y14.30332
X5.70307 Y14.28945
X5.72580 Y14.27080
X5.74445 Y14.24807
X5.75832 Y14.22214
X5.76685 Y14.19402
X5.76975 Y14.16476
X5.76975 Y13.56476
X5.76685 Y13.53547
X5.75832 Y13.50736
X5.74445 Y13.48142
X5.72580 Y13.45869
X5.70307 Y13.44005
X5.67714 Y13.42618
X5.64902 Y13.41764
X5.61976 Y13.41477
X4.06980 Y13.41477
X4.04051 Y13.41764
X4.01240 Y13.42618
X3.98646 Y13.44005
X3.96373 Y13.45869
X3.94509 Y13.48142
X3.93122 Y13.50736
X3.92268 Y13.53547
X3.91981 Y13.56476
G04 P0 ( dwell for no time -- G64 should not smooth over this point )
G00 Z2.00000 ( retract )

G00 X1.23473 Y18.35650 ( rapid move to begin. )
F100.00000
G01 Z-0.05500
G04 P0 ( dwell for no time -- G64 should not smooth over this point )
F200.00000
G01 X1.23473 Y18.35650
X1.23765 Y18.38596
X1.23478 Y18.35675
G04 P0 ( dwell for no time -- G64 should not smooth over this point )
G00 Z2.00000 ( retract )

G00 X1.23765 Y18.38596 ( rapid move to begin. )
F100.00000
G01 Z-0.05500
G04 P0 ( dwell for no time -- G64 should not smooth over this point )
F200.00000
G01 X1.23765 Y18.38596
X1.24347 Y18.42701
X1.25840 Y18.49007
X1.28327 Y18.53171
X1.31743 Y18.57824
X1.36224 Y18.61126
X1.40567 Y18.63704
X1.46655 Y18.65182
X1.50973 Y18.65766
X1.55291 Y18.65182
X1.61380 Y18.63701
X1.65723 Y18.61126
X1.70204 Y18.57821
X1.73620 Y18.53171
X1.76107 Y18.49007
X1.77598 Y18.42713
X1.78474 Y18.35634
X1.78474 Y8.72083
X1.87260 Y8.63297
X1.82353 Y8.68877
X1.79660 Y8.72573
X1.78952 Y8.77087
X1.78474 Y8.84511
X1.78835 Y8.80119
X1.80262 Y8.74412
X1.82774 Y8.69103
X1.86269 Y8.64392
X2.59749 Y7.90808
X2.65329 Y7.85901
X2.69025 Y7.83208
X2.73539 Y7.82500
X2.80963 Y7.82022
X2.68535 Y7.82022
X2.59749 Y7.90808
X2.63117 Y7.87953
X2.65555 Y7.86322
X2.70864 Y7.83810
X2.76571 Y7.82383
X2.80963 Y7.82022
X12.32089 Y7.82022
X12.37893 Y7.81308
X12.45462 Y7.79657
X12.51980 Y7.75471
X12.56562 Y7.71893
X14.03282 Y6.25174
X14.06871 Y6.20580
X14.11060 Y6.14059
X14.12769 Y6.06094
X14.13303 Y6.00676
X14.13419 Y2.04246
X14.11758 Y1.93682
X14.11057 Y1.90890
X14.09582 Y1.88429
X14.03298 Y1.79798
X13.01096 Y0.77596
X12.92168 Y0.70746
X12.90270 Y0.69732
X12.87453 Y0.68879
X12.79752 Y0.67642
X2.18032 Y0.67642
X2.12314 Y0.68239
X2.08309 Y0.69456
X2.05792 Y0.70573
G04 P0 ( dwell for no time -- G64 should not smooth over this point )
G00 Z2.00000 ( retract )

G00 X4.38976 Y16.75365 ( rapid move to begin. )
F100.00000
G01 Z-0.05500
G04 P0 ( dwell for no time -- G64 should not smooth over this point )
F200.00000
G01 X4.38976 Y16.75365
X4.39126 Y18.48418
X4.41463 Y18.54057
X4.45781 Y18.58375
X4.51428 Y18.60712
X4.51298 Y18.61365
X4.45413 Y18.58926
X4.40909 Y18.54425
X4.38476 Y18.48548
X4.38474 Y16.72175
X4.40909 Y16.66295
X4.45410 Y16.61794
X4.51288 Y16.59358
X6.57663 Y16.59361
X6.63540 Y16.61794
X6.68044 Y16.66295
X6.70480 Y16.72178
X6.70482 Y18.48540
X6.68044 Y18.54423
X6.63543 Y18.58926
X6.57658 Y18.61362
X4.51298 Y18.61365
G04 P0 ( dwell for no time -- G64 should not smooth over this point )
G00 Z2.00000 ( retract )

G00 X4.39479 Y16.75365 ( rapid move to begin. )
F100.00000
G01 Z-0.05500
G04 P0 ( dwell for no time -- G64 should not smooth over this point )
F200.00000
G01 X4.39479 Y16.75365
X4.39479 Y18.45363
X4.39766 Y18.48289
X4.40620 Y18.51100
X4.42007 Y18.53694
X4.43871 Y18.55967
X4.46144 Y18.57831
X4.48738 Y18.59218
X4.51549 Y18.60072
X4.54478 Y18.60361
X6.54478 Y18.60361
X6.57404 Y18.60072
X6.60216 Y18.59218
X6.62809 Y18.57831
X6.65082 Y18.55967
X6.66947 Y18.53694
X6.68333 Y18.51100
X6.69187 Y18.48289
X6.69476 Y18.45363
X6.69476 Y16.75365
X6.69187 Y16.72437
X6.68333 Y16.69625
X6.66947 Y16.67032
X6.65082 Y16.64758
X6.62809 Y16.62894
X6.60216 Y16.61507
X6.57404 Y16.60654
X6.54478 Y16.60367
X4.54478 Y16.60367
X4.51549 Y16.60654
X4.48738 Y16.61507
X4.46144 Y16.62894
X4.43871 Y16.64758
X4.42007 Y16.67032
X4.40620 Y16.69625
X4.39766 Y16.72437
X4.39479 Y16.75365
X4.38976 Y16.75365
X4.39126 Y16.72305
X4.41463 Y16.66666
X4.45781 Y16.62350
X4.51420 Y16.60014
X6.54478 Y16.59864
X6.57533 Y16.60014
X6.63170 Y16.62348
X6.67490 Y16.66666
X6.69827 Y16.72310
X6.69979 Y18.45363
X6.69827 Y18.48411
X6.67493 Y18.54054
X6.63175 Y18.58372
X6.57528 Y18.60712
X6.54478 Y18.60862
X4.51428 Y18.60712
G04 P0 ( dwell for no time -- G64 should not smooth over this point )
G00 Z2.00000 ( retract )

G00 X8.38978 Y16.75365 ( rapid move to begin. )
F100.00000
G01 Z-0.05500
G04 P0 ( dwell for no time -- G64 should not smooth over this point )
F200.00000
G01 X8.38978 Y16.75365
X8.38978 Y18.45363
X8.39128 Y18.48418
X8.41462 Y18.54054
X8.45780 Y18.58372
X8.51427 Y18.60712
X8.54480 Y18.60862
X10.54479 Y18.60862
X10.57527 Y18.60712
X10.63174 Y18.58372
X10.67492 Y18.54054
X10.69829 Y18.48411
X10.69978 Y18.45363
X10.69978 Y16.75365
X10.69829 Y16.72307
X10.67489 Y16.66666
X10.63169 Y16.62348
X10.57532 Y16.60014
X10.54479 Y16.59864
X8.51419 Y16.60014
X8.45780 Y16.62350
X8.41462 Y16.66668
X8.39128 Y16.72305
X8.38978 Y16.75365
X8.39481 Y16.75365
X8.39481 Y18.45363
X8.39768 Y18.48289
X8.40622 Y18.51100
X8.42008 Y18.53694
X8.43873 Y18.55967
X8.46146 Y18.57831
X8.48739 Y18.59218
X8.51551 Y18.60072
X8.54480 Y18.60361
X10.54479 Y18.60361
X10.57405 Y18.60072
X10.60217 Y18.59218
X10.62811 Y18.57831
X10.65084 Y18.55967
X10.66948 Y18.53694
X10.68335 Y18.51100
X10.69189 Y18.48289
X10.69478 Y18.45363
X10.69478 Y16.75365
X10.69189 Y16.72437
X10.68335 Y16.69625
X10.66948 Y16.67032
X10.65084 Y16.64758
X10.62811 Y16.62894
X10.60217 Y16.61507
X10.57405 Y16.60654
X10.54479 Y16.60367
X8.54480 Y16.60367
X8.51551 Y16.60654
X8.48739 Y16.61507
X8.46146 Y16.62894
X8.43873 Y16.64758
X8.42008 Y16.67032
X8.40622 Y16.69625
X8.39768 Y16.72437
X8.39481 Y16.75365
G04 P0 ( dwell for no time -- G64 should not smooth over this point )
G00 Z2.00000 ( retract )

G00 X8.51287 Y16.59358 ( rapid move to begin. )
F100.00000
G01 Z-0.05500
G04 P0 ( dwell for no time -- G64 should not smooth over this point )
F200.00000
G01 X8.51287 Y16.59358
X8.45409 Y16.61794
X8.40909 Y16.66295
X8.38473 Y16.72175
X8.38475 Y18.48548
X8.40909 Y18.54425
X8.45412 Y18.58926
X8.51297 Y18.61365
X10.57657 Y18.61362
X10.63542 Y18.58926
X10.68043 Y18.54423
X10.70481 Y18.48540
X10.70479 Y16.72178
X10.68043 Y16.66295
X10.63540 Y16.61794
X10.57662 Y16.59361
X8.51287 Y16.59358
X8.51419 Y16.60014
G04 P0 ( dwell for no time -- G64 should not smooth over this point )
G00 Z2.00000 ( retract )

G00 X9.31983 Y13.56476 ( rapid move to begin. )
F100.00000
G01 Z-0.05500
G04 P0 ( dwell for no time -- G64 should not smooth over this point )
F200.00000
G01 X9.31983 Y13.56476
X9.31983 Y14.16476
X9.32270 Y14.19402
X9.33123 Y14.22214
X9.34510 Y14.24807
X9.36374 Y14.27080
X9.38648 Y14.28945
X9.41241 Y14.30332
X9.44053 Y14.31185
X9.46982 Y14.31475
X11.01977 Y14.31475
X11.04903 Y14.31185
X11.07715 Y14.30332
X11.10309 Y14.28945
X11.12582 Y14.27080
X11.14446 Y14.24807
X11.15833 Y14.22214
X11.16687 Y14.19402
X11.16976 Y14.16476
X11.16976 Y13.56476
X11.16687 Y13.53547
X11.15833 Y13.50736
X11.14446 Y13.48142
X11.12582 Y13.45869
X11.10309 Y13.44005
X11.07715 Y13.42618
X11.04903 Y13.41764
X11.01977 Y13.41477
X9.46982 Y13.41477
X9.44053 Y13.41764
X9.41241 Y13.42618
X9.38648 Y13.44005
X9.36374 Y13.45869
X9.34510 Y13.48142
X9.33123 Y13.50736
X9.32270 Y13.53547
X9.31983 Y13.56476
X9.31406 Y13.56476
X9.31780 Y13.51419
X9.32971 Y13.46352
X9.35938 Y13.37388
X9.39999 Y13.27393
G04 P0 ( dwell for no time -- G64 should not smooth over this point )
G00 Z2.00000 ( retract )

G00 X9.31406 Y13.56476 ( rapid move to begin. )
F100.00000
G01 Z-0.05500
G04 P0 ( dwell for no time -- G64 should not smooth over this point )
F200.00000
G01 X9.31406 Y13.56476
X9.31635 Y14.19549
X9.33964 Y14.25168
X9.38282 Y14.29486
X9.43926 Y14.31825
X9.46982 Y14.31975
X11.05028 Y14.31825
X11.10672 Y14.29486
X11.14992 Y14.25165
X11.17329 Y14.19521
X11.17327 Y13.53423
X11.14990 Y13.47779
X11.11944 Y13.44563
X11.05732 Y13.39504
X10.96140 Y13.32778
X10.88734 Y13.26476
G04 P0 ( dwell for no time -- G64 should not smooth over this point )
G00 Z2.00000 ( retract )

G00 X9.01970 Y13.04675 ( rapid move to begin. )
F100.00000
G01 Z-0.05500
G04 P0 ( dwell for no time -- G64 should not smooth over this point )
F200.00000
G01 X9.01970 Y13.04675
X9.06834 Y13.04962
X9.12636 Y13.06118
X9.20858 Y13.09214
X9.23448 Y13.10599
X9.28351 Y13.13875
X9.34769 Y13.19887
X9.36634 Y13.22158
X9.39999 Y13.27393
X9.46982 Y13.26479
X10.88734 Y13.26476
X10.88734 Y13.19471
X9.46982 Y13.19471
X9.41127 Y13.18894
X9.35501 Y13.17187
X9.30314 Y13.14414
X9.25770 Y13.10682
X9.22039 Y13.06138
X9.19265 Y13.00952
X9.17558 Y12.95326
X9.16984 Y12.89473
X9.16984 Y12.29474
X9.17558 Y12.23619
X9.19265 Y12.17993
X9.22039 Y12.12806
X9.25770 Y12.08262
X9.30314 Y12.04531
X9.35501 Y12.01757
X9.41127 Y12.00050
X9.46982 Y11.99476
X10.88734 Y11.99476
X10.88734 Y11.92471
X9.46982 Y11.92473
X9.41127 Y11.91897
X9.35501 Y11.90190
X9.30314 Y11.87416
X9.25770 Y11.83685
X9.22039 Y11.79141
X9.19265 Y11.73954
X9.17558 Y11.68328
X9.16984 Y11.62476
X9.16984 Y11.02476
X9.17558 Y10.96621
X9.19265 Y10.90995
X9.22039 Y10.85809
X9.25770 Y10.81265
X9.30314 Y10.77533
X9.35501 Y10.74760
X9.41127 Y10.73053
X9.46982 Y10.72479
X10.88734 Y10.72476
X10.88734 Y10.65471
G04 P0 ( dwell for no time -- G64 should not smooth over this point )
G00 Z2.00000 ( retract )

G00 X9.16984 Y12.29474 ( rapid move to begin. )
F100.00000
G01 Z-0.05500
G04 P0 ( dwell for no time -- G64 should not smooth over this point )
F200.00000
G01 X9.16984 Y12.29474
X9.31983 Y12.29474
X9.31983 Y12.89473
X9.32270 Y12.92399
X9.33123 Y12.95211
X9.34510 Y12.97805
X9.36374 Y13.00078
X9.38648 Y13.01942
X9.41241 Y13.03329
X9.44053 Y13.04183
X9.46982 Y13.04472
X11.01977 Y13.04472
X11.04903 Y13.04183
X11.07715 Y13.03329
X11.10309 Y13.01942
X11.12582 Y13.00078
X11.14446 Y12.97805
X11.15833 Y12.95211
X11.16687 Y12.92399
X11.16976 Y12.89473
X11.16976 Y12.29474
X11.16687 Y12.26545
X11.15833 Y12.23733
X11.14446 Y12.21140
X11.12582 Y12.18866
X11.10309 Y12.17002
X11.07715 Y12.15615
X11.04903 Y12.14762
X11.01977 Y12.14475
X9.46982 Y12.14475
X9.44053 Y12.14762
X9.41241 Y12.15615
X9.38648 Y12.17002
X9.36374 Y12.18866
X9.34510 Y12.21140
X9.33123 Y12.23733
X9.32270 Y12.26545
X9.31983 Y12.29474
G04 P0 ( dwell for no time -- G64 should not smooth over this point )
G00 Z2.00000 ( retract )

G00 X10.88734 Y11.99476 ( rapid move to begin. )
F100.00000
G01 Z-0.05500
G04 P0 ( dwell for no time -- G64 should not smooth over this point )
F200.00000
G01 X10.88734 Y11.99476
X10.96143 Y12.05778
X11.05734 Y12.12504
X11.11944 Y12.17563
X11.14990 Y12.20779
X11.17327 Y12.26423
X11.17479 Y12.29474
X11.17327 Y12.92521
X11.14990 Y12.98165
X11.11942 Y13.01386
X11.05732 Y13.06443
X10.96140 Y13.13172
X10.88734 Y13.19471
G04 P0 ( dwell for no time -- G64 should not smooth over this point )
G00 Z2.00000 ( retract )

G00 X10.88734 Y10.72476 ( rapid move to begin. )
F100.00000
G01 Z-0.05500
G04 P0 ( dwell for no time -- G64 should not smooth over this point )
F200.00000
G01 X10.88734 Y10.72476
X10.96140 Y10.78778
X11.05732 Y10.85504
X11.11944 Y10.90563
X11.14990 Y10.93779
X11.17327 Y10.99423
X11.17479 Y11.02476
X11.17329 Y11.65521
X11.14992 Y11.71165
X11.11942 Y11.74386
X11.05732 Y11.79446
X10.96140 Y11.86172
X10.88734 Y11.92471
G04 P0 ( dwell for no time -- G64 should not smooth over this point )
G00 Z2.00000 ( retract )

G00 X9.16984 Y11.02476 ( rapid move to begin. )
F100.00000
G01 Z-0.05500
G04 P0 ( dwell for no time -- G64 should not smooth over this point )
F200.00000
G01 X9.16984 Y11.02476
X9.31983 Y11.02476
X9.31983 Y11.62476
X9.32270 Y11.65402
X9.33123 Y11.68214
X9.34510 Y11.70807
X9.36374 Y11.73080
X9.38648 Y11.74945
X9.41241 Y11.76332
X9.44053 Y11.77185
X9.46982 Y11.77475
X11.01977 Y11.77475
X11.04903 Y11.77185
X11.07715 Y11.76332
X11.10309 Y11.74945
X11.12582 Y11.73080
X11.14446 Y11.70807
X11.15833 Y11.68214
X11.16687 Y11.65402
X11.16976 Y11.62476
X11.16976 Y11.02476
X11.16687 Y10.99547
X11.15833 Y10.96736
X11.14446 Y10.94142
X11.12582 Y10.91869
X11.10309 Y10.90005
X11.07715 Y10.88618
X11.04903 Y10.87764
X11.01977 Y10.87477
X9.46982 Y10.87477
X9.44053 Y10.87764
X9.41241 Y10.88618
X9.38648 Y10.90005
X9.36374 Y10.91869
X9.34510 Y10.94142
X9.33123 Y10.96736
X9.32270 Y10.99547
X9.31983 Y11.02476
G04 P0 ( dwell for no time -- G64 should not smooth over this point )
G00 Z2.00000 ( retract )

G00 X9.01970 Y10.87269 ( rapid move to begin. )
F100.00000
G01 Z-0.05500
G04 P0 ( dwell for no time -- G64 should not smooth over this point )
F200.00000
G01 X9.01970 Y10.87269
X9.06834 Y10.86982
X9.12620 Y10.85831
X9.20865 Y10.82728
X9.23459 Y10.81341
X9.28363 Y10.78059
X9.34754 Y10.72072
X9.36621 Y10.69801
X9.40037 Y10.64645
X9.35933 Y10.54554
X9.32968 Y10.45593
X9.31780 Y10.40528
X9.31406 Y10.35476
X9.31635 Y9.72398
X9.33964 Y9.66779
X9.38282 Y9.62461
X9.43918 Y9.60124
X9.46982 Y9.59974
X11.01977 Y9.59974
X11.05033 Y9.60124
X11.10669 Y9.62459
X11.14990 Y9.66777
X11.17327 Y9.72420
X11.17479 Y9.75476
X11.17329 Y10.38521
X11.14992 Y10.44165
X11.11942 Y10.47386
X11.05732 Y10.52446
X10.96140 Y10.59172
X10.88734 Y10.65471
X9.46982 Y10.65473
X9.39997 Y10.64551
G04 P0 ( dwell for no time -- G64 should not smooth over this point )
G00 Z2.00000 ( retract )

G00 X9.31485 Y9.75476 ( rapid move to begin. )
F100.00000
G01 Z-0.05500
G04 P0 ( dwell for no time -- G64 should not smooth over this point )
F200.00000
G01 X9.31485 Y9.75476
X9.31983 Y9.75476
X9.31983 Y10.35476
X9.32270 Y10.38402
X9.33123 Y10.41214
X9.34510 Y10.43807
X9.36374 Y10.46080
X9.38648 Y10.47945
X9.41241 Y10.49332
X9.44053 Y10.50185
X9.46982 Y10.50475
X11.01977 Y10.50475
X11.04903 Y10.50185
X11.07715 Y10.49332
X11.10309 Y10.47945
X11.12582 Y10.46080
X11.14446 Y10.43807
X11.15833 Y10.41214
X11.16687 Y10.38402
X11.16976 Y10.35476
X11.16976 Y9.75476
X11.16687 Y9.72547
X11.15833 Y9.69736
X11.14446 Y9.67142
X11.12582 Y9.64869
X11.10309 Y9.63005
X11.07715 Y9.61618
X11.04903 Y9.60764
X11.01977 Y9.60477
X9.46982 Y9.60477
X9.44053 Y9.60764
X9.41241 Y9.61618
X9.38648 Y9.63005
X9.36374 Y9.64869
X9.34510 Y9.67142
X9.33123 Y9.69736
X9.32270 Y9.72547
X9.31983 Y9.75476
G04 P0 ( dwell for no time -- G64 should not smooth over this point )
G00 Z2.00000 ( retract )

G00 X11.60215 Y6.34230 ( rapid move to begin. )
F100.00000
G01 Z-0.05500
G04 P0 ( dwell for no time -- G64 should not smooth over this point )
F200.00000
G01 X11.60215 Y6.34230
X11.67636 Y6.33755
X11.72145 Y6.33043
X11.75843 Y6.30351
X11.81424 Y6.25441
G04 P0 ( dwell for no time -- G64 should not smooth over this point )
G00 Z2.00000 ( retract )

G00 X12.37283 Y5.69582 ( rapid move to begin. )
F100.00000
G01 Z-0.05500
G04 P0 ( dwell for no time -- G64 should not smooth over this point )
F200.00000
G01 X12.37283 Y5.69582
X12.40283 Y5.66330
X12.43963 Y5.61614
X12.44898 Y5.60288
X12.45170 Y5.58736
X12.46056 Y5.49853
X12.46150 Y5.00433
X12.46602 Y4.95881
X12.48200 Y4.88771
X12.52658 Y4.81558
X12.52462 Y4.81901
G04 P0 ( dwell for no time -- G64 should not smooth over this point )
G00 Z2.00000 ( retract )

G00 X12.90786 Y5.70087 ( rapid move to begin. )
F100.00000
G01 Z-0.05500
G04 P0 ( dwell for no time -- G64 should not smooth over this point )
F200.00000
G01 X12.90786 Y5.70087
X12.88904 Y5.79216
X12.86844 Y5.83229
X12.86955 Y5.83028
X12.86072 Y5.85830
X12.85497 Y5.88723
X12.85210 Y5.94578
X12.86072 Y6.00392
X12.88050 Y6.05926
X12.91073 Y6.10966
X12.95010 Y6.15309
X12.99739 Y6.18817
X13.05043 Y6.21321
X13.10745 Y6.22749
X13.16600 Y6.23036
X13.22419 Y6.22175
X13.27946 Y6.20196
X13.32978 Y6.17179
X13.36346 Y6.14324
X13.33095 Y6.17323
X13.28378 Y6.21004
X13.19854 Y6.26086
X13.10019 Y6.30148
X13.01652 Y6.32505
X12.95812 Y6.33656
G04 P0 ( dwell for no time -- G64 should not smooth over this point )
G00 Z2.00000 ( retract )

G00 X13.36346 Y6.14324 ( rapid move to begin. )
F100.00000
G01 Z-0.05500
G04 P0 ( dwell for no time -- G64 should not smooth over this point )
F200.00000
G01 X13.36346 Y6.14324
X13.49632 Y6.01039
X13.52487 Y5.97671
X13.54118 Y5.95233
X13.55505 Y5.92640
X13.57484 Y5.87113
X13.58058 Y5.84232
X13.58421 Y5.79830
X13.57943 Y5.87252
X13.57235 Y5.91761
X13.54540 Y5.95459
X13.49632 Y6.01039
G04 P0 ( dwell for no time -- G64 should not smooth over this point )
G00 Z2.00000 ( retract )

G00 X14.12769 Y6.06094 ( rapid move to begin. )
F100.00000
G01 Z-0.05500
G04 P0 ( dwell for no time -- G64 should not smooth over this point )
F200.00000
G01 X14.12769 Y6.06094
X14.13183 Y6.01900
X14.13419 Y2.04246
X14.13425 Y6.00686
X14.13183 Y6.01888
G04 P0 ( dwell for no time -- G64 should not smooth over this point )
G00 Z2.00000 ( retract )

G00 X12.90915 Y4.99627 ( rapid move to begin. )
F100.00000
G01 Z-0.05500
G04 P0 ( dwell for no time -- G64 should not smooth over this point )
F200.00000
G01 X12.90915 Y4.99627
X12.91070 Y5.67153
X12.90786 Y5.70087
X12.91065 Y5.67212
X12.90915 Y4.99627
X12.91065 Y5.67212
G04 P0 ( dwell for no time -- G64 should not smooth over this point )
G00 Z2.00000 ( retract )

G00 X12.54606 Y4.80240 ( rapid move to begin. )
F100.00000
G01 Z-0.05500
G04 P0 ( dwell for no time -- G64 should not smooth over this point )
F200.00000
G01 X12.54606 Y4.80240
X12.59849 Y4.77049
X12.67824 Y4.75398
X12.73852 Y4.76163
X12.77047 Y4.76999
X12.80859 Y4.79246
X12.84268 Y4.81774
X12.87984 Y4.87131
X12.89318 Y4.89950
X12.90542 Y4.95883
X12.90915 Y4.99627
X12.90542 Y4.95883
G04 P0 ( dwell for no time -- G64 should not smooth over this point )
G00 Z2.00000 ( retract )

G00 X12.52612 Y4.81672 ( rapid move to begin. )
F100.00000
G01 Z-0.05500
G04 P0 ( dwell for no time -- G64 should not smooth over this point )
F200.00000
G01 X12.52612 Y4.81672
X12.54606 Y4.80240
X12.52815 Y4.81477
G04 P0 ( dwell for no time -- G64 should not smooth over this point )
G00 Z2.00000 ( retract )

G00 X11.52450 Y5.00125 ( rapid move to begin. )
F100.00000
G01 Z-0.05500
G04 P0 ( dwell for no time -- G64 should not smooth over this point )
F200.00000
G01 X11.52450 Y5.00125
X12.43275 Y4.09302
X12.19894 Y4.32686
G04 P0 ( dwell for no time -- G64 should not smooth over this point )
G00 Z2.00000 ( retract )

G00 X11.35927 Y5.08289 ( rapid move to begin. )
F100.00000
G01 Z-0.05500
G04 P0 ( dwell for no time -- G64 should not smooth over this point )
F200.00000
G01 X11.35927 Y5.08289
X11.42930 Y5.06747
X11.47850 Y5.03762
X11.52450 Y5.00125
X12.03786 Y4.48794
X12.07037 Y4.45797
X12.12605 Y4.41505
X12.16897 Y4.35937
X12.19894 Y4.32686
X12.17039 Y4.36054
X12.15409 Y4.38492
X12.13483 Y4.42383
X12.09592 Y4.44309
X12.07154 Y4.45939
X12.03786 Y4.48794
G04 P0 ( dwell for no time -- G64 should not smooth over this point )
G00 Z2.00000 ( retract )

G00 X11.12717 Y4.63796 ( rapid move to begin. )
F100.00000
G01 Z-0.05500
G04 P0 ( dwell for no time -- G64 should not smooth over this point )
F200.00000
G01 X11.12717 Y4.63796
X11.20138 Y4.63321
X11.24647 Y4.62609
X11.28345 Y4.59917
X11.33926 Y4.55007
G04 P0 ( dwell for no time -- G64 should not smooth over this point )
G00 Z2.00000 ( retract )

G00 X11.98167 Y3.90766 ( rapid move to begin. )
F100.00000
G01 Z-0.05500
G04 P0 ( dwell for no time -- G64 should not smooth over this point )
F200.00000
G01 X11.98167 Y3.90766
X12.03077 Y3.85185
X12.05769 Y3.81487
X12.06481 Y3.76978
X12.06956 Y3.69557
G04 P0 ( dwell for no time -- G64 should not smooth over this point )
G00 Z2.00000 ( retract )

G00 X12.51952 Y3.88378 ( rapid move to begin. )
F100.00000
G01 Z-0.05500
G04 P0 ( dwell for no time -- G64 should not smooth over this point )
F200.00000
G01 X12.51952 Y3.88378
X12.51794 Y2.36963
X12.51962 Y2.37802
X12.51957 Y3.88337
G04 P0 ( dwell for no time -- G64 should not smooth over this point )
G00 Z2.00000 ( retract )

G00 X12.06956 Y2.37789 ( rapid move to begin. )
F100.00000
G01 Z-0.05500
G04 P0 ( dwell for no time -- G64 should not smooth over this point )
F200.00000
G01 X12.06956 Y2.37789
X12.07248 Y2.34837
X12.06963 Y2.37748
G04 P0 ( dwell for no time -- G64 should not smooth over this point )
G00 Z2.00000 ( retract )

G00 X12.07248 Y2.34837 ( rapid move to begin. )
F100.00000
G01 Z-0.05500
G04 P0 ( dwell for no time -- G64 should not smooth over this point )
F200.00000
G01 X12.07248 Y2.34837
X12.07672 Y2.31772
X12.09010 Y2.26372
X12.13544 Y2.19478
X12.15960 Y2.17502
X12.20979 Y2.14365
X12.24174 Y2.13529
X12.29457 Y2.12661
X12.37944 Y2.14332
X12.45111 Y2.19178
X12.48868 Y2.24495
X12.50202 Y2.27314
X12.51428 Y2.33263
X12.51878 Y2.37809
X12.51957 Y3.88337
X12.51243 Y3.94149
X12.49976 Y3.99795
X12.46874 Y4.04695
X12.43275 Y4.09302
G04 P0 ( dwell for no time -- G64 should not smooth over this point )
G00 Z2.00000 ( retract )

G00 X12.77143 Y1.31424 ( rapid move to begin. )
F100.00000
G01 Z-0.05500
G04 P0 ( dwell for no time -- G64 should not smooth over this point )
F200.00000
G01 X12.77143 Y1.31424
X13.50618 Y2.05000
X13.54118 Y2.09717
X13.56630 Y2.15031
X13.58058 Y2.20720
X13.58421 Y2.25127
X13.57943 Y2.17705
X13.57235 Y2.13192
X13.54540 Y2.09491
X13.49632 Y2.03913
G04 P0 ( dwell for no time -- G64 should not smooth over this point )
G00 Z2.00000 ( retract )

G00 X12.99036 Y0.75851 ( rapid move to begin. )
F100.00000
G01 Z-0.05500
G04 P0 ( dwell for no time -- G64 should not smooth over this point )
F200.00000
G01 X12.99036 Y0.75851
X13.01121 Y0.77614
X13.01096 Y0.77596
G04 P0 ( dwell for no time -- G64 should not smooth over this point )
G00 Z2.00000 ( retract )

G00 X13.01121 Y0.77614 ( rapid move to begin. )
F100.00000
G01 Z-0.05500
G04 P0 ( dwell for no time -- G64 should not smooth over this point )
F200.00000
G01 X13.01121 Y0.77614
X14.03280 Y1.79778
X14.03290 Y1.79791
G04 P0 ( dwell for no time -- G64 should not smooth over this point )
G00 Z2.00000 ( retract )

G00 X13.58421 Y2.25127 ( rapid move to begin. )
F100.00000
G01 Z-0.05500
G04 P0 ( dwell for no time -- G64 should not smooth over this point )
F200.00000
G01 X13.58421 Y2.25127
X13.58421 Y5.79830

G04 P0 ( dwell for no time -- G64 should not smooth over this point )
G00 Z10.000 ( retract )

M5 ( Spindle off. )
G04 P1.000000
M9 ( Coolant off. )
M2 ( Program end. )

